/* XPM */
static char *wall_s[] = {
/* columns rows colors chars-per-pixel */
"128 128 256 2 ",
"   c black",
".  c blue",
"X  c green",
"o  c red",
"O  c cyan",
"+  c yellow",
"@  c magenta",
"#  c white",
"$  c #7B7B7B",
"%  c #7B7B7B",
"&  c #7B7B7B",
"*  c #7B7B7B",
"=  c #7B7B7B",
"-  c #7B7B7B",
";  c #7B7B7B",
":  c #7B7B7B",
">  c #7B7B7B",
",  c #7B7B7B",
"<  c #7B7B7B",
"1  c #7B7B7B",
"2  c #7B7B7B",
"3  c #7B7B7B",
"4  c #7B7B7B",
"5  c #7B7B7B",
"6  c #7B7B7B",
"7  c #7B7B7B",
"8  c #7B7B7B",
"9  c #7B7B7B",
"0  c #7B7B7B",
"q  c #7B7B7B",
"w  c #7B7B7B",
"e  c #7B7B7B",
"r  c #7B7B7B",
"t  c #7B7B7B",
"y  c #7B7B7B",
"u  c #7B7B7B",
"i  c #7B7B7B",
"p  c #7B7B7B",
"a  c #7B7B7B",
"s  c #7B7B7B",
"d  c #7B7B7B",
"f  c #7B7B7B",
"g  c #7B7B7B",
"h  c #7B7B7B",
"j  c #7B7B7B",
"k  c #7B7B7B",
"l  c #7B7B7B",
"z  c #7B7B7B",
"x  c #7B7B7B",
"c  c #7B7B7B",
"v  c #7B7B7B",
"b  c #7B7B7B",
"n  c #7B7B7B",
"m  c #7B7B7B",
"M  c #7B7B7B",
"N  c #7B7B7B",
"B  c #7B7B7B",
"V  c #7B7B7B",
"C  c #7B7B7B",
"Z  c #7B7B7B",
"A  c #7B7B7B",
"S  c #7B7B7B",
"D  c #7B7B7B",
"F  c #7B7B7B",
"G  c #7B7B7B",
"H  c #7B7B7B",
"J  c #7B7B7B",
"K  c #7B7B7B",
"L  c #7B7B7B",
"P  c #7B7B7B",
"I  c #7B7B7B",
"U  c #7B7B7B",
"Y  c #7B7B7B",
"T  c #7B7B7B",
"R  c #7B7B7B",
"E  c #7B7B7B",
"W  c #7B7B7B",
"Q  c #7B7B7B",
"!  c #7B7B7B",
"~  c #7B7B7B",
"^  c #7B7B7B",
"/  c #7B7B7B",
"(  c #7B7B7B",
")  c #7B7B7B",
"_  c #7B7B7B",
"`  c #7B7B7B",
"'  c #7B7B7B",
"]  c #7B7B7B",
"[  c #7B7B7B",
"{  c #7B7B7B",
"}  c #7B7B7B",
"|  c #7B7B7B",
" . c #7B7B7B",
".. c #7B7B7B",
"X. c #7B7B7B",
"o. c #7B7B7B",
"O. c #7B7B7B",
"+. c #7B7B7B",
"@. c #7B7B7B",
"#. c #7B7B7B",
"$. c #7B7B7B",
"%. c #7B7B7B",
"&. c #7B7B7B",
"*. c #7B7B7B",
"=. c #7B7B7B",
"-. c #7B7B7B",
";. c #7B7B7B",
":. c #7B7B7B",
">. c #7B7B7B",
",. c #7B7B7B",
"<. c #7B7B7B",
"1. c #7B7B7B",
"2. c #7B7B7B",
"3. c #7B7B7B",
"4. c #7B7B7B",
"5. c #7B7B7B",
"6. c #7B7B7B",
"7. c #7B7B7B",
"8. c #7B7B7B",
"9. c #7B7B7B",
"0. c #7B7B7B",
"q. c #7B7B7B",
"w. c #7B7B7B",
"e. c #7B7B7B",
"r. c #7B7B7B",
"t. c #7B7B7B",
"y. c #7B7B7B",
"u. c #7B7B7B",
"i. c #7B7B7B",
"p. c #7B7B7B",
"a. c #7B7B7B",
"s. c #7B7B7B",
"d. c #7B7B7B",
"f. c #7B7B7B",
"g. c #7B7B7B",
"h. c #7B7B7B",
"j. c #7B7B7B",
"k. c #7B7B7B",
"l. c #7B7B7B",
"z. c #7B7B7B",
"x. c #7B7B7B",
"c. c #7B7B7B",
"v. c #7B7B7B",
"b. c #7B7B7B",
"n. c #7B7B7B",
"m. c #7B7B7B",
"M. c #7B7B7B",
"N. c #7B7B7B",
"B. c #7B7B7B",
"V. c #7B7B7B",
"C. c #7B7B7B",
"Z. c #7B7B7B",
"A. c #7B7B7B",
"S. c #7B7B7B",
"D. c #7B7B7B",
"F. c #7B7B7B",
"G. c #7B7B7B",
"H. c #7B7B7B",
"J. c #7B7B7B",
"K. c #7B7B7B",
"L. c #7B7B7B",
"P. c #7B7B7B",
"I. c #7B7B7B",
"U. c #7B7B7B",
"Y. c #7B7B7B",
"T. c #7B7B7B",
"R. c #7B7B7B",
"E. c #7B7B7B",
"W. c #7B7B7B",
"Q. c #7B7B7B",
"!. c #7B7B7B",
"~. c #7B7B7B",
"^. c #7B7B7B",
"/. c #7B7B7B",
"(. c #7B7B7B",
"). c #7B7B7B",
"_. c #7B7B7B",
"`. c #7B7B7B",
"'. c #7B7B7B",
"]. c #7B7B7B",
"[. c #7B7B7B",
"{. c #7B7B7B",
"}. c #7B7B7B",
"|. c #7B7B7B",
" X c #7B7B7B",
".X c #7B7B7B",
"XX c #7B7B7B",
"oX c #7B7B7B",
"OX c #7B7B7B",
"+X c #7B7B7B",
"@X c #7B7B7B",
"#X c #7B7B7B",
"$X c #7B7B7B",
"%X c #7B7B7B",
"&X c #7B7B7B",
"*X c #7B7B7B",
"=X c #7B7B7B",
"-X c #7B7B7B",
";X c #7B7B7B",
":X c #7B7B7B",
">X c #7B7B7B",
",X c #7B7B7B",
"<X c #7B7B7B",
"1X c #7B7B7B",
"2X c #7B7B7B",
"3X c #7B7B7B",
"4X c #7B7B7B",
"5X c #7B7B7B",
"6X c #7B7B7B",
"7X c #7B7B7B",
"8X c #313920",
"9X c #292008",
"0X c #181818",
"qX c #413118",
"wX c #205218",
"eX c #293118",
"rX c gray45",
"tX c #202908",
"yX c #8B735A",
"uX c #202020",
"iX c #393939",
"pX c #100800",
"aX c #101800",
"sX c #735A4A",
"dX c #523929",
"fX c #6A5241",
"gX c #413120",
"hX c gray32",
"jX c #836A52",
"kX c #081000",
"lX c #4A3118",
"zX c #4A3920",
"xX c #9C7B6A",
"cX c #9C836A",
"vX c #184110",
"bX c #8B8B8B",
"nX c #7B7B7B",
"mX c #947B62",
"MX c #101010",
"NX c #5A4A31",
"BX c #626A4A",
"VX c gray16",
"CX c #5A6241",
"ZX c #313131",
"AX c #525239",
"SX c #625239",
"DX c #836A4A",
"FX c #103108",
"GX c #4A3929",
"HX c #394129",
"JX c gray29",
"KX c #7B7B62",
"LX c #414A31",
"PX c #6A7352",
"IX c #392910",
"UX c #626262",
/* pixels */
"LXLXLXLXLXLXHXHXvXtXIXIXHXqXqXIXIXLXLXLXHXdXLXLXLXLXLXLXLXLXNXNXLXLXHXHXLXNXLXNXLXLXLXLXLXLXLXiXLXLXLXLXLXLXLXLXLXLXdXLXIXIXLXLXIXIXtXIX9XtXIXIXHXLXHXiXiXHXHXHXHXLXLXZXiXHXLXIXIXLXLXLXIXIXHXLXLXiXIXVXHXHXLXiXHXHXtXHXLXLXLXHXHXHXHXIXIXHXHXHXHXLXHXIXIXLXLXLX",
"8X8X8X8X8X0X9X0XaXMXMXMXaX9X9XMXMXtX8X0XaX0X8X8X8X8X8X8X8X8X8X8XIX8X0X0XaX8X8XtX8X0X8X8X8XtX8XtXtXtX0XaX0XtX0XaX0X0X0XMXMX  0X0XMX    MXMX      aXtXtXaXMXMXaXtXtX0XMXMXMX0XVXVXMXMX8X0XMXMXMXtX0XMXMXMXMXMX0XtX9X  MXaXtXtXtX0X0XaXaXaXMXaX0X0XaXMXMXMXaX0X0X0X",
"LXLXLXLXLXLXLXHXZXZXIXVXHXHXgXqXIXHXLXLXHXLXLXLXLXLXLXLXLXLXLXLXLXLXLXLXLXLXLXLXHXHXLXLXLXLXLXLXLXHXLXIXHXLXLXHXLXIXHXIXLXZXZXZXZXIXIXZXIX0X0X0XIXLXHXtXIXIXIXHXHXIXHXiXIXHXLXHXHXLXLXIXtXIXIXiXHXHXLXHXVXIXiXLX8XaXtXHXLXLXLXHXHXHXHXHXLXHXHXHXHXVXHXLXHXiXHXLX",
"CXAXCXBXCXCXAXAXLXJXJXIXHXLX9XLXqXFXAXLXLXLXKXPXPXKXsXPXKXKXPXPXCXjXCXPXAXCXPXPXCXCXCXAXCXPXPXAXAXAXPXLXAXCXLXAXAXLXIXIXIXLXIX9XIXLXZXVX8XLXHX8XIXLXLXMXIXIXtXIXIXLXLX9XIXAXIXIX8XLXLXLXLXLXIXZXAXCXBXAXVXIXAXAX8X0XtXLXCXAXHXLXLX9XHXCXLXAXAXLXHXIXLXAXAXLXLXAX",
"CXBXfXCXCXCXBXBXAXLXIXZXLXLXLXdXLXhXLXLXIXAXLXPXKXPXPXPXPXPXCXLXLXAXAXLXLXAXcXCXKXPXCXCXPXPXPXsXiXCXAXKXKXAXAXLXAXVXIX9X9XZXJXLXZXIXLXZXHXLXAXhXLX8X9XIX8XLXLXJXAXCXKXtXIXJXJXHXHXCXAXLXAXAXLX9X9XAXCXAXLXIXJXCXJX0XtXLXBXIXFXLXLXHX8XAXCXCXCXCX9XZXLXZXLXIXIXLX",
"AXBXPXfXCXBXBXBXCXJXLXLXZXLXJXLXAXLXLXCXAXLXLXPXAXAXPXKXPXBXCXLXLXLXIXhXLXLXLXAXCXCXCXPXPXPXCXLXCXLXAXCXAXAXLXAXLXHXIX9XMXIXAXCXLXJXAXiXZXiXCXAXAXLXMX8XLXCXPXCXKXPXCXAXhXJXAXJXAXKXAXAXAXCXhXVXiXAXCXCXAXAXAXAX8X0XtXHXwXLX9XLXCXAX9X9XiXAXCXLXCXAXZXIXZXIXLXLX",
"AXCXLXAXKXPXBXBXLXCXJXIXLXLXIXJXAXAXLXAXLXAXLXCXAXLXPXBXBXCXPXCXAXLXHX8XHXLXLXLXAXLXCXPXPXCXCXLXAXCXAXLXLXLXAXKXAXAXLXIXMXIXAXLXCXKXCXLXhXiXAXBXCXAXHXLXAXAXAXKXBXCXPXcXPXLXLXLXAXCXAXCXPXBXCXIXAXCXCXKXPXBXCXLX9X0XMXIXvXwXIXLXAXLX    AXAXCXLXCXPXAXIXZXJXLXLX",
"LXAX9XCXPXBXCXCXLXAXAXLXJXIXJXAXLXAXLXAXAXAXCXLXZXCXLXfXPXPXPXLXPXKXAX8XaXLXAXAXLXLXLXPXAXAXAXqXAXLXIXLXAXLXCXKXBXBXKXIXIXIX9XLXCXCXAXAXCXLXAXCXKXBXCXKXPXBXAXCXCXAXCXKXPXAXLXAXAXAXAXCXPXKXCXAXAXLXCXPXKXKXPXCXHX0XMXIXFXvX9XVXIXIXMX9XLXLXUXLXAXAXAXJXJXLXLXLX",
"AXLXIXPXCXCXBXPXZXLXAXLXLXLXAXAXLXAXLXAXAXAXCXLXIXLXAXsXPXPXBXLXKXPXLXLXLXLXBXKXAXLXLXPXAXCXCXhXHXHXLXHXHXAXKXKXKXKXCXLX9XIXLXHXLXLXIXIXHXLXCXBXKXKXKXKXKXPXAXLXAXIXIXCXPXCXCXAXLXhXAXAXCXCXhXUXAXAXCXPXKXKXKXPXLX0XMXIXFXFX9XMXMX9X9XIXiXCXhXHXLXAXAXAXLXLXLXLX",
"AXAXAXCXCXCXCXCXIXLXLXIXAXLXLXCXCXAXAXJXAXAXAXLXFXLXPXPXPXKXPXCXCXLXCXBXCXPXKXPXBXLXLXPXLXCXLXLXLXCXAXCXIXLXKXKXKXKXCXhXHXHXLXLXAXLXLXLXLXhXBXKXKXKXPXPXPXKXAXVXIXLXLXCXPXBXAXLXLXJXIXAXJXiXCXLXqXAXBXBXPXPXKXKXLX0XaXiXZXIXVXMXtXIXHXVXAXJXCXHXLXCXAXIXLXLXLXLX",
"AXAXAXCXPXCXCXAXhXLXLXIXLXAXLXAXCXCXCXAXLXLXAXLXLXAXKXPXCXPXPXAXCXLXLXCXBXBXKXBXCXCXLXLXAXCXHXIXCXCXCXIXJXLXCXKXCXCXAXhXiXhXLXAXCXAXLXAXhXUXKXKXCXBXCXCXCXCXAXHXMX9XLXCXPXCXAXZXLXIX9XLXLXLXJXIXLXCXBXCXAXBXKXPXAX0XMXtX9XZXIX9X9XLXHXIXCXAXAXFXLXLXHXIXLXAXLXLX",
"AXAXCXCXCXPXBXCXAXLXLXVXLXLXLXLXAXCXAXAXAXLXIXLXCXCXPXPXPXKXPXPXPXLX8XHXLXLXPXPXCXAXLXHXLXhXLXAXLXLX8XaXIXAXCXCXAXLXCXLXVXAXAXCXCXAXAXBXKXKXAXPXKXAXLXLXLXLXLXLXLXLXLXLXLXAXCXAXIXIXLXZXVX9XVXhXAXBXCXAXLXLXLXAXHX0XVXVXIXZXZXIXZXhXLXLXCXAXLXtXLXLXLXIXIXLXAXAX",
"AXCXPXAXCXCXKXCXfXCXAXLXLXAXAXLXLXAXCXAXLX8XLXAXPXCXPXPXKXPXPXBXCXLXHXHX8XHXLXLXLXHXtX8XAXCXiXLXHX8XaXVXLXAXAXAXLXAXAXLXIXLXLXAXCXCXKXCXAXAXAXCXBXAXLX8XHX8X8XLXAXCXAXAXKXAXCXCXLXLXAXJXVXiXLXAXBXKXBXCXAXLXLXLXHX0X0XLXLXIXLXJXJXUXLXLXLXLXtXVXLXLXJXZXIXZXHXLX",
"iXLXCXCXCXCXPXCXCXCXAXLXLXhXCXAXLXAXAXAXIXLXLXCXcXCXPXPXPXPXBXCXAXAXLXHXtXHXHXHX8XtXtX8XAXLXLXHX8XtXZXIXLXCXAXLXLXCXJXIXIXAXAXAXAXCXCXAXLXVXLXCXBXIXLXJXVX9XHXLXAXAXCXCXCXBXPXBXCXCXAXhXCXhXhXUXBXKXPXjXjXAXAXAX8X0X0XLXZXVXLXLXAXAXLXLXLXFXIXVXLXLXLXZXIXLXHXLX",
"CXCXCXCXCXBXPXCXCXCXCXfXdXAXPXLXLXAXAXAXCXLXLXCXPXCXCXPXBXBXBXCXCXCXAXLXLXHX8X8X8XtXaXtX8XLX8XaXtXaXiXLXAXCXAXLXLXLXAXAXLXAXCXCXCXCXAXAXLXIXLXCXCXLXAXAXHXIXAXJXLXAXAXAXJXCXBXBXBXPXBXBXKXKXUXhXUXPXPX$ xXUXAXiXIXMX0XHXVXZXAXAXAXLXLXCXvX9X9XZXLXiXLXIXIXJXLXLX",
"CXBXCXCXBXBXPXCXBXCXCXAXAXAXBXAXLXLXAXCXBXLXAXAXCXBXBXBXBXPXPXCXCXsXCXCXCXCXCXCXCXLXaXaX8XtXtXaXHXHXLXAXCXCXAXLXAXCXCXCXCXCXDXDXCXLXAXCXCXIXMXIXCXAXBXPXCXAXAXAXLXLXAXAXAXCXCXPXPXBXBXCXCXAXhXhXUXBXBXPXKXCXCXAX8X0XaXZXVXAXLXLXAXLXLXCXFX9X9XZXAXAXLXAXCXAXLXAX",
"BXBXBXCXBXBXPXCXBXPXBXCXAXsXBXBXCXAXLXLXLXLXAXAXCXBXPXBXBXBXBXBXPXBXCXPXPXPXPXCXCXAXtXaXaXaXtX8XLXAXLXAXAXCXCXBXBXBXPXBXBXfXBXBXKXAXAXKXCX9X9XHXAXBXPXPXBXAXAXCXCXCXCXAXAXCXCXCXCXKXAXAXAXAXAXAXCXBXBXCXCXPXPXCX8X0XaXHXLXAXLXLXLXLXLXLXFXZXJX9XLXLXAXAXLXLXAXCX",
"BXPXBXCXBXBXBXCXBXPXBXCXCXBXBXBXBXCXAXAXHXLXBXCXCXPXPXPXPXBXBXCXBXCXCXCXPXPXPXBXCXLX8XaXaXaX8XLXLXAXAXfXCXBXBXPXPXPXPXPXBXCXCXCXLXAXAXCXAXLXIXLXCXPXmXjXCXCXAXCXCXCXCXAXCXCXCXBXCXCXAXAXCXCXAXAXCXBXBXCXcXKXCXCXLX0X0XLXLXAXLXLXLXLXCXCXvXHXIXAXLXHXLXLXLXLXCXCX",
"BXBXBXPXCXCXCXsXBXPXPXBXBXCXBXPXBXBXCXLXgXdXfXCXCXCXBXBXBXBXBXCXBXCXCXPXsXPXPXCXCXLX8XaXaXtX8XLXCXCXCXCXCXBXPXPXPXPXKXyXCXAXAXAXCXAXAXAXAXLXLXLXCXKXKXPXPXCXCXCXCXCXAXLXAXCXCXCXCXAXhXhXCXCXhXBXhXCXBXKXKXjXjXPXJX0X8XLXAXAXAXLXLXLXLXCXPXCXAXAXLX8XLXAXAXAXCXCX",
"BXPXPXBXCXLXAXPXPXBXPXPXBXsXBXPXBXPXCXAXgXIXAXBXCXBXBXBXBXCXAXCXBXPXCXPXPXPXPXCXBXAXHX8XtX9X9XLXAXCXCXCXCXBXPXKXKXKXKXKXBXCXAXAXAXAXAXAXAXLXLXAXBXKXPXBXPXCXAXAXCXAXLXLXAXCXCXCXCXhXAXCXCXAXAXCXAXAXCXKXKXPXKXKXAX0XtXLXCXCXAXAXLXLXLXCXPXCXCXAXLXLXLXLXLXAXAXAX",
"BXPXPXBXLXLXCXBXPXBXPXPXBXCXBXPXBXPXBXBXLXIXLXBXCXCXBXBXPXCXCXCXPXPXsXCXsXPXPXCXPXAXLX8XHXHXHXHXAXCXCXCXsXBXPXKXKXKXKXKXPXCXAXLXLXLXLXAXAXLXAXCXBXKXBXCXAXAXLXAXhXLXZXLXCXCXBXCXCXCXCXCXCXCXAXCXCXAXKXPXPXPXKXKXAX0X8XLXPXPXAXLXAXAXLXLXBXCXCXAXAXLXHX8XHXLXAXAX",
"AXBXPXCXHXLXAXAXLXLXCXBXsXPXPXBXBXBXBXBXLXdXNXBXBXBXBXBXPXAXAXPXPXPXPXCXsXPXsXCXCXAX8XHXHXLXHXLXLXAXCXCXfXBXPXKXKXKXKXPXPXBXCXAXAXBXBXBXCXLXDXBXKXBXAXAXAX9XMXAXCXJXHXJXAXBXhXCXCXhXCXCXCXAXAXAXAXCXKXPXKXKXKXcXAX0X8XLXKXKXCXAXAXLXAXLXLXAXAXLXLXHX8XIX8XHXLXAX",
"HXAXCXLXHXAXBXCXPXsXAXAXNXsXBXBXBXBXLXIXgXdXfXBXBXBXCXCXAXLXLXCXCXCXCXPXCXCXPXCXAX8XtXtXLXLXAXLXLXLXCXAXAXPXPXPXKXKXKXPXPXBXBXBXBXjXPXPXKXsXjXPXKXCXAXAXCXLXIXAXCXhXAXCXAXAXAXhXCXCXCXUXUXCXAXAXAXLXKXPXBXKXcXcXAX0X8XLXjXKXjXCXLXLXLXLXLXLXLXLXLXLX8XIXIX8XHXHX",
"8XdXLXHXLXCXBXAXPXCXLXLXNXsXfXfXLXgXqXIXIXIXBXCXCXCXCXCXCXAXAXAXPXCXsXPXhXAXCXLXHXtXaXtXLXAXCXAXLXLXAXAXAXCXPXPXKXPXsXBXBXBXBXAXBXBXPXPXKXKXKXPXCXAXLXVXdXPXCXAXAXLXAXCXAXJXLXLXAXIXZXZXAXiXJXLXAXLXdXCXAXhXBXPXAX0X8XLXBXCXCXAXLXLXLXLXCXAXCXAXAXLXIX9X9X9X9X9X",
"9X8X8XLXAXCXCXCXsXAXfXPXCXCXCXAXLXIXIXIXIXIXfXAXAXLXAXBXCXBXBXCXAXAXCXCXCXAXLXHXaXaXaXtXHXCXCXCXAXLXLXAXCXAXCXPXKXPXCXBXCXCXCXCXLXCXBXPXKXKXKXBXLXLXHXMXIXiXPXhXLXLXLXAXCXLXIXLXJXZXZXLXJXAXJXLXVXLXLXLXLXLXAXCXLX0XtXZXAXAXLXLXLXCXAXAXAXAXhXAXLXHX9X9XtXtX9X9X",
"9X8XAXCXCXsXsXCXCXCXCXCXAXCXCXLXHXIXIXIXqXgXLXLXLXLXLXAXCXBXCXCXCXAXCXLXPXAXHXaXaXaXtX8XLXAXCXCXCXCXAXAXAXAXCXPXPXPXBXBXCXBXBXCXAXAXCXCXPXKXKXBXCXLXLXHXIXIXLXAXCXAXCXBXBXCXAXfXCXAXAXAXCXHXHXHXHXHXHXHXLXLXLXLXLX0X0XHXLXLX8XHXLXLXAXCXAXLXLXLXZX8XIXIXIXIXIXIX",
"8XLXBXBXLXKXCXBXAXLX9XLXPXCXLXgXIXIX9XzXLXLXIXZXJXAXLXCXAXCXhXIXLXAXCXKXAXLXHX9XVXMX9XVXCXAXPXBXCXhXAXLXJXAXCXBXPXKXBXBXBXBXBXCXAXAXBXBXBXPXPXPXCXAXAXAXAXAXLXLXAXCXjXBXPXCXCXAXCXPXCXLXLXLXZXLXHXLXZXZX8X8XLXBXLX0X0XLXLX8X8XHXLXAXAXAXLXLXLXLXHXIXIXIXLXIXVXZX",
"HXAXPXBXPXPXCXCXIXIXJXLXJXLXHXIXIX9X9XqXzXLXIXLXIXMXCXUXCXLXAXLXAXAXPXCXLXZXVXMXVXIX9XJXZXLXAXBXAXLXAXLXLXAXAXCXAXPXBXBXCXCXPXCXCXAXAXPXCXBXPXPXBXCXAXBXPXPXCXLXLXCXCXPXPXCXAXCXAXLXAXLXLXIXIXLXAXIXLXLXIX8XLXAXLX0XaXHX9X8X8XLXLXLXdXAXAXLXLXLXLXIXIXLXAXZXIXIX",
"AXCXPXKXjXKXPXAXJXAXCXLXIX9XVX9XJXVXIXZX9XVX9XJXIXMXCX9XLXZXZXIXLXAXCXAX9XMXtXMXMXLXPXLXHXIXHXLXAXLXLXLXHXLXAXAXCXBXBXBXCXCXKXCXCXLXLXCXCXBXPXPXPXCXAXBXPXCXCXLXLXHXLXAXKXCXAXAXAXLXLXIXHXHXHXLXLXIXLXLXIXLXLXLXHX0XaXHXHXLXHX8XHXLXdXdXAXIX8XLXLXIXLXLXIXIXVX9X",
"IXAXPXCXCXAXAXAXhXCXCXLXAXVXVXVXUXJXLXIXLXJXIXMXLX9XLXVXVXVXLXLXLXCXAXLXAXVXMXMXIXCXPXAX8X9X9X8XLXhXLXAXLXLXAXAXAXCXBXBXCXLXPXPXAXLXLXCXBXBXPXPXCXCXAXAXCXCXAXLXCXLXHXLXAXAXAXCXCXAXLXIXLXLXLXLXIXLXLXJXAXJX8X8X8X0XaXHXLXdXAXHXHXLXLXLXLX9XIXAXLXiXLXLXIXVXVX9X",
"hX9XBXCXCXLXLXAXCXAXCXhXhXZXtXLXJXAXLXVXJXJXLXAXPXPXhXiXVX9X9XAXCXCXAXIXLXZXIXIXHXLXPXLX8X9X9X8XLXAXLXCXAXLXAXAXAXCXBXBXLXAXAXCXCXAXAXCXCXCXBXBXCXAXAXLXLXAXAXCXCXAX8XLXLXLXLXCXAXLXIXIXZXLXLXLXLXJXJXJXAXJXHX8X8XMXaXLXAXCXLXLX8XLXHXAXIXtXZXLXZXIXLXiXIXZXIXIX",
"VXAXAXAXAXJXhXAXCXCXCXCXAXLX9XLXCXAXAXLXLXLXLXCXPXPXhXiX8XHXJXCXPXCXAXLXHX8X9XHXLXLXAXLXAX8X9X8XLXLXLXLXAXLXLXAXCXAXCXBXBXAXAXAXCXAXAXBXCXAXCXCXAXAXAXLXLXLXAXPXPXCXLXLX8XtXHXLXAXLXVXIXLXLXLXLXAXAXLXdXAXJXLXIXIX0X0XLXAXLXLXHX8XJXJXLXIXIXLXLXIXIXLXLXJXIXIXLX",
"9XAXCXAXAXAXAXPXPXCXCXCXCXIXMXVXCXLXAXAXJXAXCXPXPXCXAXLXLXAXCXAXCXCXCXLXHXHXHXLXKXCXAXLXLXLX8X8X8X8XLXCXLXLXLXAXCXAXAXBXBXBXAXAXAXdXAXPXCXCXAXCXCXAXLXLXLXAXLXCXjXBXAXLXLX8X8XLXAXAXVXIXIXLXJXLXLXLXLXAXAXLXLXLX8X0XaXHXAXLXLXHXLXJXLXJXAXLXLXLXLXLXLXLXLXIXIXLX",
"ZXAXLXAXCXCXAXCXKXAXLXhXAX9XMXVXCXCXAXAXAXCXPXPXPXAXLXAXAXCXCXAXCXCXCXLXHX8XLXPXCXCXAXLXAXAXLXLXLXLXLXLXLXLXLXAXAXAXAXCXBXBXCXAXLXLXCXPXCXCXCXCXAXCXAXLXAXCXLXAXPXBXCXAXLXHXHXAXAXLXVXIXLXLXAXAXJXJXJXAXAXLXLXLX8X0X0XHXLXLXLXLXLXLXLXLXLXLXAXCXAXIXIXIXiXIXLXAX",
"IXJXAXCXAXCXCXPXPXJXZXZXIXtX9XIXAXAXAXPXPXCXPXPXCXAXAXCXAXCXCXCXCXCXAXLXLXHXAXCXAXLXCXAXLXAXCXNXLXLXAXLXLXLXCXAXLXAXAXCXBXBXAXLXAXCXCXCXCXCXAXCXCXPXBXLXLXCXAXAXCXCXAXAXLXHXLXAXAXZXIXLXAXAXAXAXhXAXAXAXAXAXAXLXHX0X0XLXLXLXCXCXAXCXAXLXLXLXLXLXHXLXIXIX9XIXLXLX",
"JXAXCXLXAXCXCXPXAXAXLXLXLXAXIXZXAXLXCXPXPXAXLXAXCXCXAXAXAXCXCXCXCXhXAXLXLXLXAXAXAXAXAXAXLXAXAXCXAXLXLXHXHXLXAXAXLXLXLXAXCXCXAXAXAXAXCXCXCXAXAXCXPXPXCXLXLXLXCXCXCXAXLXAXLXLXLXCXAXLXIXLXLXCXPXAXAXAXAXCXCXCXLXLXHX0X8XLXLXLXBXCXCXBXCXAXCXAXAXHXLXLXLXVXMX9XIXLX",
"AXAXAXAXAXCXPXCXCXAXJXLXCXCXJXJXCXAXPXPXPXAXLXAXCXPXAXAXCXCXCXCXCXAXAXLXLXLXLXAXAXAXAXLXLXLXCXCXAXLXLXLXLXLXAXAXLXLXAXCXCXAXCXCXAXAXPXCXCXAXAXBXPXCXCXAXAXAXCXCXAXLXdXhXAXAXLXLXAXAXLXLXLXCXCXAXAXCXCXCXCXAXLXLXLX0X0XLXLXLXAXBXBXBXBXCXfXCXCXLXAXAXLXIXVX9XIXLX",
"AXAXAXCXAXAXPXAXCXPXPXAXCXCXAXCXCXPXPXKXPXBXCXCXBXCXAXCXBXBXCXPXCXAXLXLXLXLXLXAXAXAXCXAXLXAXCXCXCXLXAXLXHXHXLXCXLXLXCXCXLXCXCXCXCXCXCXPXPXCXAXCXPXCXCXCXLXCXLXAXCXdXAXCXAXLXHXLXCXAXAXJXLXCXCXLXAXAXAXAXAXLXLXAXLX0X0XHXLXLXLXAXBXPXBXBXCXCXCXAXAXAXAXZX9XVXZXZX",
"AXAXCXAXCXCXAXCXZXLXPXAXAXIXAXBXCXPXPXKXKXPXBXKXBXCXAXCXCXCXCXCXCXCXLXLXLXLXLXLXAXAXCXAXAXAXPXBXCXAXCXLXLXHXHXHXLXLXPXCXAXAXCXAXLXCXBXPXPXBXCXCXPXAXAXLXLXAXCXAXAXLXLXAXAXLXHXLXAXAXAXAXAXCXAXCXCXLXLXLXLXHXHXLXHX0X0XLXAXAXLXLXCXPXPXBXBXBXAXCXAXAXCXLXIXIXIXLX",
"LXCXAXAXAXUXPXCXCXVXAXJXiXLXAXCXCXPXKXPXPXKXAXLXCXCXAXPXCXBXBXAXBXAXAXCXAXLXLXLXLXAXCXCXAXLXfXLXAXCXCXAXLXLX8X8X8XHXLXLXLXAXAXAXAXAXAXAXBXPXCXCXCXCXLX8XLXLXLXAXLXLXLXAXCXAXHXHXLXLXLXAXCXCXCXLXLXHXHXLXLXLXLXLXHX0X0XLXBXBXLXLXAXBXPXBXBXCXCXCXAXAXAXLXLXLXIXLX",
"JXJXLXLXHXPXCXBXBXAXhXZXLXAXUXAXAXPXPXPXKXPXCXAXAXAXAXCXCXCXCXCXCXCXCXCXAXAXLXLXLXAXAXhXAXLXLXAXCXCXPXAXLXLX8X8XIX8X8XHXLXLXLXLXLXHXLXLXLXAXAXAXAXLX8X9X9XHXLXLXLXLXAXAXAXAXHX8XHXLXLXLXLXLXLXHX8X8X8XLXPXBXBXCXLX0XtXLXBXPXCXAXLXCXPXBXBXCXBXCXAXAXAXLXLXLXIXLX",
"LXLXLXAXAXPXPXPXCXAXAXLXAXCXAXLXAXPXKXPXPXKXPXCXAXLXAXCXAXCXAXCXCXCXPXAXAXCXAXLXHXLXCXLXLXLXAXPXBXCXPXCXLXLX8X8X8X8XIXIXIXIX8X8X8XHXLXPXLXLXLXLXLXHX8X8XHXLXAXPXCXAXAXAXLXAXHXtX8XIX8X8X8X8XLXLXLXHXLXLXPXKXBXBXLX0XtXLXBXPXBXAXLXAXBXBXAXAXBXCXAXAXLXCXAXIXLXAX",
"ZXLXJXAXPXKXPXCXCXCXhXAXAXCXCXLXLXCXPXPXPXKXPXPXCXAXLXLXLXLXCXLXAXAXCXfXCXCXPXAXLXLXLXLXLXLXCXBXCXCXBXAXCXLXLX8XIX8X8X8X9X9X9X8X8XLXAXCXAXLXLXLX8X9X8X8XLXCXCXBXCXAXAXAXAXLXHX8XtXtXIXIX8XLXLXAXLXLXLXLXCXKXPXBXLX0XIXLXBXPXBXAXLXPXCXBXAXBXBXBXLXLXAXCXAXLXLXLX",
"LXAXCXCXPXPXCXCXCXPXCXhXAXAXCXCXLXAXBXKXKXPXPXPXCXAXCXLXLXLXLXLXLXAXBXPXCXPXKXfXLXLXHXHXLXAXCXBXAXBXAXCXCXLXLX9X9X9XLXLX8X8X8XHXLXCXCXCXCXCXBXLXHXLXLXLXLXLXAXBXBXCXAXLXLX8XtXaXaXaXIX8XLXAXCXBXCXCXLXLXAXPXPXPXLX0X8XLXBXPXBXAXLXHXLXAXCXBXCXAXLXAXAXAXAXLXAXAX",
"AXCXCXCXPXBXCXCXCXCXCXAXAXCXPXPXLXAXCXKXPXKXPXBXCXAXCXLXLXLXLXAXAXCXPXPXPXPXfXAXLXLXHXLXAXCXCXBXCXCXCXAXLXLXLX8X9X9XHXBXLXHXHXLXLXLXBXCXBXCXAXLXLXLXLXLXLXLXLXAXBXCXBXLX8XtXaXaXaX8XBXBXBXBXBXPXPXBXAXLXLXAXBXPXLX0X8XLXBXsXCXLXHX8XHXLXAXCXCXLXLXLXfXAXAXLXLXAX",
"AXAXCXCXCXPXCXCXBXCXCXCXCXPXPXPXAXLXCXPXPXKXPXCXAXCXLXLXLXCXAXAXAXCXPXCXBXCXLXLXLXLXLXLXAXPXCXCXBXCXAXLXLXLXLXHX9X9XIXLXCXAXLXLXLXLXAXCXAXAXLXLXAXCXCXCXCXAXAXAXAXBXBXAXIXaXaXaX8XHXHXLXAXBXBXBXPXPXCXLX9XLXPXPXLX0X8XLXBXCXLXLX8X9X8XLXCXCXLXLXHXLXAXLXAXAXLXAX",
"AXCXCXCXCXCXCXBXCXCXCXCXCXCXKXPXAXLXAXKXKXKXPXCXAXLXLXCXCXCXCXCXAXAXAXCXAXLXLXLXLXLXHXLXCXPXJXAXAXLXLXLXLXCXCXLX8XIX9XHXAXCXPXBXAXLXLXAXAXLXHXLXCXAXAXAXCXCXAXAXLXCXBXBXLXaXtX8XLX8XLXLXLXCXPXCXAXfXCXLXLXLXAXCXLX0XtXLXAXLX9XHXHX8X9XLXCXHXHX9XHXAXLXLXLXIXLXAX",
"9XPXfXAXAXAXAXCXAXCXLXCXCXhXPXCXCXLXAXPXPXsXPXsXAXLXLXAXCXsXsXKXCXAXCXAXAXLXAXLXLXAXHXHXLXAXCXBXAXAXCXAXAXPXCXAXHX8X8X8XLXAXCXAXBXCXPXCXCXAXLXLXLXLXAXLXLXLXLXLXLXAXBXBXAXLXLXLXLXLXAXJXLXCXCXAXAXAXAXLXLXCXAXCXHX0X0XHXLXLX8XLXLXHX9X8XLXLXZXLXHXhXLXIXAXIXLXCX",
"IXZXAXAXAXLXLXCXAXHXLXCXCXCXBXCXBXAXLXAXPXCXPXKXLXLXAXCXsXPXKXPXBXBXBXCXAXLXLXAXLXAXHXHX8XHXCXBXCXKXCXCXLXCXCXAXLXLXLXLXLXLXLXAXCXLXAXCXAXAXLXLXLXLXLXLXqXLXLXHXLXAXBXBXBXBXCXAXNXBXAXAXAXAXAXAXAXAXAXAXLXCXCXsXLX0X0XHXLXLXLXLXLXLX8X8XLXIXIXLXAXAXAXLXCXHXIXAX",
"AXIXLX9XCXLXAXCXLX9XCXLXPXAXCXPXCXPXLXLXLXPXAXAXLXAXCXPXPXPXPXKXPXBXBXKXKXCXAXLXLXHX8XIX8XHXLXCXAXAXCXBXAXCXCXLXLXLXLXLXLXLXLXLXAXAXAXCXCXCXAXLXLXAXLXAXLXLXLXLXAXCXBXBXBXBXCXNXdXLXAXAXCXCXCXCXAXLXfXfXAXCXCXPXLX0X0XLXCXsXsXCXCXLX8XIXHXHXHXLXLXIXLXIXHX8XVXLX",
"IXIXIXLXAXAXLXCXAXLXPXAXAXAXPXPXCXAXCXLXLXAXLXLXAXPXCXjXCXPXPXKXKXPXsXKXPXPXKXLXHX8X9X9X8XHXLXLXLXLXAXCXAXBXAXLXAXAXAXAXAXAXLXLXLXAXAXCXAXLXAXJXLXLXLXAXLXLXLXAXCXCXBXLXAXBXAXgXqXLXLXAXCXCXCXBXCXAXAXLXCXCXCXCXLX9XtXLXAXCXPXPXBXLXLXIXLXLXLXLXIXLXLXVXVXVX0XMX",
"9X9XVXVXAXLXAXAXAXAXAXCXiXsXPXPXPXCXCXPXLXLXHXHXLXLXAXCXCXPXPXPXPXPXPXPXKXPXLXAXHXIX9XIXHXLXHXHXLXLXAXAXAXPXAXAXCXCXAXCXAXAXLXLXLXLXAXAXAXLXAXLXLXLXLXAXAXAXAXAXAXLXLX8XLXAXAXdXqXLXLXAXAXCXCXCXCXAXAXBXAXCXCXCXLX0XtXHXAXCXPXKXBXLXIXIXZXLXLXLXLXJXHX8XVXVXVXVX",
"MX9XLXMXIXLXLXIXAXCXAXLXCXLXCXPXPXPXCXCXLXHX8XHXLXhXAXLXCXCXPXBXPXKXPXAXAXPXLXLXHX8XIXHXAXLXCXCXLXAXLXAXCXCXAXCXCXCXPXBXAXCXLXLXLXLXAXAXAXAXAXLXAXLXAXAXCXLXLXgXNXLX8XaX8XLXAXdXqXLXLXfXCXAXAXAXAXLXLXAXCXCXAXCXLX0XtXHXLXCXBXjXCXLXVXIXLXLXLXLXAXJXLXHX8XVXVX0X",
"MXMX9XtXVXMXZXHXLXLXAXCXAXLXCXCXAXLXLXLXLXHX8XHXLXAXLXAXBXCXPXCXPXKXPXLXAXCXLXLXLXHXHXLXAXJXCXLXLXAXAXAXCXCXAXAXCXPXPXCXCXLXAXLXLXLXAXAXAXCXAXAXAXAXBXBXLXLXHXIXgXIXtXaX8XHXLXdXdXLXAXAXAXCXCXCXAXIXIXLXCXCXCXCXLX0XtXLXAXCXPXBXCXZXVXIXIXLXJXLXLXAXLXLXHX8X0X0X",
"IXMXMXVXMXMXLXMXAXLXIXCXAXqXAXAXAXHXLXLXLXLXLXHX9XLXAXKXPXLXPXPXPXPXKXCXZXLXCXLXLXAXLXAXLXAXAXLXLXCXCXAXPXCXCXCXBXPXCXCXAXAXCXAXLXLXLXAXAXAXCXCXCXBXAXLXLXLXHXIXIXIXIXtXtXIXLXLXAXLXAXCXAXCXCXCXAXqXqXHXLXCXsXCXLX0XIXLXCXAXCXPXCXLXVXIXLXLXAXAXJXLXLXHXHXHXVX0X",
"9XMXtXMXMXMXMXMXHXHXLXCXAXhXCXCXAXAXLXLXAXCXAXLXLXAXLXPXKXLXBXPXPXsXKXAXIXLXLXHXLXHXLXAXLXAXCXNXhXCXAXLXBXPXPXBXAXAXAXAXCXCXCXCXAXAXAXAXLXLXLXAXAXAXLXHXLXLXHXIXtXIXIXIXIXIXHXAXCXAXAXAXdXCXCXCXAXLXLXAXAXCXsXPXLX0XtXLXCXAXAXCXBXLXIXLXAXAXAXAXhXLXLXLXLXLXHX8X",
"8X9X9X9XMXMX9XMXIXCXAXCXLXLXLXCXLXAXAXAXBXPXKXLXLXBXCXLXCXCXPXKXPXPXPXLXFXLXHX8XHX8XLXAXCXCXAXCXAXAXAXAXBXBXBXPXAXLXLXAXAXAXAXAXLXLXLXLXLXLXAXAXLXAXLX8XIXAXLXIXIXIXIXIXHXIXBXAXBXCXAXdXdXAXAXfXCXAXLXAXAXCXCXsXLX0XtXdXCXCXAXAXLXLXIXLXLXCXPXAXAXCXPXAXAXLXLXHX",
"HXHXAXIX9XVXIXVXJXIXCXCXCXIXLXLXAXAXLXCXCXBXPXLXLXLXLXAXAXAXAXAXAXAXLXHXHXHX8XHX8XLXCXCXCXAXCXCXAXAXAXCXPXBXCXAXLXLXLXAXLXLXLXLXAXLXLXLXLXAXAXAXLXAXHXIXVXLXAXdXIXIXHXLXLXBXAXAXBXCXAXLXLXAXAXAXAXAXAXAXCXCXCXsXLX0XtXLXCXsXBXAXLXLXLXLXLXCXCXAXAXPXPXAXAXLXLXAX",
"HXLXCXLXLXIXLXAXIXMXVXLXAXAXAXhXAXCXAXAXCXPXCXLXHX8XLXAXPXLXLXHXHXHX8X8X8X8X8XHXHXLXLXCXAXLXCXCXAXLXAXCXBXCXCXCXCXCXBXBXAXLXLXHXLXLXAXLXLXAXAXAXLXLXIXIXIXgXAXAXgXLXLXLXAXCXCXCXCXAXLXLXJXfXfXAXfXJXdXAXAXfXCXPXLX0XtXLXCXCXPXPXLXHXAXJXLXCXCXLXAXCXCXCXAXLXLXLX",
"LXLXAXAXIXIXCXAXLXVXIX9XLXJXAXCXLXLXLXLXLXPXAXHX8XIX8XLXLX8XLXHXHXHXHXLXHXHX8XHXLXLXLXLXHXLXPXAXAXAXCXCXAXPXAXCXCXCXPXPXBXAXLX8XHXLXAXAXAXAXAXAXLXLXqX9XIXqXNXPXNXAXBXAXAXAXAXCXAXLXLXJXLXAXLXLXAXdXLXAXCXCXCXCXLX0X9XLXCXCXPXPXLXLXLXAXAXCXAXCXCXfXAXCXCXAXLXLX",
"HXLXLXCXVXIXPXAXLXIXZXVXLXAXAXAXLXLXIXhXAXAXLX9XIX9X9X8XHXHXLXHXLXLXLXLXLXLXLXLXAXAXLXLXLXAXCXBXAXCXCXCXAXAXLXLXPXCXCXCXPXCXLX8X8XLXAXAXCXAXAXLXNXdXdXgXgXNXAXPXBXBXCXAXLXHXLXAXAXAXAXAXHXLXLXqXLXdXLXAXAXCXPXCXLX0X9XLXCXCXjXCXLXLXLXAXCXCXCXPXPXCXAXAXCXCXLXLX",
"LXAXAXLXLXAXCXCXAXLXiXZXAXAXAXLXLXLXAXLXCXLXHX9X9X9X8XHXLXLXLXLXCXCXCXCXPXAXAXAXCXCXAXAXLXAXCXBXAXCXCXBXBXBXLXLXAXCXPXAXAXPXAXHX8X8XLXAXAXAXAXIXgXdXNXNXAXBXBXBXCXCXBXCXLXHXLXAXAXAXCXAXCXLXqXIXLXLXAXAXAXCXCXCXLX0X0XLXCXCXPXCXLXLXLXLXAXBXPXCXCXBXPXAXIXVXLXLX",
"AXAXAXAXAXLXCXCXCXAXLXHXAXCXAXLXLXLXCXLXLXHX8X8X8XHXHXLXNXAXCXPXBXBXBXBXCXAXAXAXBXCXAXAXLXAXLXLXLXAXCXCXCXBXAXHXLXPXCXAXAXBXAXLXLX8XLXAXAXLXAXqXIXgXNXCXBXBXCXCXAXCXBXCXLXHXLXAXCXCXfXCXPXLXLXZXZXZXLXLXLXAXCXCXLX0XtXLXCXCXCXCXLXLXLXLXfXPXPXCXBXBXBXPXAXIXVXLX",
"AXCXAXCXCXCXCXCXAXAXLXAXCXCXAXLX8XLXLXLX8XIX9XHXHXLXCXCXCXPXBXBXBXBXPXBXCXAXAXCXBXCXAXCXCXAXLX9XHXLXAXAXCXCXLXLXLXPXCXAXAXAXAXPXLXLXLXLXAXAXLXHXIXqXNXBXBXBXCXNXAXAXCXCXAXLXLXAXCXCXCXCXPXLXLXVXIXLXIXVXHXLXCXCXLX0XtXLXBXPXCXLXLXAXAXLXAXBXCXBXPXCXCXCXCXLXIXLX",
"LXAXAXCXCXCXCXCXCXLXLXLXLXAXLXLXCXLXHX8XIX9X8XHXLXCXCXCXBXBXBXCXCXBXPXPXCXCXBXBXBXCXAXCXBXBXLXHX9XLXAXAXAXAXLXHXHXAXCXCXLXAXCXCXCXLXLXLXAXLXLXHXHXLXAXCXCXCXCXAXLXdXNXAXAXLXAXAXCXPXPXjXBXJXAXIXIXIXtX9XLXIXAXCXLX0XtXLXCXPXAXLXAXfXIX8XLXBXBXBXjXCXCXLXAXCXLXLX",
"LXLXAXAXAXCXCXPXCXAXLXLXLXAXAXCXLXHX8XIX9XIXqXHXHXLXAXCXAXAXCXCXBXBXBXCXCXCXBXPXBXBXCXBXBXPXCXAXLXLXLXLXLXLXLXLXLXLXAXAXAXPXCXCXCXCXLXLXAXAXAXHXAXAXAXAXAXAXAXAXNXgXdXLXLXLXAXAXCXPXPXKXBXAXLXLXIXVXIXIXVXIXLXLXLX0XtXLXCXPXCXLXLXAXAXLX9XBXPXPXPXsXsXAXAXCXCXLX",
"LXLXCXCXAXCXCXCXCXCXCXCXPXCXCXCXAXLX8X9X8XHXHXHX8XHXLXAXAXAXPXPXBXBXBXBXAXBXPXPXBXBXCXPXBXPXCXCXBXCXLXLXLXLXLXHXLXLXAXCXPXPXCXfXCXAXLXLXCXAXLXAXBXCXAXAXAXAXAXLXLXLXLXHXHXLXAXAXCXPXPXPXPXAXLXLXIXIXIXZXVXVXLXLX8X0X0XLXPXPXAXLXHXAXsXAXCXBXPXBXPXPXPXhXJXAXJXLX",
"CXCXLXCXCXCXCXCXsXCXCXCXCXPXCXCXAXLX8X8XLXLXLXHXHX8XHXLXAXPXAXCXCXfXAXAXAXBXPXBXCXBXPXPXBXPXJXAXAXCXCXCXCXAXAXAXLXLXCXCXBXCXCXCXCXAXAXLXLXLXLXAXAXLXAXCXAXAXAXAXLXHXHXHXLXAXAXCXCXCXPXsXCXAXLXLXIXIXIXZXVXVXLXLX8X0X0XLXPXPXAXLX8XLXCXAXCXBXPXBXPXKXKXAXLXAXhXLX",
"PXPXCXBXLXKXCXBXBXBXCXCXBXCXCXCXAXLXLXLXAXAXLXHXHXLXLXLXLXAXCXCXPXPXBXBXBXPXPXPXBXCXLXVXLXLXAXIXCXPXPXPXCXPXNXfXLXAXPXCXPXPXAXPXCXAXLXLXHXHXLXLXLXAXAXBXAXCXPXAXLXIXIXLXAXAXCXKXAXAXAXCXCXBXAXhX8X9X9X9X9XIXLXCXNX0X8XLXCXCXBXLX8XLXAXCXPXCXCXPXPXPXPXPXBXCXAXCX",
"PXCXPXBXPXPXCXCXCXBXBXAXCXLXLXAXLXLXLXCXPXPXAXLXLXLXLXLXAXCXCXPXPXCXPXCXCXPXPXPXPXAXZXLXPXCXBXAXPXCXBXPXCXPXPXfXAXAXPXPXPXKXCXPXPXCXLXHXIXIXIXHXLXAXAXLXAXLXCXCXLXIXHXLXCXCXCXLXAXLXAXCXCXBXLXLXHX8X9X9X9X9XHXLXLX0XtXLXPXCXAXLXLXLXCXAXCXCXBXCXAXBXPXPXCXAXAXCX",
"AXBXPXKXjXKXPXAXhXCXPXCXAXLXLXLXLXAXAXCXCXBXCXAXAXAXCXCXPXPXCXCXAXCXPXAXLXPXPXCXAXLXdXCXPXPXPXLXCXCXPXPXPXPXPXAXAXCXKXPXCXjXjXPXPXCXLXHX8X9XLXLXLXLXLXCXLXLXLXLXLX9XLXAXBXBXCXAXLXLXLXLXLXLXLXLXLXLXLXHXHX8X8XHXHX0XtXLXKXCXAXLXHXLXCXAXAXCXPXCXAXBXPXCXCXAXCXCX",
"AXCXPXCXCXAXAXAXBXPXKXCXIX9XLXLXCXCXCXCXPXPXKXBXBXBXCXKXKXKXCXCXPXBXPXPXCXCXCXAXLXAXAXAXPXPXPXLXCXLXPXPXPXPXCXAXLXAXAXAXAXPXPXBXCXLXHXLXHXLXIXLXLXJXAXLXCXLXLXLXLXLXAXKXPXPXCXLXLXLXLXLXLXLXLXhXLXAXAXAXAXHXIX9X8X0XaXHXPXPXLXLXLXCXBXAXAXAXLXLXLXLXAXAXLXLXCXAX",
"AXAXBXCXCXLXLXAXBXKXjXLX9X9XAXLXCXPXPXPXPXCXPXKXKXBXLXKXKXPXAXCXKXPXPXjXKXKXCXAXLXLXAXCXPXCXLXJXPXBXPXPXPXPXPXPXPXAXLXAXKXCXAXAXLXLXLXAXLXiXAXCXLXAXLXAXLXCXLXLXLXAXBXKXKXBXAXLXLXLXLXCXLXLXHXLXLXCXAXdXAXHXIX9XIXMXaXHXAXAXAXLXAXCXCXAXLXLXLXLXAXAXCXPXCXCXCXAX",
"AXCXAXAXAXJXhXAXBXKXAX9XLXAXIXLXPXPXPXPXPXPXPXKXKXKXCXCXCXAXLXAXKXKXjXPXjXxXPXAXdXLXdXPXPXLXCXCXBXPXPXPXPXPXPXPXPXCXLXLXLXLXLXLXHXLXLXIXAXLXAXCXCXCXAXLXAXAXLXLXAXCXKXCXCXCXAXLXLXIXLXCXCXLXHXHXLXLXAXAXLXHX8X9XIXMXaXHXAXAXAXAXAXLXAXLXLXAXAXAXAXAXAXCXCXBXPXCX",
"CXAXCXAXAXAXAXPXPXPXAXIXLXAXLXAXPXPXPXCXCXPXPXKXKXKXKXKXCXHX8XLXCXCXPXPXKXKXdXqXAXLXHXCXCXHXAXAXPXCXPXPXPXPXPXPXPXPXLXLXLXLXAXBXLXLXLXZXZXLXCXCXLXCXCXLXAXAXLXLXCXCXBXBXCXCXAXLXAXLXLXCXCXLXLXLX8XHXLXAXHX8X8X8X8XaXaXLXAXLXAXdXLXLXLXLXLXLXCXAXCXAXAXAXLXCXjXBX",
"CXAXLXAXCXCXAXCXKXPXAXIXHXLXAXAXAXKXKXCXPXPXPXPXKXKXjXKXjXAXLXLXLXAXAXCXPXCXLXAXLXIXLXLXLXAXLXAXPXPXPXPXPXPXPXPXPXBXdXLXLXLXAXKXLXLXiXIXJXLXLXLXLXCXAXCXAXAXLXLXLXCXBXBXCXBXCXLXAXLXLXLXAXLXLXLXLXLXHX8X8X8X8XHX8XaX0XHXLXLXLXLXAXAXCXCXAXAXAXCXCXAXAXCXLXAXPXBX",
"AXAXAXCXAXCXCXPXPXKXLXIXHXHXLXCXAXCXPXCXPXPXPXPXKXKXjXPXPXCXAXPXCXCXAXAXAXLXLXLXLXIXAXIXLXhXCXCXPXPXPXPXPXPXPXPXPXAXAXPXCXAXAXAXAXLXAXJXAXLXLXLXAXAXCXCXLXLXLXAXAXBXKXKXKXBXAXAXLXLXJXdXCXLXLXLXAXLXHX8X9X8XLXAX8X0X0XHXLXHXAXCXCXCXCXCXAXAXCXPXBXAXAXCXAXAXCXCX",
"AXAXCXLXAXCXCXPXCXKXCXIXIXqXqXLXLXLXCXCXPXCXBXPXKXKXKXPXCXCXCXKXPXPXKXPXLXLXAXLXLXLXCXAXAXAXCXBXPXPXBXPXPXBXPXPXPXPXCXCXAXAXPXCXAXAXAXAXLXAXLXAXAXLXAXCXLXLXLXCXCXBXjXPXPXBXAXLXAXLXAXCXAXHXHXLXCXLX8X8X8XHXLXLXHX0X8XLXLXLXLXLXAXAXCXAXAXAXPXPXCXAXLXLXAXCXCXAX",
"AXAXAXAXAXCXPXCXBXKXCXVXLXLXLXqXHXAXAXCXPXCXCXPXPXKXPXPXCXCXPXPXCXCXCXPXCXAXAXLXLXLXLXLXLXAXBXPXPXBXPXPXPXPXPXPXPXPXPXBXAXAXPXAXLXCXCXAXAXCXAXBXCXLXLXLXHXHXAXBXPXBXBXPXKXCXAXLXLXAXCXCXCXHXLXLXAXLX8XLXCXLXLXLXLX0XtXLXLXAXAXLXLXAXAXAXAXLXAXCXAXLXLXLXLXCXAXLX",
"AXAXAXCXAXAXPXAXBXPXLX9XLXCXLXIXIXLXAXCXCXPXPXPXPXBXPXBXCXPXPXAXAXAXCXPXLXLXLXLXLXLXLXLXLXAXBXBXPXBXPXBXBXPXBXDXPXPXPXCXAXCXAXLXCXCXCXCXCXCXAXCXAXLXHXLX9XHXAXBXCXBXBXBXPXPXCXAXLXAXCXBXCXLXLXLXAXLXLXLXAXLXLXLXLX0XaXLXLXCXAXAXAXAXAXLXAXLXLXLXLXLXLXLXLXLXLXLX",
"AXAXCXAXCXCXAXCXiXCXIX9XLXAXAXIXIXIXLXCXCXPXKXKXCXAXCXAXCXCXCXAXLXCXCXCXLXiXCXhXLXLXLXLXLXAXBXBXBXPXBXPXBXPXPXPXCXPXAXCXPXPXCXCXPXPXPXCXPXCXAXPXLXHX8X9X9XLXAXLXBXPXAXAXCXPXBXCXLXLXBXPXPXAXLXAXLXLXLXLXCXLXLXAXLX0X0XLXLXAXLXCXBXBXCXAXLXLXLXHXLXLXLXLXLXLXAXLX",
"LXCXAXAXAXUXPXCXCXBXLXLXHXhXCXIXLXCXLXPXAXCXKXPXCXCXPXAXLXCXPXBXLXIXAXCXAXLXAXCXAXLXLXLXLXJXBXBXCXBXCXPXPXCXPXCXLXLXLXCXPXPXPXCXCXjXPXCXPXCXLXAXLXqXIX9X8XLXCXCXLXBXLXLXAXBXCXAXLXHXAXCXCXLXLXLXLXHXAXLXLXLXAXCXLX0X0XLXLXAXAXCXBXBXBXAXLXLXLXLXLXLXAXCXCXAXLXLX",
"JXJXLXLXHXPXCXBXPXbXPXJXIXLXAXAXCXKXKXLXLXLXCXBXBXPXBXLXLXCXBXPXCXLXIXLXCXAXLXLXAXAXLXLXLXAXBXBXPXCXBXBXBXBXPXAXHX8X9XAXBXPXPXPXPXPXPXPXCXCXCXCXAXqX9X9XHXLXBXPXCXLXAXLXLXLXAXLXLXHXHXAXAXAXLXLXLXCXAXCXLXLXLXLXLX0XtXHXLXAXCXBXPXBXAXLXAXLXLXAXAXPXCXCXCXCXAXAX",
"LXLXLXAXAXPXPXPXPXxXKXLXLXAXCXLXAXPXcXPXIXLXAXBXPXPXCXLXLXAXPXPXAXLXLXJXCXCXLXLXAXAXLXLXLXAXBXBXBXBXBXCXBXCXAXHX9X9X8XLXCXBXCXCXPXPXCXPXPXCXAXAXLXqX9XHXLXAXBXjXPXPXLXLX8XHXAXLXLXCXAXLXCXPXCXCXAXAXCXAXCXAXLXLXLX0X0XHXLXAXCXCXAXAXLXLXLXLXLXLXAXPXBXAXCXPXCXAX",
"AXLXJXAXPXKXPXCXBXKXPXLXLXAXPXAXAXCXPXPXAXLXAXAXCXCXAXHXLXAXBXPXLX9XVXLXAXCXAXAXAXAXLXLXLXAXCXCXCXPXBXPXPXCXAXLX8X9X8XLXCXBXCXPXCXPXCXPXCXPXLXLXHXIXIXLXAXBXPXPXBXBXPXLXHXHXLXLXLXCXAXAXAXBXCXCXBXAXAXCXAXCXLXLXHX0X0XHXLXAXCXAXLXAXAXCXAXLXLXAXCXBXBXCXCXBXCXAX",
"LXAXCXCXPXPXCXCXBXKXPXBXAXAXLXPXCXAXAXCXBXAXLXLXLXLXHXLXLXAXCXPXIX9XLXLXAXAXAXAXLXLXAXLXLXCXAXAXCXCXBXBXBXCXCXLXHXIXHXLXAXBXPXPXCXPXBXLXPXAXHXHX8XIXHXLXCXPXBXBXPXPXPXAXHXLXLXLXLXBXAXAXAXBXAXBXPXAXAXCXCXCXAXLXLX0X0XHXAXCXLXLXAXCXCXCXCXLXLXAXCXBXPXCXCXPXPXCX",
"AXCXCXCXPXBXCXCXBXPXPXBXCXLXCXKXCXAXAXCXBXCXAXLX8X8X8X8XHXLXCXBXIXZXPXAXLXAXLXAXLXLXAXLXLXLXLXAXCXCXCXCXCXPXCXLXLXqXHXLXAXCXCXCXAXAXAXPXAXLXHX8XHXHXHXAXPXCXCXPXCXPXAXLXLXqXHXLXHXCXCXAXAXAXCXCXCXCXCXCXCXCXCXAXHX0XaXHXBXCXLXLXLXAXAXAXLXLXAXAXCXCXAXAXAXCXBXCX",
"AXAXCXCXCXPXCXCXBXPXBXCXAXCXCXPXLXAXCXBXAXCXPXLX9X9X8XIX8XHXLXPXLXHXAXAXAXAXAXAXLXAXAXAXLXLXAXCXCXPXCXCXCXCXAXIXdXLXLXLXAXAXAXAXAXLXqXIXHXLX8XHXHXHXLXfXCXPXPXCXPXPXCXPXPXCXLXLXLXCXBXCXAXLXLXCXCXCXCXCXCXCXCXCXHX0XaXHXLXLXAXCXCXCXCXCXCXAXAXAXCXCXBXCXCXCXCXAX",
"AXCXCXAXAXCXCXBXBXBXCXAXAXLXAXAXHXAXAXCXBXBXBXLX9X9X9X9XIX8XgXPXCXAXAXAXAXCXCXJXAXAXCXAXLXLXAXAXAXAXAXAXAXAXAXZXHXHXLXLXAXAXAXAXAXLXIXIXLXLXHX8X8XHXLXCXPXPXBXLXKXCXBXPXKXBXAXLXLXAXBXCXAXLXAXCXCXCXCXCXCXCXCXCXLX0XMXHXHXLXCXCXCXCXAXCXCXAXAXAXAXCXCXCXAXCXAXAX",
"AXAXAXAXAXAXAXAXCXCXsXsXCXAXLXCXCXAXPXPXBXAXLXLXHX8XIXIX8X8XqXLXLXLXAXCXAXAXAXLXAXLXLXLXLXdXAXAXLXLXLXLXLXLXLXHX8X8X8XHXLXAXAXAXLXLXHXHXLXAXLXVX0X9XIXAXCXPXBXPXPXCXCXLXBXBXAXLXLXLXCXAXAXLXLXPXPXCXCXBXBXBXBXBXLX0XaXHXAXAXCXCXPXPXPXPXAXAXCXPXCXAXLXLXLXLXLXAX",
"AXAXLXAXLXfXfXCXCXCXPXPXCXAXAXCXsXLXAXCXCXLXIXHXLXHX8X8XHXHXHXLXLXdXAXAXAXAXAXAXLXJXLXIXLXdXdXAXIXIXLXLXIXLXLXIXIXVX9X8XLXLXLXLXLXHXHXHXLXAXZXVXVX9XIXLXCXPXKXjXKXPXAXhXCXBXAXLXLXLXJXAXAXLXLXAXBXBXBXPXPXPXPXPXLX0XMXHXCXPXAXLXPXPXCXAXLXdXCXPXPXhXLXLXLXLXLXLX",
"AXLXAXAXLXAXAXCXCXCXCXCXfXLXLXCXCXLXAXPXLXLXIXLXLXLXLXHXHXLXJXLXJXLXJXLXAXCXCXAXdXAXLXLXLXLXLXLX9XIXAXLXiXLXLXIXVXVX9XIXLXAXIXLXHXqXHXLXLXLXIXIXIX9XMXHXLXCXCXCXAXAXAXBXPXKXCXIXIXLXLXCXCXCXLXLXBXKXjXKXKXPXPXPXLX0X0XLXBXPXPXCXCXCXAXLXAXAXAXPXPXAXAXLXLXLXLXLX",
"LXAXAXLXLXAXAXAXCXCXCXCXCXLXLXAXCXLXAXPXLXIXIXZXLXLXLXLXHXJXJXAXJXLXLXLXLXAXCXAXCXAXAXAXLXHXAXIXtXZXLXZXIXLXiXIXZXIXIXIXCXVXHX9XqXqXHXLXAXIXIXIXIXVX9XiXLXAXCXCXLXLXAXBXKXjXLX9XIXAXLXCXPXPXAXLXBXPXKXKXKXKXPXPXLX0XtXLXPXPXjXKXKXCXAXLXLXAXCXPXCXIXLXLXLXLXLXLX",
"LXAXAXAXLXLXAXAXAXAXLXLXLXLXLXLXAXLXAXCXLXVXIXLXLXLXLXLXHXLXdXAXJXLXIXAXAXCXCXAXCXCXJXJXJXJXLXIXIXLXLXIXIXLXLXJXIXIXLXdXAXIXLXVXLXHXLXLXAXLXLXVXMXVXZXVXLXAXAXAXJXhXAXBXKXAX9XLXAXIXLXPXPXPXCXAXBXPXKXKXKXKXKXBXLX0XtXLXKXjXPXjXxXPXAXdXLXdXPXPXLXLXLXLXCXCXLXLX",
"AXCXCXAXLXLXLXLXAXAXLXLXLXHXLXCXLXLXLXLXZXVXIXIXLXJXLXLXLXLXAXAXLXLXLXAXBXCXCXAXCXAXAXAXJXLXJXAXLXLXLXLXLXLXLXLXIXIXLXLXAXLX9XAXCXAXLXiXAXAXZX9X9XZXZX9XAXCXAXAXAXAXPXPXPXAXIXLXAXLXAXPXPXPXBXCXBXPXKXKXKXKXBXAXHX0X8XfXKXPXPXKXKXdXqXAXLXHXCXCXHXJXZXAXCXLXLXhX",
"CXCXCXLXHXHXHXLXfXsXCXCXCXsXCXCXLXLXLXLX8X8XIXLXLXAXAXAXCXJXAXAXLXLXAXAXCXCXLXCXCXAXAXCXLXHXAXLXLXAXCXAXIXIXIXiXIXLXAXLXLXLXIXAXIX9XLXCXBXLX9XIXzXLXHXZXAXLXAXCXCXAXCXKXPXAXIXHXLXAXAXAXKXKXCXPXPXPXPXKXKXjXAXLX8X0X8XLXKXPXPXPXCXLXAXLXIXLXLXLXAXJXLXAXAXLXAXCX",
"CXCXCXLX9XLXAXfXCXsXPXCXCXCXCXCXLXLXKXLXHXHXLXAXAXAXAXhXBXBXAXAXAXAXAXCXCXCXCXCXsXCXCXBXCXAXAXAXAXAXfXAXLXIXIX9XIXLXLXLXAXCXLXLXIX9XLXCXCXAXIXIXzXLXLXIXJXAXCXAXCXCXPXPXKXLXIXHXHXLXCXAXCXPXCXPXPXPXPXKXKXCXHXLX8X0X8XLXPXKXCXLXAXAXCXLXIXAXIXLXhXAXLXLXAXAXAXLX",
"AXAXfXCXAXLXAXAXCXCXsXCXCXCXAXLXLXAXKXNX9XIXLXLXCXPXAXCXBXBXCXCXCXCXCXCXCXPXCXBXCXBXCXCXBXCXAXCXCXAXAXAXLXLXVXMX9XIXLXAXAXAXLXLXLXIXLXAXAXJXLXIXIXIXLXJXAXCXLXAXCXCXPXCXKXCXIXIXqXqXLXLXLXCXCXPXCXBXPXKXBXLX8XHXLX0X8XLXPXKXPXLXLXLXAXIXLXCXAXAXAXAXLXLXAXAXAXLX",
"AXAXAXAXAXAXAXCXCXCXsXsXPXCXLXLXAXCXBXfXLXLXLXLXCXCXAXAXBXBXBXBXBXBXAXCXfXAXBXBXBXBXBXCXBXBXCXfXCXCXCXAXLXLXIXVX9XIXLXLXJXLXLXLXLXLXAXAXLXiXLXCXLXVXLXAXAXAXAXAXCXPXCXBXKXCXVXLXLXLXqXHXAXAXCXPXCXCXPXCXLXLX8XHXHX0X8XLXBXCXPXAXLXLXLXLXCXCXLXLXIXLXLXLXLXAXAXAX",
"fXfXAXfXJXdXAXAXfXCXPXPXPXAXHXCXCXCXPXAXLXAXJXLXCXCXLXAXCXBXBXPXPXBXCXCXAXCXBXBXBXPXBXBXPXBXBXCXCXCXCXAXLX8XZX9XVXZXZXZXLXAXAXLXLXLXAXAXLXLXAXAXLXIXLXAXAXAXCXAXAXPXAXBXPXLX9XLXCXLXIXIXLXAXCXCXPXPXBXLX8X8X9XHXHX0X0XLXCXCXAXLXLXLXLXLXCXCXLXLXLXCXPXAXAXLXLXAX",
"AXLXLXAXdXLXAXCXCXCXCXCXCXLXLXLXAXCXPXLXIXAXAXAXCXAXCXCXCXsXPXPXPXBXBXCXCXCXBXCXBXPXBXBXPXPXBXBXBXCXCXAXLXHXLXIXIXIXLXIXLXLXAXLXJXLXLXLXIXIXLXZXLXZXAXAXAXCXAXCXCXAXCXiXCXIX9XLXAXAXIXIXIXLXBXCXPXBXAXLX9XHXLXLXLX0X0XLXCXCXCXLXiXCXhXLXLXCXAXZXJXPXPXAXAXLXLXAX",
"LXLXqXLXdXLXAXAXCXPXCXAXLX8X9XHXLXCXCXLXLXLXAXCXCXCXPXPXBXCXKXKXPXBXBXCXCXBXBXBXBXPXCXBXPXPXBXBXPXBXCXAXLXLXLXLXLXIXLXdXAXAXLXAXLXIXLXLXLXIXZXIXZXAXCXLXCXAXAXAXUXPXCXCXBXLXLXHXhXCXIXLXCXLXPXAXBXCXLXLXLXLXPXBXLX0X8XLXIXAXCXAXLXAXCXAXLXAXAXLXJXBXBXPXAXIXVXLX",
"LXqXIXLXLXAXAXAXCXAXAXAXHX9X9XIXLXAXCXLXLXdXAXAXBXPXCXCXsXBXKXKXPXPXCXCXCXPXBXBXPXAXBXPXPXPXBXBXPXBXAXLXLXAXLXLXLXIXLXAXAXLXLXLXLXIXIXLXJXJXZXIXAXPXCXJXJXLXLXHXPXCXBXPXbXPXJXIXLXAXAXCXKXKXLXLXLXLXLXAXPXPXBXPXAX0X8XLXLXIXLXCXAXLXLXAXAXAXLXLXAXCXCXCXCXLXIXLX",
"LXLXZXZXZXLXLXLXAX9XLXAXCXLXLXLXHXLXLXLXLXCXAXfXPXPXCXBXBXPXKXKXKXKXBXBXBXBXBXBXPXAXCXPXPXBXBXPXBXCXAXLXAXLXCXLXLXLXAXLXAXLXAXCXCXLXIXIXLXLXJXJXAXAXAXLXLXLXAXAXPXPXPXPXxXKXLX9XAXCXLXAXPXcXPXIX8XLXPXBXPXPXPXPXAX0X8XLXLXLXJXCXCXLXLXAXAXAXLXLXAXCXCXLXAXCXLXLX",
"LXLXVXIXLXIXVXHXLXLXLXAXCXAXLXLXAXLXLXLXAXAXJXCXBXCXBXPXPXPXPXKXKXKXBXPXPXBXCXBXPXCXCXPXPXBXBXBXCXAXBXAXAXAXCXLXLXLXLXAXAXLXAXCXBXAXIXiXLXLXLXAXAXAXLXZXLXJXAXPXKXPXCXBXKXPXLXLXCXPXAXAXCXPXPXLX9XHXAXPXjXPXCXPXLX0X8XHX9XVXLXAXCXAXAXAXAXLXLXLXLXsXsXAXAXCXCXLX",
"JXAXIXIXIXtX9XLXLXAXCXAXCXAXLXAXAXAXLXAXfXIXLXCXBXBXBXjXPXPXPXKXKXPXKXPXPXPXCXBXPXCXCXBXBXBXBXCXAXAXAXCXAXAXAXLXLXAXAXLXAXAXAXCXPXCXLXLXLXLXLXIXAXCXLXLXAXCXCXPXPXCXCXBXKXPXBXAXIXLXPXCXLXAXLXHX9X8XLXBXKXPXPXPXAX0X8XHX9XLXLXAXAXAXAXLXLXAXAXPXCXPXPXhXJXAXJXLX",
"LXLXLX8X8XIXIXVXIXLXLXAXCXCXAXAXLXHX8XLXNXAXAXCXBXPXPXPXPXPXPXKXKXKXPXPXBXBXBXBXsXBXCXBXBXBXCXAXLXAXCXCXCXAXAXLXLXLXAXAXAXCXCXCXCXAXLXLXLXAXLXIXHXLXLXAXCXCXCXPXBXCXCXBXPXPXBXCXLXAXKXCXAXAXLX9XIX8XLXAXBXCXPXjXAX0X8XHXZXPXAXLXAXLXAXLXLXAXAXPXPXKXKXAXLXAXhXLX",
"IXLXLXHXHXHX8XVXVXLXLXLXLXAXAXLX9XHX8XLXAXsXAXCXBXPXBXPXPXPXPXPXPXPXPXBXBXBXBXBXCXCXCXAXCXCXAXLXCXCXCXCXCXCXAXAXAXAXCXCXCXCXCXCXAXAXAXAXAXLXIXIXLXLXLXAXAXCXCXCXPXCXCXBXPXBXCXAXCXAXPXLXIXCXLX8X8XAXLXLXCXCXBXBXLX0X8XLXAXCXPXCXAXfXAXCXPXCXPXCXCXCXCXCXAXBXBXCX",
"CXLXLXLXLXLXLXLXLXLXLXAXAXAXAXLXHXLXLXBXCXBXCXCXPXCXCXPXPXPXKXPXBXBXBXCXjXBXPXPXCXAXCXAXCXAXCXAXAXCXBXBXBXBXBXBXCXAXBXBXBXBXBXAXPXCXAXAXIXAXCX9XLXCXAXAXCXCXCXCXBXCXBXBXBXCXAXAXLXIXAXHXIXAXqXqX8X9X8XLXAXAXCXBXLX0X8XLXBXCXCXAXAXAXAXAXAXCXPXPXCXAXCXCXCXCXBXBX",
"CXCXAXAXLXLXLXLXAXAXAXAXAXCXAXLXLXLXCXAXAXPXCXAXAXCXBXBXPXPXKXPXBXCXAXCXCXPXPXCXCXCXAXLXAXCXCXAXCXBXBXBXPXBXPXBXCXBXBXPXPXPXBXCXPXPXCXVXCXiXAXLXLXLXAXAXLXAXLXCXBXBXBXPXPXPXBXAXLXAXLXAXCXPXqXdXHX9XVXVXLXLXfXAXLX0X8XLXBXCXAXAXAXAXAXAXAXCXAXLXAXCXAXfXCXCXsXPX",
"CXBXCXAXLXLXHXLXAXCXAXLXCXCXCXCXLXHXLXLXLXCXCXCXAXCXBXBXPXPXPXBXCXAXCXCXLXAXKXCXAXAXAXLXLXAXAXAXCXCXBXBXPXPXPXCXAXAXCXBXBXBXBXjXPXPXCXZXZXIXLXLXLXLXLXLXCXLXLXAXCXBXPXKXKXKXPXCXAXAXCXAXCXAXdXHXHXVX9XZXZXLXCXAXLX0X8XLXBXBXAXAXAXLXfXfXCXLXLXLXLXCXAXCXCXsXsXCX",
"BXBXCXhXLXAXAXAXAXAXAXAXCXCXLXLXLXHXLXLXLXCXBXCXLXAXCXBXPXPXPXCXCXAXCXAXAXAXAXCXCXCXCXAXLXLXAXAXAXCXBXBXPXPXPXLXLXAXAXCXAXAXPXPXBXCXLXPXIXJXLXIXLXLXJXAXLXCXLXAXAXBXPXKXKXPXPXPXAXAXCXLXBXLX9XLXHXIXJXiXLXAXAXCXLX0X8XLXBXBXCXAXAXLXAXAXAXLXLXLXLXfXCXCXCXCXPXPX",
"PXjXAXAXLXCXAXdXAXAXAXAXCXCXLXLXHXLXLXAXAXCXCXCXAXAXCXBXKXPXPXPXCXCXCXAXAXAXLXCXCXCXAXLXLXLXAXLXAXCXBXPXPXPXPXAXPXPXBXCXAXKXCXBXCXAXHXAXAXLXiXAXCXLXAXLXAXLXCXJXLXPXKXPXKXKXBXPXAXLXAXLXCXKXLXLXLXZXIXLXAXBXBXCXLX0X9XLXBXBXAXAXLXLXAXLXLXLXLXLXLXCXCXAXAXCXPXKX",
"PXPXCXdXLXLXAXAXLXAXCXAXLXAXAXAXLXLXLXAXAXBXCXAXAXCXCXBXPXKXPXAXCXPXPXCXAXAXAXCXAXLXAXLXLXLXAXAXCXBXBXPXPXPXPXAXBXPXPXBXAXCXCXCXCXCXIXLXIXAXLXAXCXCXCXAXLXAXAXLX9XBXBXKXKXKXBXCXLXAXIXLXCXCXJXLX9XLXLXLXLXBXBXBXLX9X8XLXBXAXAXAXAXLXLXLXLXAXAXAXCXCXCXCXCXjXPXjX",
"PXBXCXAXIXCXCXAXAXAXCXAXLXAXCXCXAXAXAXdXAXPXCXCXCXBXBXPXKXPXBXAXLXCXjXBXLXAXAXAXAXLXAXAXLXLXAXAXCXBXBXPXPXPXPXBXBXPXBXPXAXBXPXCXBXAXCXLXZXZXLXCXCXLXCXCXLXAXAXAXHXCXPXPXKXPXBXCXLXAXLXLXCXAXIXLX9XIXJXHXHXBXBXPXAX0XtXLXBXCXAXLXLXLX8XLXAXCXCXCXCXCXCXCXBXBXPXPX",
"BXBXCXAXLXAXCXCXAXAXAXAXAXCXCXCXCXAXAXLXCXPXCXCXBXBXPXKXKXPXBXCXLXAXPXBXCXAXLXAXAXAXAXLXLXLXAXAXCXPXPXPXPXPXPXCXCXCXBXdXCXCXCXPXKXLXhXiXIXJXLXLXLXLXCXAXCXAXPXCXCXCXBXKX$ KXPXCXLXAXLXLXLXAXJXIX9XHXAXLX9XLXCXBXLX0X0XLXCXLXLXLXHXHXqXLXAXCXsXCXCXCXsXCXBXBXPXPX",
"BXfXhXLXAXAXAXCXCXAXLXAXAXAXPXCXAXLXAXCXCXCXCXBXPXPXKXPXKXPXBXCXAXAXCXCXAXAXLXAXAXAXAXZXLXLXAXAXCXBXPXPXPXPXPXCXLXAXAXAXPXAXCXCXPXAXCXAXJXAXLXAXHXAXAXCXCXPXLX9XCXCXBXKXKXKXPXCXAXLXLXJXdXCXAXIX8XHXLXLXHXLXBXCXLX0X0XHXLXLX9XCXAXLXHXLXfXCXsXPXCXCXCXCXCXBXPXKX",
"CXCXAXLXCXAXLXAXCXAXLXLXLXAXPXCXAXNXAXAXCXCXBXBXPXPXPXPXPXBXBXLXCXCXCXAXLXAXAXAXAXCXAXLXLXLXAXCXBXBXPXBXPXPXBXBXLXAXPXCXCXCXBXPXBXAXBXAXAXLXAXPXAXAXCXAXCXPXPXBXKXCXBXjXPXPXBXCXAXAXLXAXCXAXAXLX8X8XLXLXLXLXLXCXLX0X0XHXLXLXCXfXCXLXLXAXAXCXCXsXCXCXCXfXCXBXPXKX",
"BXCXAXLXAXLXLXLXCXCXLXqXAXCXCXAXNXAXAXAXBXBXBXBXBXBXPXBXBXCXCXBXCXCXAXLXdXhXAXAXCXCXAXAXAXLXAXBXBXBXBXPXPXPXPXPXAXCXBXPXBXAXKXPXPXPXNXLXAXAXCXCXBXCXCXAXAXCXPXBXBXPXBXBXPXKXCXAXCXLXAXCXCXCXAXAX8X8XHXLXLXLXHXLXLX0X0XHXLXAXAXAXLXLXLXAXCXCXCXsXsXPXCXAXCXsXPXPX",
"CXCXCXLXAXAXLXLXAXCXAXLXCXCXLXAXAXAXLXAXBXBXBXBXAXCXPXCXCXCXCXCXLXAXCXdXAXCXAXAXLXAXCXAXLXLXAXBXBXBXBXBXBXBXPXBXBXCXBXPXPXPXPXPXPXjXfXAXAXCXCXPXCXPXCXAXLXAXCXCXBXCXBXCXBXPXPXCXAXLXAXCXBXCXLXLXHX8XLXLXLXLXLXHX8X0XtXHXLXfXfXAXLXLXLXAXAXfXCXPXPXPXCXAXCXCXPXPX",
"PXBXCXAXCXCXdXJXCXCXLXAXPXAXLXAXAXAXLXCXBXPXPXBXCXCXPXAXAXCXCXAXCXAXAXLXLXCXAXAXLXLXCXAXLXLXAXBXBXBXBXBXPXBXPXPXPXCXPXPXPXPXPXPXCXPXPXBXAXAXCXPXPXPXCXAXLXLXAXCXLXBXPXCXAXCXPXBXCXLXAXBXPXPXAXAXLXLXLXCXfXLXLXIX8X0XaXHXLXAXLXLXAXLXLXAXCXCXCXCXCXCXfXCXCXCXPXPX",
"CXBXCXCXCXCXAXAXCXLXLXCXPXAXNXNXAXAXAXCXBXPXBXPXCXCXCXCXCXCXAXCXCXAXLXLXLXAXCXAXLXLXAXLXLXLXAXBXBXBXBXCXPXPXCXPXPXBXPXPXPXPXPXPXCXCXjXBXCXAXAXPXPXCXCXBXBXPXPXPXCXLXBXAXLXAXBXCXAXLXCXCXPXCXCXhXLXLXLXCXCXAXLX8X8X0X0XHXiXLXLXHXLXLXLXAXAXCXPXCXCXCXfXCXCXCXjXCX",
"CXBXBXCXPXCXAXCXAXAXCXPXCXAXdXNXAXAXAXCXBXBXBXCXCXCXCXPXPXPXCXCXCXCXAXAXAXAXAXAXAXLXLXLXAXLXAXBXBXPXCXBXBXBXBXPXCXBXBXPXPXPXPXPXPXPXPXPXCXAXAXAXLXAXBXBXBXBXBXPXPXCXLXAXLXLXCXAXLXAXCXBXPXCXPXAXdXLXLXCXCXLXLX8X8X0X0XLXLXLXqXIXLXLXAXAXAXCXCXCXCXCXAXCXCXCXPXCX",
"CXPXBXCXPXCXCXAXCXCXAXAXNXdXqXLXLXdXNXAXCXBXCXCXCXCXCXCXPXPXBXAXCXPXCXAXAXAXLXAXAXAXLXLXAXLXLXCXBXBXBXBXCXBXPXBXPXPXBXCXPXPXCXLXLXAXPXCXPXCXAXAXLXAXBXPXCXBXCXCXBXBXPXLXLXLXHXAXLXAXCXPXPXCXBXAXAXHX8XLXLXLXLXLXHX0XtXLXCXLXHXZXZXZXLXLXLXAXCXCXCXCXCXCXCXCXCXCX",
"CXBXCXCXBXCXCXCXAXCXAXNXNXdXLXHXHXNXNXAXCXCXCXCXCXCXCXBXBXBXBXCXCXBXCXAXAXAXAXAXAXAXLXLXLXLXLXAXCXBXPXBXPXPXCXCXCXPXPXCXPXCXBXCX  VXLXCXPXCXPXPXLXLXAXBXPXCXLXLXLXBXBXLXHXHXAXLXLXLXLXCXPXCXBXAXLXIXIX9XIXHXLXLXLX0X8XLXCXLXLX8XIXLX8X8XHXLXCXCXAXCXCXCXBXPXCXLX",
"CXBXAXBXPXCXCXCXCXAXdXgX8XdXHXqXqXAXCXCXCXCXCXCXBXCXCXPXPXPXPXCXCXPXPXCXAXAXCXAXLXAXAXLXLXLXLXLXAXCXCXBXBXBXCXCXCXBXBXCXAXBXBXLX    VXBXLXPXAXLXLXLXAXCXPXAXLX  LXPXCXLXVX8XLXAXAXVX  HXPXCXCXLX8XIX9XIX9X9XLXBXLX0X8XLXCXLXLXIXIXIXtX8XLXLXLXCXAXCXCXAXCXPXAXLX",
"CXBXCXCXCXCXCXCXAXdXgX8X9X8XqXqXLXCXBXBXBXCXBXCXBXPXCXBXCXCXPXBXCXCXBXCXCXAXAXBXAXAXLXLXAXAXLXAXCXAXCXCXCXCXPXCXAXAXAXAXCXCXBXLXVXVXLXAXPXLXLXHX9XLXPXAXLXLXHXLXAXCXAXVX  VXLXHXLXHXHXLXCXCXAXLX8X9X8XLXHXIXLXCXLX0X8XLXAXLXLXHX8XIXIXIX8X8XLXLXAXCXCXAXCXAXLXHX",
"CXCXBXCXCXCXCXAXLXqXqX9XIXqXqXHXAXCXBXCXAXAXCXCXCXCXCXCXBXPXBXCXCXCXCXCXBXCXCXBXCXCXAXAXAXLXAXAXCXCXCXCXAXAXCXAXAXLXLXAXAXAXAXLX8XAXLXqXIX8X9X9X8XLXAXAXLXHXLXLXAXPXAX8X    LXCXLXAXAXAXCXCXLXHX8XHXLXHX8XLXLXBXLX0XtXLXLXLXLXLX8XIXIXZXIXHXLXLXLXLXLXLXAXLXHX9X"
};
