/* XPM */
static char *_7a3f06318cd4609fbac4faaeb559f681qdRr6Yo16Xy34BH[] = {
/* columns rows colors chars-per-pixel */
"885 500 256 2 ",
"   c #020203",
".  c #020D02",
"X  c #060609",
"o  c #0B0A0B",
"O  c #090707",
"+  c #120D0A",
"@  c #041302",
"#  c #091504",
"$  c #051A03",
"%  c #0A1B05",
"&  c #0B150A",
"*  c #0B1B0B",
"=  c #061809",
"-  c #14110E",
";  c #14190C",
":  c #0C0E12",
">  c #0D1815",
",  c #141313",
"<  c #13151A",
"1  c #181917",
"2  c #110F10",
"3  c #241C18",
"4  c #301209",
"5  c #0B2304",
"6  c #0C2508",
"7  c #12270A",
"8  c #0D2314",
"9  c #162717",
"0  c #193618",
"q  c #13350A",
"w  c #25251C",
"e  c #322A1A",
"r  c #1A1D23",
"t  c #171C23",
"y  c #0D1C22",
"u  c #1B2526",
"i  c #1B3627",
"p  c #1B3434",
"a  c #252727",
"s  c #253728",
"d  c #37352B",
"f  c #263938",
"g  c #393935",
"h  c #302C2A",
"j  c #211F23",
"k  c #4C1A11",
"l  c #512719",
"z  c #692B1B",
"x  c #473729",
"c  c #453C36",
"v  c #543628",
"b  c #693729",
"n  c #773828",
"m  c #6F372E",
"M  c #5F1F1B",
"N  c #284539",
"B  c #304633",
"V  c #1D421E",
"C  c #47443A",
"Z  c #574738",
"A  c #564630",
"S  c #784638",
"D  c #694B38",
"F  c #4F401E",
"G  c #2A3C43",
"H  c #1E3A42",
"J  c #2A4747",
"K  c #354947",
"L  c #375758",
"P  c #32514E",
"I  c #3B625A",
"U  c #395C64",
"Y  c #3C6467",
"T  c #3B6673",
"R  c #1E4344",
"E  c #494945",
"W  c #554C46",
"Q  c #58544A",
"!  c #595956",
"~  c #4A5450",
"^  c #675748",
"/  c #785847",
"(  c #655B56",
")  c #725049",
"_  c #52635C",
"`  c #68635A",
"'  c #766655",
"]  c #44686A",
"[  c #466B75",
"{  c #4B7479",
"}  c #55777A",
"|  c #546A6B",
" . c #686867",
".. c #777877",
"X. c #6F706F",
"o. c #545C64",
"O. c #5D3D47",
"+. c #843C2E",
"@. c #874739",
"#. c #8F4B39",
"$. c #A45A3F",
"%. c #885748",
"&. c #975849",
"*. c #90554F",
"=. c #A45B4E",
"-. c #886757",
";. c #986757",
":. c #946C56",
">. c #A56859",
",. c #AA715A",
"<. c #9A7667",
"1. c #90736B",
"2. c #A77867",
"3. c #B67869",
"4. c #AD766F",
"5. c #9D5D61",
"6. c #C37C6E",
"7. c #70817D",
"8. c #958378",
"9. c #A98677",
"0. c #B78878",
"q. c #B38871",
"w. c #AE805F",
"e. c #C68979",
"r. c #C9937C",
"t. c #C98C73",
"y. c #CFA07E",
"u. c #567B86",
"i. c #4D7784",
"p. c #707B85",
"a. c #3F6E80",
"s. c #5B848C",
"d. c #59848A",
"f. c #5D8892",
"g. c #5A8B91",
"h. c #67868B",
"j. c #638C94",
"k. c #688B97",
"l. c #758C96",
"z. c #6B959C",
"x. c #67949A",
"c. c #76949B",
"v. c #77848A",
"b. c #6D98A2",
"n. c #739CA4",
"m. c #7A9DAB",
"M. c #7799A6",
"N. c #7698AC",
"B. c #7CA4AC",
"V. c #78A3AA",
"C. c #7DA3B2",
"Z. c #7EAAB1",
"A. c #6E99A0",
"S. c #8A8D91",
"D. c #BA9788",
"F. c #BA9D92",
"G. c #AE8F86",
"H. c #BCA399",
"J. c #BAA190",
"K. c #869AA7",
"L. c #929CA6",
"P. c #84A4AC",
"I. c #82A5B4",
"U. c #84ACB4",
"Y. c #85ABBA",
"T. c #8AAEBC",
"R. c #8AAAB5",
"E. c #95ACB8",
"W. c #8CB2BB",
"Q. c #86B1B8",
"!. c #93B3BD",
"~. c #99B3BD",
"^. c #98A4AB",
"/. c #AFAFB0",
"(. c #93A19E",
"). c #C78B84",
"_. c #CC9484",
"`. c #CD9B8B",
"'. c #C79888",
"]. c #D29C8C",
"[. c #D29885",
"{. c #C79C93",
"}. c #D29B93",
"|. c #C8A18D",
" X c #D4A38B",
".X c #C4A394",
"XX c #CBAA9C",
"oX c #C8A598",
"OX c #D5A898",
"+X c #D8B19D",
"@X c #CCADA2",
"#X c #C5ACA4",
"$X c #D4ADA3",
"%X c #CCB2A8",
"&X c #D3B2A5",
"*X c #D4B5AB",
"=X c #DAB7A9",
"-X c #D8BCB3",
";X c #CBB8B5",
":X c #E3BAA9",
">X c #E2BCB1",
",X c #E0AF9D",
"<X c #DBC3B9",
"1X c #D7C1B2",
"2X c #E5C7B9",
"3X c #E6C3AE",
"4X c #8DB2C2",
"5X c #8CB7C3",
"6X c #92B5C4",
"7X c #95BAC4",
"8X c #9ABBC5",
"9X c #9ABDCB",
"0X c #97B8C7",
"qX c #91B3C6",
"wX c #A3BBC8",
"eX c #B0BFC6",
"rX c #9CC1CC",
"tX c #9DC3D2",
"yX c #9EC7D5",
"uX c #A5C2CD",
"iX c #A2C5D4",
"pX c #A4C9D5",
"aX c #A5CBDB",
"sX c #ABCDDC",
"dX c #AAC9D5",
"fX c #ACD1DD",
"gX c #B2D2DD",
"hX c #B4CAD2",
"jX c #AACEE1",
"kX c #ADD2E3",
"lX c #ADD6E7",
"zX c #B2D5E4",
"xX c #B5DAEA",
"cX c #B8DAE9",
"vX c #BBDDF0",
"bX c #BDE1F2",
"nX c #D5CCC9",
"mX c #E4CCC3",
"MX c #E8D4CC",
"NX c #C1DEEC",
"BX c #C4E2ED",
"VX c #C4E4F4",
"CX c #CCEAF5",
"ZX c #CDEDF9",
"AX c #C9E6F4",
"SX c #D3EEF9",
"DX c #D3ECF6",
"FX c #D4F1FC",
"GX c #DBF2FA",
"HX c #DCF1F7",
"JX c #CFF0F9",
"KX c #E0F3F9",
"LX c #EBE5E3",
"PX c #EDE2DC",
"IX c #C9BEC0",
"UX c #8B7F87",
/* pixels */
"] ] Y Y Y Y Y Y Y Y Y Y Y Y ] ] ] ] ] ] [ { { } } d.h.j.x.z.c.n.V.B.B.P.P.I.Q.W.!.!.7X7X7X7XrXrXpXdXaXfXfXfXzXcXcXcXcXcXcXcXcXcXcXcXzXzXgXfXfXfXsXsXdXdXpXdXsXfXkXkXkXkXkXkXfXfXaXiXrXrX9X7X6XT.U.B.n.x.j.s.d.h.h.z.n.P.W.~.8XuXsXsXsXsXaXpXdXdXdXdXiXiXuXuXuXuXuX9X9X9X9XrXpXaXsXzXzXcXcXvXbXNXVXVXVXVXNXcXxXzXjXdX9X7XT.I.M.z.j.u.{ ] U P J f f f f s 9 > = & @ . . @ @ @ @ & @ @ # # # $ @ @ @ @ @ @ . . . . . . . . . . . @ . . . . . . . . . . . . . . . . . . . @ @ @ . . . . . . . . . @ . . @ . . . . @ . . @ @ @ @ # # @ @ @ @ $ $ @ $ $ $ $ = $ $ $ @ @ @ @ @ @ @ @ @ @ @ @ @ @ @ @ @ . @ @ @ @ @ @ @ @ @ . . . . @ @ . . . . . . . . . . X X X . . X . . . . @ @ @ @ $ $ $ 5 5 5 6 6 6 q 6 6 6 6 6 6 6 6 7 5 5 5 5 5 $ $ $ $ % % $ $ % $ $ $ $ $ $ $ % % % % % % = % % % % # # # # @ # @ @ @ . . . . . . . . . . . @ @ @ @ @ # # # # % % % % % % % % % % $ $ # $ $ $ % # $ $ @ @ @ @ . @ @ @ @ @ @ @ # # $ @ @ @ @ @ $ $ $ # = # # @ $ # # = = % % % * = = = % % % = = % % % % % % $ $ % % * * * 5 5 6 6 6 8 8 8 9 9 0 0 i s i i i i s s s 0 0 0 0 0 0 7 7 7 5 5 7 7 % % % % # # # $ @ @ $ $ $ $ $ # % # $ # % = * % * * * % % % % % # # $ $ @ @ @ @ . . . . . . . . @ = @ @ @ # # # ; ; 8 8 8 8 8 7 7 9 0 0 q 0 0 0 0 0 0 0 q q 0 0 0 0 0 q 9 9 q q 9 q 7 7 7 q 7 7 9 9 9 0 0 0 0 i i 0 9 9 9 9 9 9 9 0 s 0 s s s s 0 9 9 9 0 9 7 6 8 8 7 7 7 9 8 8 9 9 9 9 9 0 9 0 0 0 0 9 0 0 q q 0 0 0 0 0 0 0 0 0 0 0 0 V B B P I [ u.h.j.x.n.U.Q.W.7XtXpXsXzXzXcXcXcXvXbXBXBXBXBXBXBXVXAXAXAXAXCXCXCXCXCXCXCXCXCXCXCXCXCXCXCXCXCXCXZXDXSXSXDXCXCXCXDXDXDXDXCXCXSXSXSXSXSXSXSXZXSXSXDXDXCXDXDXDXCXCXCXZXZXZXSXSXCXCXCXCXCXCXCXCXZXCXCXCXCXCXCXZXCXCXAXAXAXAXCXCXCXCXCXCXCXCXCXCXCXCXCXCXCXCXCXCXCXCXCXCXCXCXZXZXCXCXCXZXZXCXCXCXCXCXCXCXCXCXCXZXCXCXCXCXCXCXCXCXSXSXSXSXSXSXZXZXCXZXSXSXSXSXSXSXDXDXZXZXDXDXDXDXDXDXDXDXDXDXZXZXSXSXSXCXCX",
"] ] ] ] Y Y Y Y Y Y Y Y Y Y ] ] ] ] ] ] [ [ { } } d.h.j.x.z.c.n.V.B.B.P.P.U.Q.W.W.W.!.!.!.7XrXrXyXiXdXaXfXfXkXzXcXcXcXcXcXcXcXcXcXcXzXzXgXfXfXfXsXsXdXdXdXdXfXfXfXkXkXkXfXfXsXsXpXiXrXrX9X7XW.W.U.Z.n.z.j.h.j.j.z.V.P.R.8XuXdXdXfXzXzXgXsXsXsXfXsXsXdXdXdXdXiXiXuXrX9X9X9XrXpXaXsXzXzXcXvXbXbXNXNXNXNXvXcXxXzXgXdXiX9X6XT.C.b.x.s.} ] U L J f f s s u 9 * = = & # $ @ & & @ @ & = & = = = & # @ @ @ @ @ . . . . . . . . . . . . . . . . . . . . . . . . . . . . . . . @ @ @ . . . . @ . . . @ @ . . @ @ . . . @ @ @ . @ @ @ @ @ $ $ $ $ $ = = = = $ $ $ $ $ @ $ @ @ @ @ @ @ @ @ @ @ . . @ @ @ @ . @ @ @ @ @ @ @ @ @ @ . . . @ @ . . . . . . . . . . X X X . . . . . . . @ @ @ @ $ $ 5 5 5 5 6 6 q q q q 7 6 6 6 6 5 6 5 5 5 5 5 $ $ $ $ $ $ $ $ $ $ $ $ $ $ $ $ % % % % % % * * % % % # & # # # # @ @ . . . . . . . . . . . @ @ @ @ @ # # # # # % % % % % % % % % % % % % # # # # $ $ $ @ @ @ @ @ @ @ @ @ @ @ @ @ @ $ @ @ @ @ @ $ $ # # # # $ $ # # # # = = = = = = = = = * * * % % % % % % % % % % * 5 5 5 5 5 6 6 6 8 8 8 9 9 0 0 i i i i i i s s s 0 0 0 0 0 0 7 7 5 7 * * 7 % % % % % # # # @ $ $ $ $ $ $ # # # $ # % % = % % % % % % % % % % % % $ $ @ @ . . . . . . . . . . . . @ @ @ # # * ; ; > 6 8 8 8 7 9 9 0 q 0 0 0 0 0 0 0 q q 0 0 0 0 0 q 9 q q 6 9 9 q 7 q q 7 7 9 9 0 0 0 0 0 i i 0 9 9 0 9 9 9 9 0 0 9 9 0 0 9 9 9 8 8 7 7 7 6 8 8 7 8 7 7 9 9 9 9 9 9 9 9 9 9 0 0 0 9 9 9 q q 0 0 0 0 0 0 0 0 0 0 0 0 V V B B L ] { d.h.x.n.P.Q.W.7XrXpXsXkXzXcXcXvXbXBXVXBXAXVXVXVXAXAXAXAXAXCXCXCXCXCXCXDXDXCXCXCXCXZXZXCXZXCXCXDXSXSXSXDXDXDXSXSXSXSXSXSXDXSXSXSXSXSXSXSXSXSXSXZXZXDXDXDXDXZXZXZXZXZXZXZXZXZXZXZXZXZXZXZXZXZXCXCXCXCXCXCXZXZXCXCXCXCXCXCXZXCXCXCXCXCXCXCXCXCXCXCXCXCXCXCXCXCXCXCXCXZXZXZXZXCXCXZXZXZXZXCXCXZXCXCXCXCXZXZXZXCXCXCXCXCXCXCXCXSXSXSXSXSXSXZXZXZXSXSXSXSXSXSXSXSXSXSXSXSXSXSXSXSXSXSXSXSXSXSXSXSXSXSXSXSX",
"[ [ ] ] ] ] Y Y Y Y Y Y Y Y Y ] ] ] ] [ [ [ { { } d.h.j.x.z.c.n.V.B.B.P.P.U.Q.W.W.W.W.W.!.7X8XrXrXtXiXpXaXaXfXfXzXzXcXcXcXcXcXcXcXcXzXzXzXfXfXfXsXsXdXdXdXdXfXfXfXfXfXfXsXsXsXaXpXiXrX9X7X6XW.W.Y.Z.V.n.z.x.z.c.B.Q.!.8XdXdXgXgXzXzXzXzXzXzXzXzXzXgXgXsXsXsXdXdXiXuXrX9X9XtXpXaXsXgXzXxXcXvXbXvXvXvXvXxXcXzXjXsXiX9X6XT.I.m.z.h.} [ U P J f p i u 9 > > & & = @ @ @ & & = & & = > * > > > > * * @ @ @ @ @ . . . . . . . . . . . . . . . . . . . . . . . . . . @ . . . @ @ @ @ @ @ @ @ @ @ @ @ @ @ @ @ @ . . . . @ @ @ @ @ @ @ @ $ $ # # = = = = = = $ $ @ @ $ $ @ @ @ @ @ @ @ @ @ @ . . @ @ @ @ . @ @ @ @ @ @ @ @ @ @ @ @ @ @ @ . . . . . . . . . . . . . . . . . . . . @ @ @ @ % 5 5 5 5 5 6 q q q q q q q 6 6 5 5 5 5 5 5 5 5 % % $ $ $ $ $ $ % $ $ $ % % $ $ % % % % % * * * * % * # & # # # # @ @ @ . . . . . . . . . @ @ @ @ @ $ # % # % % # % % % % % % % % % % % $ $ # # $ $ $ $ @ @ @ @ @ @ @ . . . @ $ @ @ @ @ $ $ $ @ @ # # # # @ # = # # # # = % = = # = = = = * * * = = % % % % % % % * 5 7 7 7 7 7 7 7 6 7 8 8 9 9 0 i i s i i i s s 0 0 s s s 0 0 9 7 7 7 6 * * * % % % % % # # # # # # # $ $ $ # # # $ $ % % % % % % % % % % % % % % % % # @ @ . . . . . . . . . . . . . @ @ # # & & * * * 8 8 8 7 7 7 9 0 0 0 q 0 0 0 0 q q 0 0 0 0 0 0 q q 6 6 9 9 7 7 q q 9 7 9 9 0 0 0 0 0 0 i i 0 0 0 9 9 9 9 9 9 9 9 9 9 9 8 8 * * % * * * 8 8 8 8 ; 8 9 9 9 9 9 9 9 9 9 9 9 0 0 0 9 9 9 9 0 0 0 0 0 0 0 0 0 0 0 0 0 V V B P I ] } h.x.c.B.U.W.7XrXiXaXsXzXcXcXvXbXBXVXAXAXVXVXAXAXAXAXCXCXCXCXCXCXCXDXDXSXDXDXDXDXDXDXDXDXCXDXDXSXSXSXSXDXSXSXSXSXSXSXSXSXSXSXSXSXSXSXSXSXSXSXDXSXDXDXSXSXZXZXZXZXZXZXZXZXZXZXZXZXZXZXZXZXZXZXCXCXCXCXZXZXZXZXZXCXZXZXZXZXZXZXZXZXZXZXZXZXZXZXZXZXZXZXZXZXZXZXZXZXZXZXSXSXZXZXZXZXSXZXZXZXZXZXSXZXZXZXSXSXSXSXSXSXSXSXSXSXSXSXSXSXSXSXSXSXSXSXSXSXFXSXSXSXSXSXSXSXSXSXSXSXSXSXSXSXSXSXSXSXSXSXSXSXSX",
"[ [ [ [ [ ] ] ] ] ] Y Y Y Y Y ] ] ] ] [ [ [ { { u.d.s.j.z.z.n.n.V.B.B.P.P.U.Q.W.W.W.W.W.!.!.7X8XrXrXtXiXpXaXfXfXzXzXcXcXcXcXcXzXcXcXzXzXzXfXfXsXsXsXdXdXdXdXfXfXfXfXfXsXsXsXaXpXiXiXrX7X6XW.W.W.Y.U.B.m.n.n.V.P.R.8XuXuXfXgXgXcXcXcXcXcXcXcXcXcXcXzXgXgXgXgXsXsXpXiXrX9X9XrXpXaXsXsXgXzXxXxXxXxXcXxXxXzXzXjXaXiX9X9XT.I.m.z.h.u.] ] L J f p u 8 > * & & = = = @ . . @ & = > > > 8 8 9 9 9 9 9 8 = = @ @ @ @ . . . . . . . . . . . . . . . . . . . . . . . . . @ . @ @ @ @ @ @ @ @ @ @ @ @ @ @ . @ @ @ @ @ . . . @ @ @ @ @ @ @ @ @ $ $ $ $ # # = = $ $ @ @ @ $ $ @ @ @ @ @ @ @ @ @ @ @ . @ @ @ @ . @ @ @ @ @ @ @ @ @ @ @ @ @ @ @ . . . . . . . . . . . . . . . . . . . . @ @ @ @ % 5 5 5 6 6 6 q q q q q q 6 6 6 5 5 5 5 5 5 5 5 % % $ $ $ $ $ $ % % $ % % % $ $ $ % % % % % * * * * * # & & # # # # @ @ @ . . . . . . . @ @ @ @ @ @ # # % % % % # % % % % % % % % % $ $ $ $ # $ $ @ @ @ @ @ @ @ @ @ @ @ . . @ @ @ @ @ @ $ $ $ @ @ # # = @ @ # = = = = = % = = = = = = = = * * * * * % % % % % * % * 7 7 7 7 7 7 7 7 6 8 8 8 9 0 i i s s s s s s s s s s s s 0 0 9 7 7 7 * % % * % % % % % # # # # # # # $ $ $ $ # $ $ $ $ $ % % % % % % % % % % # # % % # @ @ @ . . . . . . . . . . . . . @ @ @ # # = * * * 8 8 8 7 6 9 q 0 0 q q 0 0 0 q q 0 0 0 0 0 0 q 9 q 6 q 7 7 7 q 9 9 9 9 0 0 0 0 0 0 0 i i i 0 0 9 9 9 9 9 9 9 9 9 8 ; 6 * * % % % * * 7 7 ; ; ; ; 9 9 9 9 9 9 9 9 0 9 0 0 0 0 9 9 9 9 9 q 0 0 0 0 0 0 0 0 0 0 0 0 V N P L ] } d.j.c.V.U.Q.7X8XrXpXsXgXcXcXvXbXBXVXAXAXAXAXAXAXAXCXCXCXCXCXCXCXCXDXSXSXSXSXSXSXDXDXDXDXSXDXSXSXSXSXSXSXSXSXSXSXSXSXSXSXSXSXSXSXSXSXSXSXSXSXSXDXSXSXSXSXZXZXZXSXZXZXZXZXZXZXZXZXZXZXZXZXZXDXZXZXZXZXZXZXSXSXZXZXZXZXSXSXSXSXSXSXSXZXZXZXZXZXZXZXZXZXZXZXZXZXZXZXZXSXSXSXZXZXSXSXSXSXZXZXSXZXZXZXZXSXSXSXSXSXSXSXSXSXSXSXSXSXSXSXSXSXSXSXSXSXSXSXFXFXFXFXSXSXSXSXSXSXSXSXFXFXFXFXFXFXFXFXFXSXSXSXSX",
"{ { [ [ [ [ [ [ ] ] ] Y Y Y Y Y ] ] ] [ [ [ { { } d.s.j.z.c.n.n.B.B.P.I.U.U.Q.Q.W.W.W.W.W.!.7X7X9XrXtXyXpXdXfXfXkXzXzXcXcXcXcXzXcXzXzXzXfXfXfXsXdXdXdXdXdXdXdXfXfXfXfXsXsXpXpXiXrXrX9X7X6XW.W.4XY.U.Z.B.B.B.U.W.8XuXdXgXzXcXcXNXNXvXcXcXcXNXNXNXcXcXzXzXgXgXsXdXpXiXrX9X9XiXpXaXaXaXjXgXzXzXzXzXzXkXjXsXaXiX9X9X0X4XI.M.l.h.i.[ ] L J f p 9 > = & = = & = = = @ @ = = > > 9 u i u i i u u u u u 8 * = @ @ @ @ @ @ . . . . . . . . . . . . . . . . . . . . . . @ . @ @ @ @ @ @ @ @ @ @ @ @ @ @ . @ @ @ @ . . . . . . . @ @ @ @ @ @ @ $ $ $ # # # = $ @ @ @ @ @ @ @ @ @ @ @ @ @ . . @ @ @ . @ @ @ . @ @ @ @ @ @ @ $ $ @ @ @ @ @ @ . . . . . . . . . . . . . . . . . . . . @ @ @ @ $ 5 5 5 5 5 6 q 6 6 q q 7 6 6 5 5 5 5 5 5 5 $ $ % % % # $ $ $ $ $ $ % % % % % $ % % % % % % % % * * * * & & # # # # # @ @ @ @ @ @ @ @ @ @ @ @ @ @ # # % * % % % % * * % % % % $ % % $ $ $ $ $ $ $ $ @ @ @ @ @ @ @ @ @ @ @ @ @ @ $ $ @ @ @ @ @ @ @ # = = @ @ # = = = = % % % = = = = = = = = = = * * % % % % % * % * 7 7 7 7 7 7 7 7 7 7 9 9 9 0 i s s s s s s s s s s s s 0 0 0 9 7 7 7 * % % % % % % % % # # # # # $ $ $ $ $ $ $ $ $ $ $ $ $ % % % % % % % % % # # # # # $ @ @ . . . . . . . . . . . . . . @ @ @ # & = * * 6 8 6 6 6 9 9 0 q 9 q q q q 0 0 0 0 0 0 0 0 q q q q q q 7 7 9 9 9 9 9 0 0 i i i i 0 i i 0 0 9 9 9 9 9 9 9 9 9 8 ; * * % % % % % % * * * 8 8 > 8 9 9 9 9 9 9 9 9 9 9 9 0 0 0 0 9 9 9 q q q 0 0 0 0 0 0 0 0 0 0 0 0 V N P I { d.j.c.V.I.U.4X7XrXpXsXgXzXcXcXbXBXVXAXAXAXAXAXAXCXCXCXCXCXCXCXCXCXDXDXSXSXSXSXSXDXDXDXDXSXSXSXSXSXSXSXSXSXSXSXSXSXSXSXSXSXSXSXSXSXSXSXSXFXSXSXSXSXSXSXSXSXSXSXSXSXSXSXDXSXSXSXSXSXSXSXSXSXSXSXSXSXSXSXSXSXSXSXSXSXSXSXSXSXSXSXSXSXSXSXSXSXSXSXSXSXSXSXSXSXSXSXSXSXSXSXSXSXSXSXSXSXSXSXSXSXSXSXSXSXSXSXSXSXSXSXSXSXSXSXSXSXSXSXSXSXSXSXFXSXSXSXSXSXFXFXFXFXFXFXFXFXFXFXFXFXFXFXFXFXFXFXFXFXSXSXSXSX",
"{ { { { [ [ [ [ [ ] ] Y Y Y Y Y Y Y ] [ [ [ { } } d.h.j.z.n.n.V.B.P.P.U.U.R.Q.Q.W.W.W.W.W.W.!.!.7XrXrXtXiXpXaXfXfXkXkXzXzXzXzXzXzXzXzXzXfXfXfXsXdXdXdXpXpXdXdXfXfXfXsXsXaXpXiXiXrX9X7X6X6X6X6X6XT.Y.U.U.U.U.W.7XuXdXgXgXcXNXNXBXVXVXBXNXBXBXBXNXNXNXcXcXzXgXsXdXiXuX9X9X9XwXiXpXaXaXsXjXjXjXjXjXjXaXaXaXiX9XqX4XT.I.M.l.h.u.} ] L K f i 8 > = = = & @ @ = = = = = > > 8 u i p p p p p p p p p u u 8 > & @ @ @ @ @ . . . . . . . . . . . . . . . . . . . . . . @ @ @ @ @ @ @ @ @ @ @ @ @ @ @ @ @ @ @ @ . @ @ . . . . . @ @ @ $ $ @ @ $ # # # # # @ @ @ $ @ @ @ @ @ @ @ @ @ @ @ . @ @ @ . . . . @ . @ @ @ @ @ @ @ @ @ @ @ @ @ @ @ . . . . . . . . . . . . . . . . . . . . @ $ $ $ $ 5 5 5 5 5 6 6 q q q q q 7 6 5 5 5 5 5 $ $ $ $ % % % # $ $ $ $ $ % % % % % % $ % % % % % % * * * * * # & & # & # # # @ @ @ @ @ @ @ @ @ @ @ @ @ # # % * * * * * * 7 7 * % % % % % % % % % % % % $ $ $ $ $ @ @ @ . @ @ @ @ @ @ @ $ @ @ @ @ @ @ @ @ # # # # @ # # = # # # # # = = = = % = = * * * * * % % % % % * % * 7 7 7 7 7 7 7 7 7 9 9 9 0 i i s s s s s s s s s s s i 0 0 0 9 7 8 7 6 % % % % % % % % # # # # # $ # # # # $ $ $ $ $ $ $ $ % % % % % % % % % % % % # @ @ . . . . . . . . . . . . . . . . . . @ @ # & = * * 6 6 6 6 7 9 9 9 q q 7 q q 0 0 0 0 0 0 0 0 0 0 q q 0 q 9 9 9 9 9 7 9 0 0 i s s i i i i 0 0 0 9 9 9 7 8 8 7 9 8 * = % % % % % % % % * * 8 8 9 9 9 9 9 9 9 0 9 9 9 0 9 9 0 0 0 0 9 9 7 q 9 0 0 0 0 0 0 0 0 0 0 0 0 i V N I ] } d.z.V.Z.U.W.7XrXiXdXgXzXcXcXbXBXVXAXAXAXAXAXAXCXCXCXCXCXCXCXCXCXCXDXZXSXSXSXSXSXDXDXDXSXSXSXSXSXFXFXFXSXSXSXSXSXSXSXSXSXSXSXSXSXSXSXSXFXFXSXSXSXSXSXSXSXSXSXSXSXSXSXSXSXSXSXSXSXSXSXSXSXSXSXSXSXSXSXSXSXSXSXSXSXSXSXSXFXSXSXSXSXSXSXSXSXSXSXSXSXSXSXSXSXSXSXSXSXSXSXSXSXSXSXSXSXSXSXSXSXSXSXSXSXSXSXSXSXSXSXSXSXSXSXSXFXFXFXFXFXFXFXFXFXFXSXSXSXFXFXFXFXFXFXFXFXFXFXFXFXFXFXFXFXFXFXFXFXFXSXSXSX",
"{ { { { { { { { [ [ ] ] Y ] Y ] ] Y ] [ [ [ { } } d.h.x.z.c.n.B.P.P.P.U.Q.Q.Q.Q.Q.W.W.W.R.W.W.!.7X7X8XrXtXiXpXaXfXfXkXkXkXzXzXzXzXzXzXzXfXfXsXsXdXdXdXpXiXpXdXfXsXsXsXsXpXiXiXrX9X7X6X6X7X7X7X6X4XW.W.W.W.6X9XuXdXgXzXcXNXBXBXAXAXAXBXBXAXAXAXBXBXBXBXNXcXgXdXdXuX9X8X7X8X9XiXiXiXiXaXaXaXaXaXaXaXtX9X9X9XqX4XY.m.M.l.k.u.{ ] L J f u > * & & & & # # @ @ @ = * * 8 9 i i f N f J G f H G f f p i u 9 > = @ @ @ @ @ . . . . . . . . . . . . . . . . . . . . . @ @ @ @ @ @ @ @ @ @ @ @ @ @ @ @ @ @ @ . @ @ @ @ . . . . . @ @ @ @ $ $ # # # # % = @ $ $ = $ @ @ @ @ @ @ @ @ @ @ . . . . . @ . . . @ @ @ @ @ @ $ $ $ $ # # @ @ @ . . . . . . . . . . . X X X . . . . . @ @ @ $ $ $ $ 5 5 5 5 5 6 6 q 7 q q 7 5 5 5 5 5 $ $ $ $ $ $ $ # # $ $ $ $ $ $ % % % % % % % % % % % % * * * % % % # & & & # # # @ @ @ @ @ @ @ @ @ @ @ @ # # # % * * * * * * * ; * % % * % % % % % % % % $ $ $ $ # # $ $ @ @ @ @ @ @ @ @ @ @ @ @ @ @ @ @ @ @ @ @ # # # # # # # # # # # # $ # % % = = = * * * % % % % % % % % % 5 5 7 7 7 7 7 7 7 7 9 9 9 0 s s s s s s s s s s s s s i 0 i 0 9 9 8 8 8 * % % % % % % # # # $ # # $ # # % % # $ $ $ $ $ $ $ % % % % % % $ # # % % # # @ @ . . . . . . . . . . . . . . . . . . . @ # # % % * * 6 6 6 8 7 7 q q 6 q 7 q 0 0 0 0 0 0 0 0 q q q q q q q q q q 9 9 9 0 i s s s i i i i 0 0 0 0 9 9 9 8 8 8 8 6 * * % $ $ % % % % $ % * 8 8 8 9 9 u u u u u 0 0 0 0 0 0 0 0 0 i 0 9 9 9 0 0 0 0 0 0 0 0 0 0 0 0 0 V V N P ] { d.x.c.B.I.W.7XrXiXdXfXgXcXcXbXbXVXAXAXAXAXAXCXCXCXCXCXCXCXCXCXCXCXDXDXSXSXSXSXSXSXSXDXFXFXSXSXFXFXFXFXSXSXSXSXSXSXSXSXSXSXSXSXSXSXSXFXFXFXFXSXSXSXFXFXSXSXSXSXSXSXSXSXSXSXSXSXSXSXSXSXSXSXSXSXSXSXSXSXSXSXSXSXSXSXSXSXSXSXSXSXFXFXFXFXSXSXSXSXSXSXSXSXSXSXSXSXSXFXFXFXSXSXSXFXFXSXSXSXSXSXSXSXSXSXFXFXFXFXFXFXFXFXFXFXFXFXFXFXFXFXFXFXFXFXFXFXFXFXFXFXFXFXFXFXFXFXFXFXFXFXFXFXFXFXFXFXFXFXFXSXSX",
"{ { { { { { { { [ [ ] ] ] ] ] ] ] ] ] [ [ [ { } } d.j.x.z.c.V.P.P.P.P.U.Q.Q.Q.Q.W.W.W.Q.Q.Q.W.W.W.7X7X8XrXtXiXpXfXfXfXfXkXkXkXzXzXzXzXzXfXfXsXsXpXpXpXiXiXpXdXfXsXsXsXaXpXiXrXrX9X7X6X6X7X7X7X7X7X7X7X7X7X9XiXdXdXzXcXNXBXAXAXCXCXAXAXAXAXCXAXAXBXBXBXNXcXgXdXuX9X8X7X7X8X9X9X9X9XiXiXiXiXiX9XtX9X0XqX4X4XY.C.M.c.l.h.u.| ] P J s u 8 > * = # # @ @ = = = = * 8 8 i i f N J P J P J J J J J G f i i u 8 > @ @ @ . @ @ . . . . . . . . . @ @ @ . . . @ @ . . @ @ @ @ @ # @ @ @ @ @ @ @ @ @ @ @ @ @ @ @ @ @ @ @ @ . . . . . @ @ @ $ $ $ # # # # = @ @ = = = @ @ @ @ @ @ @ @ @ @ . . . . . @ . . . . @ @ @ @ @ $ $ $ $ # # @ @ @ @ . . . . . . . . . . X X X . . . . . @ @ $ $ $ % $ 5 5 5 5 5 6 6 7 7 7 6 5 5 5 5 5 $ $ $ $ $ $ $ # # $ $ $ $ $ # $ % % % % % % % $ $ $ % % % * * % % % % & & # # # # @ $ @ @ @ @ @ @ @ @ @ $ # # # % * * * ; ; * * * * % % * % % $ $ $ $ $ $ $ $ $ $ # # $ $ $ @ $ @ @ @ . @ @ @ @ @ @ @ @ @ @ @ @ @ @ # # # # @ = # # # # # # # * * * = = = % % % % % % % % % % * 5 7 7 7 7 7 7 7 7 9 9 9 9 0 s s s s s s s i i 0 0 i a s i i 9 9 9 8 8 8 * % % # # % % # # $ $ # # $ # % % % # $ $ $ $ $ $ $ % $ % % $ $ $ $ $ % # # @ @ @ . . . . . . . . . . . . . . . . . @ . . @ # # # % % % 6 6 7 7 7 q q 7 q q q 0 0 0 0 0 0 0 0 q q q q q q q q 0 0 0 0 9 0 i s s s s s i i 0 0 i i 9 9 0 9 8 8 8 6 * ; % % $ $ % % % $ # * 8 9 9 9 9 u u u u u u 0 0 0 i i i i s s i 0 0 0 0 0 0 0 0 0 0 0 0 0 0 0 0 0 V N N I | } h.x.m.Z.T.7XrXuXdXfXgXzXcXbXbXVXAXAXAXAXAXCXCXCXCXCXCXCXCXSXDXDXDXDXSXSXSXSXSXSXSXSXFXFXFXFXFXFXFXFXSXSXFXFXFXFXSXSXSXSXSXSXSXSXFXFXFXFXFXFXFXFXFXFXSXSXSXSXSXSXFXFXFXFXFXFXFXFXFXFXSXSXSXSXSXSXSXSXSXSXSXSXSXSXSXSXSXSXSXFXFXFXFXFXSXSXSXSXSXSXSXSXSXSXSXFXFXFXFXFXSXSXFXFXFXFXSXFXFXFXFXFXFXFXFXFXFXFXFXFXFXFXFXFXFXFXFXFXFXFXFXFXFXFXFXFXFXFXFXFXGXGXFXFXFXFXFXFXFXFXFXFXFXFXFXFXFXFXFXFXFX",
"i.{ { { { { { { { { [ [ ] ] ] ] [ [ [ [ [ [ { } d.d.h.x.z.c.n.B.P.U.U.U.Q.Q.Q.Q.W.R.Q.Q.Q.Q.Q.R.W.W.7X7X8XrXiXpXdXsXfXfXfXfXkXkXzXzXzXzXfXfXsXpXsXpXpXiXiXpXdXdXfXsXpXiXiXrX9X9X7X7X7X7X7X7X8XrX9X9X9XrXuXpXsXgXcXcXNXBXAXCXCXCXCXCXCXCXDXDXDXCXAXAXBXNXcXzXfXdX9X8X!.7X0X8X9X9X9X9X9X9X0X9X9X0X4X4XY.C.C.m.M.l.k.u.} ] L J f p 9 8 * # # # # $ # = = # = = * 8 8 i f J J P P P P P L P P P P J N f p u 8 * @ . # @ . @ @ @ . . @ . . . . . . . @ . . . . . @ @ @ @ @ @ @ @ @ @ = # @ @ @ @ @ @ @ @ . . @ @ @ . @ . . . . @ @ @ $ $ $ # # # $ $ $ $ = = # $ @ @ @ @ . @ @ . @ @ . . . . . . . . . . @ @ @ $ $ $ $ $ @ @ @ @ @ . . . . . . . . . . . . . . . . . . @ @ @ @ @ $ $ 5 5 5 5 5 5 6 7 7 7 6 5 5 5 5 5 5 % $ $ $ $ $ $ # # # # $ # % % % % % % % % % % % % % % % % % % % % = * & & & # # # # $ @ @ @ @ @ @ . . @ $ # * = = * * ; ; 8 8 6 * * * * * * * % % % % % $ % % $ $ $ $ # $ @ @ @ @ @ . . . . @ @ @ @ @ @ @ @ @ @ @ @ @ @ # # # = # @ $ = = = # = = = = % % % % % % * * * * * 5 % 5 7 7 7 7 7 7 7 7 9 9 9 9 0 9 i s s s s s s s s s s s a i 9 9 9 9 7 7 ; ; * * % % % % % % * * % % % * ; % % # @ $ $ $ $ $ $ $ % % % % % % # # # # # # # @ . . . . . . . . . . . . . . . . . . . @ @ # # % % % % * 6 6 7 7 7 q 6 6 q q q 0 0 0 0 q 0 q q q q q q 0 0 0 0 0 0 0 0 0 i i i s s i i i i i i i 0 0 9 9 7 8 8 ; * % % % $ $ $ $ = % * * 8 8 9 9 9 9 i u u u u 0 i i i i s s i s i i 0 0 0 0 0 0 0 0 0 0 0 0 0 0 0 V V V N P ] { d.j.b.B.Y.W.7XrXiXdXgXzXcXcXbXBXBXAXAXAXAXAXCXCXCXCXCXCXSXSXZXDXSXSXSXSXSXSXFXFXSXSXDXSXDXDXDXDXDXDXFXFXFXFXFXFXFXFXFXFXFXFXFXFXFXFXFXFXFXFXFXFXFXFXFXFXFXSXSXFXFXFXSXSXSXFXFXSXSXSXSXSXFXFXFXFXFXFXFXFXSXSXSXSXFXFXSXSXSXSXSXSXSXSXFXFXFXFXFXFXFXFXFXSXSXSXSXSXSXFXSXSXFXFXFXFXFXFXFXFXFXFXFXFXFXFXFXFXFXFXFXFXFXFXGXGXFXFXFXFXGXFXFXFXGXGXFXFXFXFXGXFXFXFXGXGXGXGXGXFXFXFXFXFXFXFXFXFXFXFXFX",
"u.i.{ { { { { { { { { [ ] ] ] ] [ [ [ [ [ [ { } d.d.j.x.z.c.V.B.P.U.Q.Q.Q.W.W.Q.Q.Q.Q.Q.Q.Q.Q.Q.Q.W.W.7X7XrXtXiXpXdXfXfXfXfXfXkXkXzXzXzXfXfXsXpXdXpXpXiXiXpXpXdXsXsXpXiXiXrX9X9X7X7X7X7X8XrXrXrXrXrXiXiXpXsXgXzXcXNXBXAXAXCXCXDXDXDXCXDXDXDXDXDXAXAXBXNXcXgXhXdX9X8X!.!.0X0X8X9X0X6X6X6X6X6XqXT.C.C.m.b.z.k.h.u.} | U P J s u 9 * * & # $ # $ @ @ = = = * 8 8 8 i f J P P L L L P L L L L L P P J N f i 9 > & @ # @ . @ @ @ . . @ . . . . @ . . @ @ @ @ @ @ @ @ $ @ @ @ @ @ @ @ # @ @ @ @ @ @ @ @ @ @ @ @ @ @ . @ . . . . @ @ $ $ $ $ # # # # # $ # = = # $ @ @ @ @ @ @ . . @ @ . . . . . . . . . . @ @ @ @ $ $ $ $ @ @ @ @ @ . . . . . . . . . . . . . . . . . . @ @ @ @ @ $ $ 5 5 5 5 5 5 6 7 5 5 5 5 5 5 5 5 % % $ $ $ $ $ $ @ @ # # $ $ $ # % % % % % % $ $ % % % % % % % % % % % % & & # @ @ @ @ $ @ @ # # @ @ @ @ @ # % * = = * * ; ; ; 8 * * * * * * * 5 % % % % % % % % $ $ $ $ # $ @ @ @ @ @ . . . . . @ @ @ @ @ @ @ @ @ @ @ @ @ @ # $ = # @ # = = = # = # = = = % % % % % % * * % * 5 5 5 5 7 7 7 7 7 7 7 9 9 9 9 0 0 i s s s s i i i i i a a a u 9 9 9 9 8 7 ; ; * * % % % % % % * * % % * ; ; ; * % # # $ $ = $ # $ % % % % % % % # # # # # @ @ . . . . . . . . . . . . . . . . . . . @ @ @ # # # # % * 6 6 6 6 7 7 6 q q q q q 0 0 q q q q q q q q 0 0 0 0 0 0 0 0 0 0 i i s V V s s i s i i 0 9 9 9 9 8 8 ; * * # % $ $ $ $ $ $ = * 6 8 8 9 9 9 9 i u u u u u i i i s s s s s s s 0 0 0 0 0 0 0 0 0 0 0 0 0 0 0 0 V V N P I ] } h.x.m.U.W.7XrXiXdXfXzXcXcXbXBXBXAXAXAXAXAXCXCXCXCXCXCXSXSXCXDXSXSXSXSXSXSXFXFXSXSXFXFXDXSXFXFXFXFXFXFXFXFXFXFXFXFXFXFXFXFXFXFXFXFXFXFXFXFXFXFXFXFXFXFXFXSXSXFXFXFXSXSXFXFXFXFXSXSXSXSXFXFXFXFXFXFXFXFXFXSXSXFXFXFXFXFXFXFXFXFXFXFXFXFXFXFXFXFXFXFXFXFXFXSXSXFXFXFXFXFXFXFXFXFXFXFXFXFXFXFXFXFXFXFXFXFXFXFXFXFXFXFXGXGXFXFXFXFXGXGXFXFXFXGXFXFXFXFXFXFXFXFXFXFXGXGXGXGXGXGXFXGXFXFXGXFXFXFXFX",
"d.d.i.i.i.{ i.{ { { { { [ [ [ [ { [ [ [ [ { { } d.s.j.z.c.c.V.P.P.R.R.Q.T.W.!.T.R.R.R.R.Q.Q.Q.Q.Q.W.W.!.7X7XrXtXpXdXdXsXaXaXfXfXfXkXzXkXfXfXsXpXpXpXiXiXiXpXpXdXsXdXpXiXiXrX9X9X7X7X8XrXrXrXuXiXpXpXdXdXsXgXcXcXBXVXAXCXDXDXDXDXDXDXDXDXSXSXDXDXAXAXBXNXcXzXsXdX8X7X!.!.7X7X7X7X!.T.T.T.R.R.I.m.b.b.z.h.u.} } | ] L K f i u 8 * # @ $ # # $ @ @ @ = = = 8 8 8 u p J K P L L L L L L L L L L L P P J f p u 8 > & @ . . @ @ . . . . . . . @ @ @ @ @ @ @ @ @ @ @ @ $ @ # # # # # # @ @ @ # = # @ @ = @ @ @ @ @ @ . @ @ @ @ @ @ @ @ $ $ # # # % # # $ # # = $ $ @ @ @ @ @ . . . . @ . . . . . . . . . @ @ @ @ @ @ @ @ @ @ @ @ @ @ . . . . . . . . . . . . . . . . . . @ @ @ @ @ $ $ 5 5 5 5 5 5 5 7 5 5 5 5 5 5 % % % % $ % # # # # @ @ # # # # # # % % % % # # # # % % % % % % % % # % # # # # # # @ @ $ $ $ $ $ $ @ @ $ $ # % % * = * * * ; ; ; 8 * * * * 6 6 6 5 5 % % % % % % % $ $ $ $ $ $ $ @ @ @ @ . . . @ @ @ @ @ @ @ @ @ @ @ @ @ @ @ @ @ @ # @ @ @ = % = # # # # = = % % % % % * * % % % % 5 5 5 6 6 7 7 7 7 9 9 9 9 0 0 0 0 s s a a a a i 0 a i a i 9 9 9 9 9 8 ; ; ; * * % % % * * * * ; ; ; 8 8 8 8 8 8 % % = $ # = # % % % % % = = % # # $ # # @ @ . . . . . . . . . . . . . . . . . . . @ @ @ @ @ $ $ = % 5 5 5 5 6 7 7 7 q 7 7 q q q q q q q q q q q 0 0 0 0 q 0 0 0 0 0 i i i V V V N N s i i 0 9 9 9 8 8 6 * * % % = = $ $ $ $ = = * 6 8 8 9 9 9 9 i i i i u i i i s s s s s s s s s s i 0 0 0 0 0 0 0 0 0 0 0 i i V V V N P I { } h.z.P.T.!.8XuXpXsXfXgXcXcXbXBXBXAXAXAXAXCXCXCXCXCXDXSXSXCXDXSXSXSXSXSXSXFXFXDXDXDXDXSXSXFXFXFXGXFXFXFXFXFXFXFXFXFXFXFXFXFXFXFXFXFXFXFXFXFXFXFXFXFXFXSXSXSXSXFXFXSXFXFXFXFXFXFXSXFXFXFXFXFXFXFXFXFXFXFXSXSXFXFXFXFXFXFXFXFXFXFXFXFXFXFXFXFXFXFXFXFXFXFXFXFXFXFXFXFXFXFXFXGXGXGXGXFXFXGXGXGXGXFXFXFXFXFXFXFXGXFXFXGXGXGXFXFXGXGXGXFXFXGXGXFXFXFXFXFXFXFXFXFXFXFXFXFXFXGXFXGXGXGXFXGXGXFXFXFX",
"d.d.d.d.i.i.i.i.{ { { { { [ { { { [ [ { { { { } d.h.j.z.c.c.B.P.R.R.R.R.W.!.!.W.R.W.R.T.T.R.R.R.Q.W.W.!.7X7XrXtXiXpXdXdXaXaXaXfXfXfXkXkXfXfXsXpXpXpXiXiXiXpXpXdXdXpXpXiXiXrX9X9X7X8XrXrXrXuXiXpXdXdXsXfXgXzXcXNXBXAXCXDXSXSXSXSXGXSXDXGXGXGXSXDXCXAXBXNXcXgXdXuX8X!.T.!.!.!.T.T.R.P.P.I.P.m.M.k.u.u.i.{ [ ] Y U P J f u 9 8 * = @ @ @ $ $ $ @ @ = * = * 8 8 8 i N J P L L L L L L L L L L L L P P J J f i 9 > & @ . . . @ . . . . . . . @ @ @ @ @ @ @ @ @ @ $ @ # # # # # # # # # # # # # @ @ @ @ @ @ @ @ @ @ . @ @ @ @ @ @ @ @ $ $ $ $ # # # # $ $ # = $ $ @ @ @ @ @ . . . . . . . . . . . . . . @ @ @ @ @ @ @ $ @ @ @ @ @ @ . . . . . . . . . . . . . . . . . . . @ @ @ @ $ $ % 5 5 5 5 5 5 5 5 5 5 5 5 $ % $ % $ # % # # # # @ # # # # # # # % % % % # # $ $ % % % % # # # % # # # # # # # # # $ $ $ $ $ $ @ $ $ # # % % % * = * * ; ; ; 8 8 6 * 6 6 6 6 6 5 5 % % % % % % $ $ $ $ $ $ $ $ $ @ @ @ @ . . @ @ @ @ @ @ @ @ @ @ @ @ @ @ @ @ @ @ # @ @ @ # # # # # # # = % % % % % % * * * * % 5 5 5 6 6 6 7 7 7 7 7 9 9 9 9 0 0 0 w w a a 0 0 9 9 9 9 9 9 9 9 9 9 8 8 ; ; * * * % % * * * ; ; ; 7 7 8 8 9 9 8 8 ; * = % % % % % % % % $ = # # # $ $ @ @ @ @ . . . . . . . . . . . . . . . . . . @ @ @ @ @ @ $ $ $ = $ $ % 5 6 7 6 7 q q q 7 q q q q q q q q q q 0 0 0 0 0 0 0 0 0 0 i i i s V V N N s i i 9 9 9 9 8 6 * * % % % = % % % = $ = = % * 8 8 9 u u u i i i i i i s s s s s s s s B B s s s i i 0 0 0 0 0 0 0 i i i V V V V N N L ] { d.x.V.U.Q.!.rXuXdXfXgXzXcXbXBXBXBXAXAXAXAXCXCXCXCXDXSXSXZXSXSXSXSXDXSXSXSXSXDXDXDXDXDXDXSXFXFXFXFXFXFXFXFXFXFXFXFXFXFXFXFXFXFXFXFXFXGXGXGXGXFXFXFXFXSXSXSXSXFXFXFXFXFXFXFXFXFXFXFXFXFXFXFXFXFXFXFXFXFXFXFXFXFXFXGXFXFXFXFXGXFXFXFXFXFXFXFXFXFXFXFXFXFXFXFXFXFXFXFXFXFXGXGXGXGXGXGXGXGXGXGXGXFXFXGXGXGXGXGXGXGXGXGXGXGXFXFXGXGXGXFXFXGXGXGXGXFXFXFXFXFXFXFXFXFXFXGXFXFXFXGXGXGXGXGXGXGXFXFX",
"d.d.d.d.d.d.i.i.i.i.i.{ { { { { { [ [ { { { } } d.h.j.z.c.V.B.P.Q.R.W.W.W.!.!.W.!.!.!.!.W.T.R.R.Q.W.W.!.!.7X9XrXtXiXpXdXdXdXaXfXfXfXkXkXfXfXsXdXpXpXiXiXiXpXdXdXpXpXpXiXuXrXrXrX9XrXrXuXuXiXpXpXdXsXgXgXcXcXNXBXAXCXDXDXGXGXGXGXGXGXGXGXGXGXGXDXAXAXBXNXcXgXdXuX8X!.T.T.!.T.R.R.K.M.M.M.c.k.h.i.[ [ Y U U L P P f i 9 > * = # $ @ $ $ $ $ $ = = * * * > 8 8 9 p J P L P P L L L L L L P P P P P P P J f u 9 > & @ . . . . . . . . . . . @ @ @ @ @ @ @ @ @ @ @ $ @ @ @ $ $ $ @ @ = = @ @ @ @ @ @ @ @ . . @ @ @ . @ @ @ @ @ @ @ @ @ @ @ @ @ $ $ # $ $ # = # $ @ @ @ @ @ . . . . . . . . . . . . . . @ @ @ @ @ @ @ @ $ @ @ @ @ @ @ . . . . . . . . . . . . . . . . . . @ @ @ $ $ $ % 5 5 5 5 5 5 5 5 5 5 5 $ $ % % % $ $ # # # # # # # # # # # % * % % # # # $ $ $ # # # # # # % % % % # # # # # # # $ $ $ $ $ $ @ $ $ # % % % % = * * ; ; 8 8 8 8 8 8 8 8 6 * * 5 % % % % % % $ $ % $ $ $ @ @ $ $ $ @ @ @ . . @ @ @ @ @ @ @ @ @ @ @ @ @ @ @ @ @ @ @ @ @ @ $ $ $ @ # # # # = = % % % * 5 5 * * * 5 % 5 5 6 6 7 7 7 7 7 9 7 9 9 9 0 0 w w w w w w 9 w 9 9 9 9 9 9 9 ; ; ; ; * * % % % * * * ; ; > > 8 8 9 9 9 9 9 9 8 8 * * = = = = % = $ $ $ $ # # @ $ @ @ @ @ . . . . . . . . . . . . . . . . . @ @ @ @ @ @ $ $ $ $ $ $ $ $ 5 6 7 7 q q q 7 7 q q q q q q q q q q 0 0 0 0 0 0 0 0 0 0 0 i i i i i N N i i i 0 9 8 8 8 * * % % % % # % % % % % = = = * 8 8 9 u i i i i i i i s s s s f s s s f f f f s s s i i i i 0 0 0 i i i V V i V V N N P I ] } h.n.B.U.W.7XrXpXsXgXzXcXcXbXBXBXBXBXAXAXCXCXCXCXCXSXSXDXSXSXSXSXSXSXSXFXFXDXDXDXDXDXDXSXFXFXFXSXSXFXFXFXFXFXFXFXFXFXFXFXFXFXFXFXGXGXGXFXFXFXFXFXFXFXFXFXFXFXFXFXFXFXFXFXFXFXFXFXFXFXFXFXFXFXFXFXFXFXFXFXFXGXGXFXFXFXFXFXFXFXFXFXFXFXFXFXFXFXFXGXFXFXFXFXFXGXGXFXFXGXFXFXGXGXGXGXGXGXFXFXFXFXFXGXGXGXGXGXGXGXGXFXFXFXFXGXGXGXFXFXGXGXGXGXGXGXFXGXGXGXGXFXGXFXFXGXGXGXFXFXGXGXGXGXGXGXGXFX",
"d.d.d.d.d.d.i.i.i.i.i.{ { { { { { { [ { { { } } d.h.x.z.c.V.B.P.Q.W.W.W.!.!.!.!.!.!.!.!.W.R.R.R.Q.Q.R.W.!.7X7XrXtXtXiXpXdXdXaXaXfXfXkXkXfXfXsXpXpXiXiXiXpXpXpXdXpXpXpXiXuXrXrXrXrXuXiXpXpXpXdXdXgXgXgXcXcXBXBXAXCXCXDXSXGXGXGXGXGXGXGXGXGXGXGXDXAXAXBXNXcXgXdXuX8X6XT.T.R.R.P.B.M.z.l.k.h.u.[ ] Y U L P P K G f u 9 > & # # $ $ # # $ $ @ # = = = * = > 8 8 u p J P P P P L L L L L P P P P P P P P K f i 9 > * @ @ . . . . . . . . . . . @ @ . @ @ @ @ @ @ @ $ @ @ @ @ @ $ $ $ = = $ @ @ @ @ = @ @ . . @ @ @ . @ @ @ @ @ @ @ @ @ @ @ @ @ @ $ $ $ $ # # # $ @ @ @ @ @ @ . . . . . . . . . . . . . @ @ @ @ @ @ @ @ $ @ @ @ @ @ @ . . . . . . . . . . . . . . . . . . @ @ @ $ $ $ % % 5 5 5 5 5 5 5 5 5 5 $ $ % % % # # # # # # # # # # # # # # * # # # # # $ $ $ # # # # # # # # % % # # # # & # # @ @ @ # # # $ $ # # # % % % = * * ; 8 ; 8 8 7 8 8 8 8 6 6 * * % % % % % % % % $ $ $ $ $ $ $ $ $ @ @ @ . . @ @ @ @ @ @ @ @ @ @ @ @ @ @ @ @ @ @ @ @ @ @ @ $ @ @ $ $ $ $ $ $ $ % % * 5 5 * * 5 5 $ 5 5 6 6 7 7 7 7 7 9 9 7 9 9 9 9 9 9 9 w w w 9 9 9 9 9 9 9 1 ; ; ; ; ; * # # # # % * * > > 8 8 8 9 9 9 9 9 9 9 9 9 8 8 * * = = % = $ $ $ $ # # # $ @ @ @ @ . . . . . . . . . . . . . . . . . @ . @ @ @ @ @ @ $ @ $ $ $ $ 5 6 7 7 q q q 7 7 q q q q q q q q q q 0 0 0 0 0 0 0 0 i 0 i i i i i i i s i i i i 9 8 8 6 * = % % % % # # = = * % = = = * 8 8 9 u i i i i i i s s s s f f f f f B f f f f s s s s s s i 0 0 i 0 i V V V V V N N P I ] } d.z.V.P.T.6X8XiXpXfXgXzXcXcXbXBXBXBXAXAXCXCXCXCXCXSXSXDXSXSXSXSXSXSXSXFXFXDXDXSXFXSXFXFXFXFXGXSXSXSXFXFXFXFXFXFXFXFXFXFXFXFXFXGXGXGXGXGXGXFXFXFXFXFXFXFXFXFXGXFXFXGXFXFXFXFXFXFXFXFXFXFXGXFXFXFXFXFXFXFXFXGXGXFXFXFXFXFXFXFXFXGXGXGXGXFXFXFXGXGXGXFXFXFXFXGXGXFXFXGXGXFXFXFXFXGXGXFXFXFXFXFXFXGXGXGXGXGXGXGXGXFXFXFXFXGXGXGXFXFXGXGXGXGXGXGXGXGXGXGXGXGXGXFXFXGXGXGXGXGXGXGXGXGXGXGXGXGX",
"d.d.d.d.d.d.d.d.u.i.i.{ { { { { { { { { { } } d.d.h.x.c.n.V.P.U.Q.W.!.!.!.7X7X!.7X7X!.!.W.T.R.R.W.W.W.W.!.7X7X9XrXtXyXiXpXdXdXaXsXkXkXfXfXsXsXpXpXpXpXiXpXpXdXdXpXpXpXiXtXrXtXtXuXiXpXdXdXdXfXfXgXgXcXNXBXBXAXCXDXDXSXGXGXGXGXGXGXGXGXGXGXGXDXDXCXAXBXNXcXgXdXwX8X!.R.R.R.P.M.c.k.h.u.u.[ ] U L L P J J J G f i 9 * = # # # # $ @ $ $ $ @ # = = = * > > 8 8 u f J P L P P L L L L L L P P P P P P P K f i 9 > * & @ . . . . . @ . . . @ @ @ . . @ @ @ @ @ @ $ $ $ @ @ @ @ @ $ $ @ = = $ @ @ @ @ @ @ @ @ @ @ . . . . . @ @ @ @ @ # # @ @ $ $ $ # $ $ # # # $ @ @ $ @ @ @ . . . . @ @ . . . . . . . . @ @ @ @ @ $ @ $ # @ @ . @ @ @ . . . . . . . . . . . . . . . . . @ @ @ $ $ $ % % 5 5 5 5 5 5 5 5 5 $ $ $ $ $ % % # $ # # # @ # # # # # @ # # # # # # # # # # # # # # # # # # # # # # # # # # # @ @ @ # % # $ $ $ # # # % % = * * > 8 ; 8 8 8 8 8 8 8 6 6 * 6 5 5 5 % % % % % $ $ $ $ $ $ $ $ $ @ @ @ . . @ @ @ @ @ @ @ @ @ @ @ @ @ @ @ @ @ @ @ @ @ @ @ @ @ @ $ @ @ @ $ $ % % % * 5 5 * * * 5 5 5 5 6 6 7 7 7 7 7 7 7 9 9 9 9 9 9 9 9 9 w 9 9 9 9 9 9 1 1 1 ; ; % ; * % # # # & & * ; > 9 9 9 9 9 9 9 9 9 9 9 9 9 9 8 8 * * * * % % # $ $ # # # # @ @ @ @ . . . . . . . . . . . . . . . . @ @ @ @ @ @ @ @ $ $ $ $ $ % % % 5 6 7 6 q q 7 7 q q q q q q q q q q 0 0 0 0 0 0 i V i i i i i i i i i i i i i 0 9 6 6 6 * = % % % % = = = = % * * * = 6 6 6 8 9 i i i i i s s s s s f f f f f B f f f B B N N V V V i i i i i i V V i V V N N N P I ] } j.z.m.U.W.7XrXuXdXgXgXcXcXcXBXBXBXBXAXCXCXCXCXCXSXSXDXSXSXSXSXSXSXSXFXFXDXDXFXSXSXSXGXGXGXGXSXSXSXGXGXGXGXGXGXGXGXGXGXGXGXGXGXGXGXGXGXGXGXGXGXFXFXFXFXGXGXGXFXFXGXGXFXFXFXFXFXGXGXGXGXGXGXGXFXFXGXFXGXGXGXGXFXFXGXFXGXGXFXFXFXFXGXGXFXFXFXFXGXFXGXFXGXGXGXGXFXGXGXGXFXFXFXGXFXGXGXGXFXFXGXGXGXGXFXFXGXFXGXGXGXGXGXGXGXGXGXGXGXGXGXGXGXGXGXGXGXGXGXGXGXGXGXGXGXGXGXGXGXGXGXGXGXGXGXGXGX",
"d.d.d.d.d.d.d.d.d.d.u.i.i.i.{ { { { { { } } } d.d.h.x.c.V.B.P.U.Q.W.!.!.7X8X8X8X8X8X7X!.!.W.W.W.W.W.W.W.6X7X9XrXrXtXtXiXiXpXaXaXsXfXkXfXfXsXdXpXpXpXpXpXpXpXdXdXdXpXpXiXtXrXtXuXiXpXdXsXfXgXgXgXgXgXcXNXBXAXAXCXSXSXGXGXGXGXGXGXGXGXGXGXGXGXDXDXCXAXBXNXcXgXdXwX7XT.I.P.P.m.c.k.u.} [ | U P J J J G f f f p u u > * # @ # # $ $ @ @ $ $ # $ = = = * > > 8 > u s J P L L L L L L L L L P P P P P P K K f u 9 > & # @ . . @ . . @ . @ @ @ @ @ . . @ @ @ @ @ $ # # $ @ # # @ @ $ $ @ = = = @ @ @ @ @ @ @ @ @ @ @ @ . . . @ @ @ @ @ # # # @ $ $ # % $ $ # # # $ $ @ $ @ @ @ . . . . @ @ @ . . . . . . . . @ @ @ @ $ @ $ # @ @ . @ @ @ @ . . . . . . . . . . . . . . . . . @ @ $ $ $ % % % % % % % 5 5 5 % $ $ $ $ % % % # $ # # @ @ # # # # # # @ @ # # # # # # # # # # # # # # # # $ $ $ $ @ # # # % # @ $ # % $ @ $ $ $ $ # # # = * * > > 8 8 8 8 8 8 8 8 8 8 8 8 5 5 5 5 5 % % % $ $ $ $ $ $ @ @ $ $ @ @ @ @ @ @ @ @ @ @ @ @ @ @ @ @ @ @ @ @ @ @ @ @ @ @ @ @ @ @ @ @ @ @ $ = % % % % * * * * * 5 6 5 5 5 6 7 7 7 7 7 7 7 7 7 9 9 9 9 9 9 9 9 9 9 9 9 9 8 ; 8 8 ; % % * % # # # # # & * > 8 9 9 9 9 9 9 9 9 9 9 9 9 9 9 9 9 8 > * * * % = # # # # # # @ @ @ . @ @ . . . . . . . . . . . . . . @ @ @ @ @ @ @ # # # $ = % % % % 5 5 6 6 7 q 7 7 q q q q q q q q q q 0 0 0 0 0 0 V V V i i i i i i i i s s i i 0 9 6 8 * * * = % % % = = = = * * * * * * * * 8 9 9 9 i i s s s f f f f f f f B N f f B B B N N N N B s s i i V V N N i i N V N N J P ] } d.x.n.I.T.W.8XrXpXfXgXcXcXcXBXBXBXBXAXCXCXCXCXCXSXSXDXSXSXSXSXSXSXSXFXFXDXDXSXSXDXDXDXDXSXSXSXSXGXGXGXGXGXGXGXGXGXGXGXGXGXGXGXGXGXGXGXGXGXGXGXGXFXFXFXGXGXGXFXFXGXGXFXFXFXFXFXGXGXGXGXGXGXGXFXFXGXGXGXGXFXGXGXGXGXGXGXGXGXGXFXFXGXGXFXFXFXFXFXFXFXFXFXGXGXGXGXGXGXGXFXFXFXGXFXGXGXGXGXGXGXGXGXGXFXFXFXFXFXFXGXGXGXGXGXGXGXGXGXGXGXGXGXGXGXGXGXGXGXGXGXGXGXGXGXGXGXGXGXGXGXGXGXGXGXGXGX",
"d.d.s.s.s.d.d.d.d.d.u.u.u.u.i.i.{ { { { { } u.u.d.j.c.c.c.B.U.R.R.T.!.7X8X8X8X7X8X8X8X7X!.!.!.W.W.W.W.W.!.7X8XrXrXtXiXiXiXaXaXaXsXsXfXfXsXsXpXpXdXpXpXpXpXpXpXsXdXpXpXiXiXtXuXiXpXdXfXgXgXgXgXzXcXcXBXBXAXAXCXDXSXSXGXGXKXKXKXGXKXGXGXGXGXGXDXDXAXAXBXcXgXfXdXwX8XR.m.n.M.n.k.h.{ ] ~ L P J f f f f f p u u 9 8 = & & # @ $ @ @ @ @ @ @ @ $ $ $ * > > > 8 8 9 i J K P P L L U L U U L P P P P J J P K f u > * & # # @ . . . @ @ @ @ @ @ @ @ @ @ @ @ @ @ @ @ @ @ # # @ @ @ @ @ @ # # @ @ # # # = # @ @ . . . . . . . . . . . @ @ @ @ @ # # @ @ @ @ @ # # # # @ @ @ @ . @ @ @ . . @ @ @ @ . . . . . . . . @ @ @ $ @ @ @ $ @ @ @ @ @ @ . . . . . . . . . . . . . . . . . @ # % % % % % % * * % % % * % % $ @ @ @ # @ @ @ # & @ @ # # # # # # $ # # % # # # # # $ $ @ @ # # # @ @ @ # # # # # % # % # $ @ @ # # $ @ @ @ # % % = = = * * * 8 8 8 8 8 8 8 7 7 8 8 6 * 6 5 6 % % % 5 5 % % % $ $ $ $ $ @ @ @ @ @ . . . . @ @ @ @ @ @ @ @ @ @ @ @ @ @ @ . . @ @ $ @ @ @ @ @ @ # # # % % % % 5 5 5 5 5 5 5 5 5 5 7 7 7 7 7 7 7 7 7 7 7 7 8 9 9 9 9 9 9 9 9 9 9 8 8 8 8 * * # % # @ @ # @ & & * > > 9 9 9 9 9 9 9 9 9 9 9 a u 9 9 9 > > ; ; * * * % # $ $ $ @ @ @ . . . . @ . . . . . . . . . . . . . @ @ @ @ @ @ @ @ $ $ = = $ $ $ $ $ 5 5 5 6 7 q q q 7 q q q q q q q q 0 0 0 0 V V V i s V V s i i s N i p p i i 9 9 6 * * * * * % % * = = * * * 6 6 6 6 * 6 8 8 8 9 0 i s f f f f f f f f f N f f B B B N N N B B B B s i i i V V N N N N N N N N N P I ] } h.x.n.B.Q.!.8XuXpXgXzXcXcXcXBXBXAXAXCXCXZXZXZXZXDXSXSXSXDXDXDXDXDXDXDXDXDXDXDXDXFXFXFXFXFXFXFXFXFXFXFXFXFXGXGXFXFXFXGXGXGXFXFXGXGXGXFXFXFXFXGXGXGXFXFXFXGXGXGXGXGXGXGXFXFXGXGXGXGXGXGXGXGXGXGXGXGXGXGXGXGXGXGXGXGXGXGXGXGXGXGXGXGXGXGXGXGXGXGXGXGXGXGXGXGXGXGXGXGXGXGXGXGXFXGXGXGXFXFXFXGXGXGXGXFXFXFXGXGXGXGXFXFXGXGXGXGXGXGXGXGXGXGXFXGXGXGXGXGXGXGXGXGXGXGXGXGXFXFXFXGXGXGXFXFXGX",
"d.d.d.s.s.s.d.d.d.d.u.u.u.u.u.i.{ { { { { } u.u.h.j.c.c.M.P.R.R.R.E.!.8X8X8X8X8X8X8X8X8X7X!.!.!.!.W.W.W.7X7X8XrXtXiXiXiXpXaXsXaXsXsXfXfXsXsXpXpXdXpXpXpXpXpXpXsXdXdXpXpXiXtXuXiXdXfXgXgXgXzXcXcXcXbXBXBXAXCXDXDXHXGXGXGXKXKXKXKXKXHXGXGXGXHXDXDXAXAXBXNXgXfXuXwX!.R.B.M.c.k.u.} ] L P J G f p i s s s u u 9 8 * = # # # @ @ @ @ @ $ $ $ $ $ = = * * 8 8 8 9 u i f J K P L L L L U U L P P P P J J K J f u > & & # # @ @ . @ @ @ @ @ @ @ @ @ @ @ @ @ @ @ @ @ @ @ @ @ @ @ @ # # = # # $ $ @ $ @ @ @ @ @ @ @ @ . . @ . . . . @ @ @ @ @ @ @ # # # # @ # # # # # $ @ @ . . . @ @ @ . @ @ . . . . . . . . . . @ @ @ @ @ @ @ $ @ @ @ @ @ @ . . . . . . . . . . . . . . . . . @ $ # % % # % % % % % % % % % # $ @ @ @ @ @ @ @ # & @ # # # # # # # $ # # # # # # # $ $ @ . . @ # # $ @ @ # # # # $ # # % # # @ # # # $ @ @ $ # % = = * * * * 6 8 8 8 8 8 8 8 7 8 8 8 6 * * 5 6 % % % 5 % % % $ $ $ $ $ @ @ @ @ @ . . . . @ @ @ @ @ @ @ @ @ @ @ @ . @ @ . . . @ @ @ @ @ @ @ @ $ $ # # = % % % % % 5 5 5 5 5 5 5 5 6 6 7 7 7 7 7 7 7 7 7 7 8 9 9 9 9 9 9 9 7 9 8 8 8 8 6 * * % # # @ $ # @ & & > > > 9 9 9 9 9 9 u u u u u a u 9 9 9 9 9 > > ; * % % # $ = $ $ @ @ . . . . @ . . . . . . . . . . . . . . @ @ @ @ @ @ $ $ = $ $ $ $ $ $ = $ 5 5 6 7 7 7 q q q q q q q q q q q 0 q 0 V V V 0 s V s i i i s s i i i i i u 9 8 6 * * * * * % * % % % * * * 6 6 8 8 8 8 8 8 8 9 i i s f f f f f f f f N N N B B B N B N N B N B N N N i N V N N N N N N N N J P L ] { d.j.c.V.P.W.8XrXuXsXgXgXcXcXbXBXBXAXAXAXCXZXZXZXSXSXSXSXDXDXDXDXDXDXDXDXDXDXDXDXSXFXFXSXSXFXFXFXFXFXFXFXFXFXFXFXFXFXGXFXGXFXFXFXGXFXFXFXFXFXGXGXGXFXFXFXGXGXGXGXGXGXGXGXFXGXGXGXGXGXGXGXGXGXGXGXGXGXGXGXGXGXGXGXGXGXGXGXGXGXGXGXGXGXGXGXGXGXGXGXGXGXGXGXGXGXGXGXGXGXGXGXGXGXGXGXGXFXFXGXGXGXGXGXGXFXFXGXGXGXGXFXFXGXGXGXGXGXGXGXGXGXGXFXFXGXGXGXGXGXGXGXGXGXGXGXGXFXFXFXGXFXFXGXGXFX",
"d.d.s.s.g.g.s.g.d.d.d.d.d.u.u.u.u.} { { { } u.u.h.j.z.c.V.P.R.R.E.!.!.8X8XwX9X9X9X9X8X8X8X8X7X7X!.!.!.7X7X8XrXrXtXiXpXiXpXaXsXaXsXsXfXsXsXsXpXpXdXpXpXpXpXpXpXpXpXpXpXpXiXiXiXiXfXfXgXgXzXcXcXcXbXBXBXAXAXCXDXSXGXGXGXKXKXKXKXKXKXKXGXGXGXHXDXDXAXAXBXNXzXgXdXwX!.R.m.c.k.p.{ ] L K f f f i p u u u u u 9 8 * = # $ @ @ @ # @ @ @ @ @ $ @ $ # = = * 8 8 8 9 9 i f N J P L L L L L L L P P P P J J J f i 9 > & # # # . . . @ @ . . . @ . @ @ @ @ @ @ @ @ @ $ @ @ @ @ @ # # = = = # # # # # $ @ @ @ @ @ # # @ . . @ @ . . . @ @ @ @ @ @ @ $ $ # # @ # # # # # $ $ @ . . . @ @ @ . . . . . . . . . . . . . @ @ @ @ @ @ @ $ @ @ @ @ @ @ @ . . . . . . . . . . . . . . . . @ @ $ # # % % % % % % $ $ # # # $ $ $ @ @ @ @ . @ # @ # # # # # # # # # # # # # # # # @ @ . @ # # # # # # # # # # $ $ $ $ # # # # # $ $ $ $ # = = = * * * * * 8 8 8 8 8 8 8 8 8 8 8 6 6 6 6 5 5 5 % $ % % % $ $ $ $ @ @ @ @ @ @ @ @ . @ @ @ @ @ @ @ @ @ @ @ @ @ . @ @ @ . . . @ @ @ @ @ @ @ @ @ $ @ $ # = % % % 5 5 6 6 6 5 5 5 6 6 6 7 7 7 7 7 7 7 7 7 7 7 9 9 9 8 8 8 8 ; 8 8 8 ; 8 * = * # # # @ $ # @ # & * * > > 9 9 9 9 u i u a i i a a a u 9 9 9 8 8 ; * % # # = = $ $ @ @ . . . . . . . . . . . . . . . . . . . @ @ @ @ $ $ $ $ = @ = $ = $ $ $ $ 5 5 6 6 7 7 7 q q q q q q q q q q q 0 0 0 V V V V i i i i i i i i p p i i i 9 8 6 * * * * * = = * * * * * * 6 6 8 8 8 8 8 8 9 9 u i i s f f f f f N N N N B B B N N N N N K K N N N N N N N N N N N N N N N P P L I ] } d.x.c.n.U.!.7XrXdXfXgXzXcXcXBXBXBXAXAXAXZXZXZXSXSXSXSXSXDXDXDXDXDXDXDXDXDXDXDXSXDXDXSXDXFXFXSXFXFXFXFXFXFXFXFXFXFXFXFXFXFXFXFXFXFXFXFXFXFXFXGXGXFXHXFXGXGXGXGXGXGXGXFXFXGXGXGXGXGXGXGXGXGXGXGXGXGXGXGXGXGXGXGXGXGXGXGXGXGXGXGXGXGXGXGXGXGXGXGXGXGXGXGXGXGXGXGXGXGXGXGXGXGXGXFXGXGXGXGXGXGXGXGXGXFXFXGXGXGXFXFXFXGXGXGXGXFXGXFXFXGXFXFXFXGXGXGXGXGXGXGXGXGXGXGXGXFXFXGXGXGXGXGXFXFX",
"g.g.s.g.g.g.g.s.d.d.d.d.d.d.d.u.u.} } } { } u.u.h.j.c.c.P.P.R.R.!.!.8X8X8XwXuXwXuXwXwX9X8X8X8X7X7X7X7X7X8XrXrXrXtXiXpXiXpXaXsXaXsXsXfXsXsXsXpXpXdXpXpXpXpXpXpXpXpXpXpXpXpXpXpXdXfXfXgXzXcXcXNXBXBXBXAXAXCXDXSXGXGXGXKXKXKXKXKXKXKXKXKXGXGXHXDXDXAXAXBXNXgXgXdXwX!.R.c.h.p.| ] L J f p u u u u u u u 9 9 9 > * = = $ @ $ # # @ @ $ $ @ $ $ $ # # = = * 8 8 8 9 u p f J J P L L L P L L P P P P J J f s u 1 > & # # . . . . @ @ . . . . @ @ @ @ @ @ @ @ @ @ $ @ @ @ # # # # # @ @ @ @ # # # $ @ @ . @ @ # # @ @ . @ @ . . . . @ @ @ @ @ @ @ $ # # $ $ $ @ @ $ $ $ @ @ @ @ @ @ @ . . . . . . . . . . . . @ @ @ @ @ @ @ @ @ @ @ @ @ @ @ @ . . . . . . . . . . . . . . . . @ @ $ $ # % % % % % % $ $ # # # # # $ @ @ @ @ . @ # @ # # # # # # # # # # # # # # # # # @ # # # # # # # # # # # # $ $ $ $ # # # # $ $ # # # # # = = = = * * 8 8 8 8 8 8 8 8 8 8 8 6 6 6 6 6 6 5 5 $ $ % % % $ $ $ $ $ @ @ @ @ @ @ @ @ @ @ @ @ @ @ @ @ @ @ @ $ @ @ @ @ @ . . @ @ @ @ @ @ @ @ @ $ $ $ $ # $ % % % * 5 6 6 6 5 5 6 7 6 6 7 7 7 7 7 7 7 7 7 7 7 7 7 7 8 8 ; ; ; ; * * * * * % * $ $ # @ $ # @ # & * * > 9 9 9 9 9 u u i a i i s a a a a 9 9 9 8 ; ; * % % # # $ $ @ @ . . . . . . . . . . . . @ @ @ . . @ @ @ @ @ @ @ @ $ $ = @ = $ = = = $ $ 5 5 5 5 6 7 7 q q q q q q q q q q q 0 0 0 V V V V i i i i i i i s s s i i i 9 9 8 * = * 6 * * = * * * * * 6 6 6 8 8 8 9 8 8 9 9 9 u i s s f f N N N N N B B B N N N N N K P P K N N N N N N N N N N N N N N P P L L Y [ } s.x.c.B.Q.!.8XuXdXfXzXcXcXBXBXBXAXAXAXCXZXZXZXSXSXSXSXDXDXDXDXDXDXDXDXDXDXDXSXDXDXDXDXSXSXSXDXFXFXFXFXDXDXDXFXFXFXFXFXDXDXFXFXFXFXFXFXHXFXGXFXFXHXFXGXGXGXGXGXGXGXFXFXGXGXGXGXGXGXGXGXGXGXGXGXGXGXGXGXGXGXGXGXGXGXGXGXGXGXGXGXGXGXGXGXGXGXGXGXGXGXGXGXGXGXGXGXGXGXGXGXGXGXFXFXGXGXFXGXGXGXGXGXFXFXGXGXGXGXFXFXFXGXGXGXFXFXFXFXGXFXFXFXGXGXFXFXFXFXGXGXFXFXGXGXGXFXGXGXFXFXFXFXFX",
"g.g.g.f.f.g.g.s.d.d.d.d.d.d.d.d.d.u.i.{ { } u.d.h.k.c.c.V.P.U.R.!.!.8X8X9XrXuXuXuXuXuX9X9X9X8X8X7X7X7XrXrXrXtXtXtXiXpXiXpXaXaXaXsXsXsXsXsXdXdXdXpXpXpXpXpXpXpXpXpXpXdXdXdXaXfXfXfXgXzXcXcXcXBXBXBXAXAXCXDXSXGXGXGXGXKXKXKXKXKXKXKXKXKXGXGXGXDXDXCXAXBXNXzXgXuXwX!.P.c.p.} ] L J f u 9 9 9 u u 9 < 9 1 > > * * = # # $ $ # % $ @ # # $ $ # # = = = = * 6 8 8 8 9 i p f N J P L L P P P P P P J J N f u 9 * * & # . . . . . @ . . . . . @ @ @ @ @ @ @ @ @ @ # @ @ # # # # # @ @ @ @ @ @ @ @ @ @ @ @ @ @ @ @ @ @ @ @ . . . . . @ @ . @ @ @ @ $ @ @ @ @ @ @ @ @ $ $ @ @ @ @ @ @ @ . . . . . . . . . . . @ @ @ @ @ @ @ @ @ @ @ @ @ @ @ @ . . . . . . . . . . . . . . . . . @ @ $ # # % % % % % # # # $ $ # # # $ @ @ @ . . @ # # # # # # # # # # # # # # # # # # # # # # # # # # # # # # # # $ $ $ $ # # % # $ $ $ # # $ @ @ # = = * * 8 8 8 8 8 8 ; 8 8 8 6 * * * * 6 6 5 5 5 5 % % % % $ $ $ $ $ $ @ @ @ @ @ @ @ @ @ @ @ @ @ @ @ @ @ @ @ . @ @ . . @ @ @ @ @ @ @ @ @ @ # # # # $ % % % % % 5 5 5 6 5 5 7 q 7 7 7 7 6 6 7 6 5 5 5 5 ; ; ; ; 7 ; 7 * % * * = * * = # # $ $ # @ @ # @ # & * * > 9 9 9 9 9 u i i i i i i s a s a 0 9 9 8 ; ; * * # $ $ $ $ @ @ @ . @ . . . . . @ @ @ @ @ @ @ @ @ . . @ @ @ @ $ $ $ = = $ = % * = = = % $ 5 5 5 5 6 7 7 7 q q q q q q q q q 0 0 0 V V V V V i i s s s i s s s i i i 9 9 8 6 = * * * * * * * * * 6 6 8 8 8 8 8 9 9 9 9 9 9 u i i s f N N N N N N N N N N N K J J K P P K K J N N N N N J N N N N J P P P L L Y ] [ } j.z.n.U.W.7XuXpXfXgXcXcXBXBXBXAXAXCXCXZXZXZXSXSXSXSXDXDXDXDXDXDXDXDXDXDXDXDXDXDXDXFXDXDXDXDXFXFXSXSXSXDXSXSXSXSXFXFXDXDXFXFXFXGXGXFXHXFXGXFXFXFXGXGXGXGXGXGXGXGXGXFXGXGXGXGXGXGXGXGXGXGXGXGXGXGXGXGXGXGXGXGXGXGXGXGXGXGXGXGXGXGXGXGXGXGXGXGXGXGXGXGXGXGXGXGXGXGXGXGXGXGXGXGXGXGXFXFXFXFXFXFXGXGXFXFXFXGXGXGXGXFXFXFXGXGXGXFXFXFXFXFXGXFXFXFXFXFXFXGXFXFXFXFXGXGXGXGXFXFXFXFXFX",
"g.g.g.g.g.g.s.s.s.s.d.d.d.d.d.d.d.d.u.i.} u.d.d.h.k.c.c.M.P.U.R.!.!.8X8X9XrXuXuXuXuXuXuXrXrX9XrX8XrXrXrXrXrXtXtXtXiXpXpXpXdXaXaXsXsXsXsXsXpXpXpXpXpXpXpXpXpXpXpXpXdXaXdXsXfXfXfXgXgXcXcXcXcXBXBXAXAXAXCXDXSXGXGXGXGXKXKXKXKXKXKXKXKXKXKXGXGXDXDXCXAXBXNXgXgXuXwXE.P.l.} | _ K f u u > 1 9 9 9 9 9 > > > ; * * % % % # # # % $ $ # # $ $ $ # = = = = * 6 8 8 8 8 u i p f J J P P P P P J J J J f s u 9 * = & # # . . . . . . . . . . @ @ . @ @ @ @ @ @ @ @ # @ @ @ @ @ @ @ @ @ @ @ @ @ @ @ @ @ @ @ @ @ @ @ @ @ @ . . . . . . @ @ @ @ @ @ @ $ @ @ @ @ @ @ @ @ @ @ @ @ @ @ @ @ @ @ @ @ . @ @ @ . . . . @ @ @ @ @ @ @ @ @ @ @ @ @ @ @ @ . . . . . . . . . . . . . . . . . @ @ # # # # # # # # # # # $ $ $ $ @ @ @ . @ . . @ # # @ # # # # # # # # # # # # # # # # # # # # # @ @ @ @ # # # # $ $ $ $ # # # $ $ # # # # $ @ @ $ # = = * * 8 8 8 8 ; ; 8 8 8 6 * * * * * * 5 5 5 5 % % % % % $ = = $ $ @ @ @ @ @ @ @ @ @ @ @ @ @ @ @ @ . @ @ . . @ @ @ @ @ @ @ @ @ @ @ @ @ # = = = $ % % % % 5 5 5 7 6 5 5 6 7 7 7 7 7 6 6 7 7 5 5 5 7 * * * * * ; * * % % = = % = = # $ $ % % @ @ $ @ # = * * > 9 9 9 9 9 u i i i i i i i i s a 9 9 9 8 8 ; ; * % $ @ $ $ @ @ @ @ @ @ @ @ @ @ @ @ @ . . . . . . . . . @ @ $ = = = = % = = % * $ $ * 6 $ 5 5 5 5 6 7 7 7 7 q q q q q q q q 0 0 0 V V V V V s V s s N s i s s i i i i 0 9 8 * * * * * * * * * * * 6 8 8 8 9 9 9 9 9 9 9 9 u u i s f N N J J N N N B K K K K P K K P P P P P P P K K P P J N J J P P L L L I Y ] ] { d.x.z.B.Q.!.rXiXdXgXcXcXcXBXBXAXAXCXCXCXZXDXSXSXSXSXDXDXDXDXDXDXDXDXDXDXDXDXDXDXFXFXFXDXSXSXFXFXDXDXDXDXDXDXSXSXDXDXDXDXFXFXFXFXFXFXFXFXFXFXFXFXFXGXGXGXGXGXGXGXGXGXGXGXGXGXGXGXGXGXGXGXGXGXGXGXGXGXGXGXGXGXGXGXGXGXGXGXGXGXGXGXGXGXGXGXGXGXGXGXGXGXGXGXGXGXGXGXGXGXFXGXGXGXGXGXFXFXFXFXFXFXGXGXFXFXFXGXGXGXGXGXFXFXGXGXGXFXFXFXFXFXFXFXFXFXFXFXGXGXFXFXGXFXGXGXGXGXGXGXGXFXFX",
"s.g.g.f.f.g.g.g.g.s.s.s.s.s.d.d.d.d.u.u.u.d.d.d.h.k.c.n.V.P.U.R.!.!.7X8X8XrXuXuXuXiXuXuXuXuXrXrXrXrXrXrXrXtXtXiXiXiXpXpXpXaXaXaXsXsXfXsXsXpXpXpXpXpXpXpXpXdXsXsXsXsXsXsXfXfXfXgXgXzXcXcXcXBXBXBXAXAXCXDXDXSXGXGXGXGXKXKXKXKXKXKXKXKXKXGXGXGXDXDXCXAXBXNXgXhXuXwXR.K.v.} ] K f u u 1 > > 8 8 8 > 1 1 > ; ; * % # % % % % $ $ $ $ $ $ $ $ @ $ @ # # = = * * 6 8 8 9 u i f f N J J J J J J N f f s i 9 * & # @ @ @ . . . . . . . . @ @ @ @ @ @ @ @ @ @ @ @ @ # @ @ @ @ @ @ @ @ @ @ @ @ @ @ @ @ @ @ @ @ @ @ @ @ @ @ . . . . . . @ @ @ @ @ @ @ @ @ @ @ @ @ @ @ @ @ @ @ @ @ @ @ @ @ @ @ @ @ @ @ @ . . . . @ @ @ @ @ @ @ @ @ @ $ @ @ @ @ @ @ . . . . . . . . . . . . . . . . @ @ @ @ @ $ @ $ $ $ $ $ $ @ $ $ @ @ @ @ @ @ . . @ & & @ @ # # @ # # # # @ # # # # # # # # # # # # $ $ @ @ # @ # @ $ $ $ $ % % $ $ # # # $ # $ $ @ $ # = * * * * * 8 8 8 8 6 6 6 8 6 6 * * * * 5 5 5 5 % % % % % $ = # # $ $ @ @ @ @ @ @ @ . . @ @ @ @ @ @ . @ @ @ @ @ $ @ @ @ . . . . . . @ @ $ # # = $ % % % 5 5 5 7 7 6 5 5 6 6 7 7 7 6 6 7 7 7 5 5 7 7 7 7 * * % % % % % % % $ # = # $ @ $ * ; $ @ $ @ # # * * > 9 9 9 9 u u u u i i i i i i i i 9 9 9 8 7 8 ; * % $ $ $ $ $ @ @ @ @ @ @ @ @ @ @ @ @ . . . . . . . . . @ @ $ $ $ $ = = = = $ = = $ * 6 6 6 6 6 6 6 6 q 7 q q q q q q q q q 0 0 0 0 0 V V V V V s s s s p i i i i i i 9 9 8 8 8 * = * * * * * * 8 8 8 8 8 9 8 9 9 u u u 9 u u u i s f N N N N N K K K P K P P P P L L L L L L L L P P P P P P P P L L L L I Y ] ] { u.s.x.V.U.W.8XrXpXfXzXzXcXcXBXBXAXAXCXCXZXDXSXSXSXSXDXDXDXDXDXDXDXDXDXDXDXDXFXFXFXFXFXDXSXFXFXDXDXDXFXFXDXDXDXDXFXFXSXFXFXFXFXFXFXFXFXFXFXFXFXFXFXFXFXFXFXFXGXGXGXGXGXGXGXGXGXGXGXGXGXGXGXGXGXGXGXGXGXGXGXGXGXGXGXGXGXGXGXGXGXGXGXGXGXGXGXGXGXGXGXGXGXGXGXGXGXGXGXGXGXFXGXGXGXFXFXFXGXFXGXGXGXGXFXFXFXFXGXGXGXGXFXFXGXGXGXGXFXFXGXGXGXGXFXFXFXFXGXGXGXGXGXGXFXGXFXFXGXGXGXGXFX",
"g.g.f.j.j.j.j.j.j.g.s.s.s.s.s.d.d.d.u.u.u.d.d.s.h.k.c.c.V.P.R.R.!.!.7X8X9XuXuXuXiXiXpXiXuXuXuXrXrXrXrXrXrXtXtXiXiXpXpXpXpXaXaXaXsXsXsXsXsXpXpXpXpXpXpXpXsXsXsXsXsXsXfXfXfXfXfXfXzXzXcXcXNXBXBXBXAXCXCXCXDXSXGXGXGXGXKXKXKXKXKXKXKXKXKXKXGXGXDXDXCXCXBXNXgXhXuX~.P.c.h.| L f u u > > * * * * * * ; ; ; ; ; ; * % % % % % $ $ $ $ # # $ $ $ $ # # @ @ = = * * 6 8 8 9 9 i s f f f f N N f s p i i 9 * * @ @ . . . . . . . . . . . @ @ @ @ @ @ @ @ @ @ @ @ @ # @ @ # # @ @ @ @ @ @ # # @ @ @ @ @ @ @ @ @ @ @ @ . . @ . . . . . @ @ @ @ @ @ @ @ @ @ . . @ @ @ @ . . @ @ @ @ @ . . @ @ @ @ @ @ . . . . . @ @ @ @ @ @ @ @ @ @ $ @ @ @ @ @ @ . . . . . . . . . . . . . . . . @ @ @ @ @ $ @ $ $ $ # # # # # # $ @ @ @ @ # . . # & & @ . # # @ @ # # # @ # # # # # # # # # # # # # # # # @ @ @ @ $ $ # # % % $ $ % % # $ # # $ @ $ = = * * * * * * 8 8 8 * * 6 8 6 6 * * = $ $ 5 5 5 % % % % % $ = # # $ $ $ @ @ @ @ @ . . . @ @ @ @ @ @ . @ $ @ $ # % # . . . . . . . . . @ @ $ # # $ % 5 6 5 6 7 7 7 7 5 5 5 6 7 7 6 6 5 6 7 6 5 5 7 7 7 7 * % % % % # # % # $ $ # $ @ @ # 8 8 # @ $ $ $ # = * > 8 9 9 9 9 u u u u u u i i i i i 9 9 9 9 7 8 ; % % % $ $ $ $ @ @ @ @ @ @ @ @ @ @ @ . . @ @ @ @ @ . . . @ @ @ @ $ $ $ $ = = = = = = * 6 6 6 6 6 8 7 7 q q q q q q q q q q q 0 0 0 0 0 0 V V V V s s s s i i i i i i 9 9 9 8 8 8 * = * 6 * * * * 8 8 9 9 8 9 8 8 9 i i u 9 9 9 u i i f N N N N N K K P P P P P P L L I I L L L L L L L L L L L L L L L L L U Y ] [ { } u.j.n.P.Q.7XrXuXfXgXzXcXcXNXBXAXCXCXCXZXZXSXSXSXSXDXDXDXDXDXDXDXDXDXDXDXSXFXFXFXFXFXDXSXFXDXDXDXDXFXFXDXDXDXFXFXFXFXFXFXFXFXFXSXSXFXFXFXFXFXFXFXFXFXFXFXFXGXGXGXGXGXGXGXGXGXGXGXGXGXGXGXGXGXGXGXGXGXGXGXGXGXGXGXGXGXGXGXGXGXGXGXGXGXGXGXGXGXGXGXGXGXGXGXGXGXGXGXGXFXFXGXGXGXFXGXFXGXGXGXGXGXGXFXFXFXFXGXGXGXGXFXFXGXGXGXGXGXFXGXGXFXFXFXFXFXFXFXGXGXGXGXGXFXFXFXFXGXGXGXGXFX",
"s.g.j.j.j.f.g.g.j.j.g.g.g.g.j.s.d.d.d.d.d.u.d.d.h.j.z.c.V.P.R.R.!.!.8X8XrXuXuXuXiXpXpXpXiXiXiXiXtXrXrXtXtXtXtXiXiXiXiXpXdXdXaXaXsXsXsXsXsXsXsXpXpXpXpXpXdXsXfXfXsXsXfXfXfXfXgXgXcXcXcXcXBXBXBXAXCXCXDXDXSXGXGXGXGXGXKXKXKXKXKXKXKXKXKXKXGXGXDXDXCXBXBXNXgXhXwXE.P.c.} ] K s u > * * * * * * * * ; ; * * ; ; * # % % % % $ $ $ $ $ $ $ # # # # $ # = = * = * 6 8 * 8 9 u i s s f s i u u u i u 8 = & # # @ @ . . . . . . . . . . . . . @ @ # # # @ @ @ @ @ $ $ $ @ @ @ @ @ @ @ @ @ @ @ . . @ @ @ @ @ @ @ @ @ @ @ . . . @ . . . . . @ @ @ @ @ . . @ @ @ @ @ . . @ @ @ @ @ @ @ @ @ @ @ @ @ @ @ @ @ @ @ @ @ @ @ @ @ @ @ @ @ @ @ $ $ @ @ @ @ @ @ . . . . . . . . . . . . . @ @ # # # @ @ @ # # $ @ @ @ @ @ @ @ # # # @ # # # o . . . # # @ @ # # # # # # @ @ # # # @ # # # # % # # # # # # # # # % % $ $ $ $ $ # $ $ @ # # # # # % * = * * * * * 8 8 6 6 6 6 6 * * * = $ $ $ $ 5 % % % % % $ = # # # @ @ @ @ @ @ @ @ @ @ @ @ @ @ @ @ @ $ $ @ @ # * 8 @ @ @ . . . . . @ @ @ = % % % % % 5 5 7 7 7 7 6 7 7 7 7 7 7 7 7 7 7 5 5 7 7 5 5 5 % % % % % % # # $ $ $ $ $ @ @ $ $ % 7 ; @ # @ # # # * ; 8 9 9 0 0 u i i i i i i i i i 0 9 9 9 7 7 ; * % % $ $ $ $ $ @ @ @ @ # @ @ @ @ @ @ @ @ @ @ @ @ @ @ @ @ @ @ @ $ $ @ @ @ % % = = = = * 6 6 6 6 6 6 6 6 q q q q q q q q q q q q 0 0 0 0 V V V V N B N N s i i i i i i i i 9 9 8 6 * * * * * 8 8 8 8 9 9 9 9 9 9 9 9 u u u u u u u u i s f N N J J K P P P P P L L L L L L ] L L ] I L L L L L L L I I I L I I Y Y ] { } d.s.x.V.I.W.8XiXpXgXgXcXcXNXBXBXAXCXCXZXSXSXSXSXSXDXDXDXDXDXDXDXFXFXFXFXFXDXDXDXDXDXDXDXDXDXDXDXDXSXSXSXSXSXSXSXSXFXFXFXFXFXFXFXFXFXFXFXFXFXFXFXFXFXFXFXFXFXFXFXFXGXGXGXGXGXGXGXGXGXGXGXGXGXGXGXGXGXGXGXGXGXGXGXGXGXGXGXGXGXGXGXGXGXGXGXGXGXGXGXGXGXGXGXGXGXGXGXGXGXFXFXFXFXFXFXFXGXGXGXGXGXGXGXFXGXGXGXGXGXGXGXGXFXFXFXFXGXGXGXGXGXGXFXGXFXFXFXFXFXFXFXGXGXGXFXFXGXFXGXGXGX",
"g.j.j.j.j.j.j.j.j.j.g.g.g.s.s.s.d.d.d.d.u.u.d.d.h.j.z.c.n.P.R.R.W.!.8X8XrXrXuXuXiXdXdXpXpXiXiXiXiXtXtXuXiXiXiXdXiXiXpXdXdXdXaXaXsXsXsXsXsXsXdXdXpXpXpXpXpXsXsXfXsXsXfXfXfXfXgXzXcXcXcXBXBXBXAXAXCXCXDXDXSXGXGXGXGXGXKXKXKXKXKXKXKXKXKXKXKXGXDXCXCXBXNXNXhXhXwXE.P.l.} _ K i 9 > > * * * * * * * * * * * ; * % % % % % % $ $ $ $ $ $ # # # # # $ # = = = = = = = = * 8 8 9 9 9 u i i u 9 9 > > @ & @ @ @ @ . . . . . . . . . . . . . . . @ # # @ @ @ @ @ @ @ $ $ @ @ @ @ @ @ @ @ @ @ @ @ @ @ @ @ @ @ @ @ @ @ @ . . . @ @ . . @ @ . . @ @ @ @ . . @ @ @ . @ @ . @ @ @ @ @ @ @ @ @ @ @ @ @ @ @ . . @ @ @ @ @ @ @ @ @ @ @ @ @ @ @ @ @ @ @ @ @ @ . . . . . . . . . . . . . . @ @ @ @ @ @ @ @ $ $ @ @ @ @ @ @ @ @ # # . @ # # o o o # # # # @ # # # # # # @ @ # # # @ @ # # # # # # # # # # # # # # % $ $ $ $ $ $ $ @ @ $ # # # # % * = * * * * * 8 8 * * 6 6 6 * * * = $ $ $ $ 5 % % % % % = % = = % $ $ $ @ @ @ @ @ @ @ @ @ @ @ @ @ @ $ @ @ @ $ * ; . @ @ @ . . @ . @ @ $ = % % % % % 5 5 6 7 7 7 7 7 7 7 7 7 7 7 7 7 7 5 5 6 5 % 5 % % % % % % % % # $ $ $ $ $ @ @ $ @ # 8 ; @ # @ @ $ # # * ; 8 7 9 0 u i i i i i i i i i 9 9 9 9 7 7 ; * * % % $ $ $ $ @ @ @ @ @ @ @ @ @ @ @ @ @ @ @ @ @ @ @ @ @ $ $ $ $ # # $ $ = = = = = % * * 6 6 8 8 8 6 6 q q q q q 0 q q q q q q q 0 0 0 V V V V V V s i i i i i i i i i 0 9 9 8 6 * * * * 8 8 8 8 8 9 9 9 u u 9 9 u i i i i i i i i i p f f N J J J P P P P P P L L ] ] ] ] ] Y ] ] Y L U I I I I I I I I U I Y Y ] [ { } s.x.V.I.W.7XuXpXfXgXcXcXNXBXBXAXCXCXZXSXSXSXSXSXDXDXDXDXDXDXFXFXFXFXSXSXDXDXDXDXDXDXDXDXDXDXDXDXSXSXSXSXSXSXSXSXFXFXFXFXFXFXFXFXFXFXFXFXFXFXFXFXFXFXFXFXFXFXFXFXGXGXGXGXGXGXGXGXGXGXGXGXGXGXGXGXGXGXGXGXGXGXGXGXGXGXGXGXGXGXGXGXGXGXGXGXGXGXGXGXGXGXGXGXGXGXGXGXGXFXGXFXFXFXFXFXGXGXGXGXGXGXGXGXGXGXGXGXGXGXGXGXFXFXFXFXGXGXGXGXGXGXFXGXFXFXGXFXFXFXFXGXGXGXFXGXFXFXFXFXFX",
"j.j.j.j.f.f.j.j.j.j.j.g.g.s.s.d.d.d.d.d.u.d.d.s.h.j.z.c.n.P.R.R.W.!.8X8X8XrXuXuXdXdXdXdXpXpXpXpXpXiXiXpXpXpXdXdXpXpXpXdXdXaXsXaXdXdXdXdXsXsXpXpXpXpXpXpXpXdXsXsXfXfXfXfXfXzXzXzXcXbXBXBXBXAXAXAXCXCXDXSXSXGXGXGXGXGXKXKXKXKXKXKXKXKXKXKXKXGXDXCXCXBXNXNXhXdXwXE.P.l.} _ N i 9 > > * * * = = = = * * * * * % % % % % % % # # $ $ $ # # # # # $ $ $ # = = @ $ $ $ = = = * * * * * > > > > = & . . @ @ @ . . . . . . . . . . . . . . . . . @ @ @ @ @ @ @ @ @ @ @ @ @ @ @ @ @ @ @ @ @ @ @ @ @ @ @ @ @ @ @ @ @ @ . . @ @ @ @ @ @ @ @ @ @ @ @ @ @ . . . . . . . @ . @ @ @ @ @ @ @ @ @ @ @ @ @ @ @ . . @ @ @ @ @ @ @ @ @ @ @ @ @ @ @ @ . . @ @ @ @ . . . . . . . . . . . . . . . . . . @ @ @ $ # # # # # # @ @ @ @ @ @ . @ # # # # & & & & & # # # # # # # . . # # . . @ # # # # # # # # # # % % % % % $ $ $ $ $ $ $ $ @ $ $ $ # # % * = = * * * * * 8 * * 6 6 6 * * * = $ = = $ 5 % % % % = $ = = % = # $ $ @ @ @ @ @ @ @ @ @ @ @ @ @ @ @ $ @ @ @ # * . . @ @ @ @ @ @ @ $ $ $ $ % % % % 5 5 5 7 7 7 7 7 q 7 7 7 7 7 7 7 7 7 5 5 % % 5 % % % % % % % % % % # # # # # @ $ @ $ 8 ; $ # @ @ $ $ # % * 8 8 9 0 u i i i u u u i u 9 9 9 9 9 7 8 7 ; * % % $ $ $ $ @ @ @ @ @ @ @ @ @ @ @ @ @ @ @ @ @ @ @ @ @ $ $ # # # # # $ $ $ $ $ = % * * 6 6 8 8 8 6 7 q 6 q q 0 0 0 q q q q q q q q 0 V V V V V V V s i i i i i i i 0 9 9 9 8 8 8 8 8 8 8 8 9 8 8 9 9 i i i i i i i i i i i i i i i i p f N J J K P L L L L L L I Y ] ] ] ] ] ] ] ] ] ] ] Y Y Y Y Y I I I I Y Y ] { { } s.x.V.Z.Q.7XrXuXdXgXzXcXNXBXBXAXCXCXZXDXSXSXSXSXDXDXDXDXSXSXFXFXFXFXFXFXFXFXDXDXFXFXFXFXFXDXDXDXSXSXSXSXSXSXSXSXSXSXSXSXSXSXSXSXDXDXDXDXDXDXFXSXFXFXFXFXFXFXFXFXGXGXGXGXGXGXGXGXGXGXGXGXGXGXGXGXGXGXGXGXGXGXGXGXGXGXGXGXGXGXGXGXGXGXGXGXGXGXGXGXGXGXGXGXGXGXGXGXGXGXGXFXFXFXFXGXGXGXGXGXGXGXGXGXGXGXGXGXGXGXGXGXGXGXFXGXGXGXFXGXGXGXGXGXGXGXGXGXFXFXFXFXGXGXGXGXFXFXFXFXFX",
"j.j.j.f.f.f.j.j.j.j.j.g.g.s.s.s.d.d.d.d.d.d.d.s.s.j.z.c.n.B.U.R.W.!.~.8X8XrXuXuXpXdXsXsXpXpXpXpXpXpXpXpXdXdXdXdXaXaXaXaXsXsXsXaXdXdXsXsXsXsXpXpXpXpXpXpXpXsXsXsXgXgXgXzXzXzXzXzXbXbXBXBXBXAXCXCXCXDXDXSXSXGXGXGXGXGXKXKXKXKXKXKXKXGXGXGXGXDXDXCXCXBXNXcXhXuXwXE.P.l.} _ N i 9 8 > > * * * = = = * * * * % # # % % % % % # # $ # # # # # # # $ $ @ $ = @ @ @ @ @ = = = # # @ @ @ . . @ @ . . . . . . . . . . . . . . . . . . . . . . . . . @ @ @ @ @ @ @ @ @ @ @ @ @ @ @ . . . . . . @ @ @ @ @ @ @ @ @ @ @ @ @ . @ @ @ . . @ @ @ @ @ @ @ @ @ . . . . . . @ @ @ @ @ @ @ @ $ @ @ @ @ @ @ @ @ @ @ @ @ @ @ @ @ @ @ @ @ @ @ @ @ @ $ $ . . @ @ @ @ . . . . . . . . . . . . . . . @ @ @ @ @ @ $ # # # # @ @ @ @ @ @ # # . @ # & & & & & & & & # # # @ # # . . . . # . . @ @ # # # # # # # # % % % % % # % $ $ $ $ $ # $ @ @ $ $ $ # % % = = * * = * * 8 * 6 6 6 * * * * $ $ $ = $ $ % % % $ $ $ # # = % = # $ $ @ @ @ @ @ @ @ @ @ @ @ $ @ @ @ @ @ @ # * @ @ @ @ $ @ @ @ $ $ $ $ $ % % % 5 5 5 5 7 7 7 7 7 q q 7 7 7 7 7 7 7 7 5 5 % % 6 % % % % % % % % % % % % % % % # $ $ # 7 8 $ # @ $ $ $ # % * 8 8 9 9 0 u i i u u u u 9 9 9 9 9 9 9 8 8 ; % % % $ $ $ $ $ @ @ @ @ @ @ @ @ @ @ @ @ @ @ @ @ @ @ @ @ @ $ $ $ $ $ $ $ $ $ $ = = % * * 6 6 8 8 8 8 7 q 6 q q 0 0 0 0 q q q q q q q 0 V N N N V V V s s i i i i i i 0 9 9 9 8 8 8 8 8 9 8 8 9 9 9 9 u 9 i i i i i i i i i i i i i i i i f N J J P P L L L L L L Y Y ] ] ] ] ] ] ] ] ] ] ] ] Y ] ] ] Y Y U I Y Y [ { } d.d.j.n.Z.Q.7XrXrXdXgXzXcXcXBXBXAXAXCXZXZXSXSXSXSXSXSXSXSXSXSXFXFXFXFXFXFXFXFXFXFXFXFXFXFXSXSXDXFXSXSXSXSXSXSXSXSXSXSXSXSXSXSXSXSXDXDXDXDXDXDXDXDXFXFXFXFXFXFXFXFXGXGXFXFXFXGXGXGXGXGXGXGXGXGXGXGXGXGXGXGXGXGXGXGXGXGXGXGXGXGXGXGXGXGXGXGXGXGXGXGXFXFXGXGXGXGXGXGXGXGXGXFXFXFXFXGXFXGXGXGXGXGXGXGXFXGXGXGXGXGXGXFXGXGXGXGXGXFXFXGXGXGXGXGXGXGXGXGXFXFXFXFXGXGXGXGXFXFXGXGXGX",
"g.f.f.j.j.j.j.j.j.j.j.j.j.j.g.s.s.s.d.d.d.d.d.s.h.k.z.c.n.V.P.R.W.!.!.8X8XrXuXuXpXdXsXsXsXdXaXaXdXdXdXdXdXaXaXaXsXsXsXsXsXsXsXsXsXsXsXsXsXsXdXdXpXpXpXpXdXsXsXsXgXgXzXzXzXcXzXcXbXbXBXBXBXAXCXCXCXCXDXSXSXFXGXGXGXGXGXGXGXGXGXKXKXGXGXGXHXDXCXCXBXNXcXgXhXuX~.R.K.l.} ] J i i 9 9 8 8 * * * * * * * * = # # # $ % % % % # # # # # # # # # $ $ $ @ $ $ $ @ @ @ @ # # # @ @ @ @ . . . @ . . . . . . . . . . . . . . . . . . . . . . . . . . @ @ @ @ @ @ @ @ @ @ @ @ @ @ . . . . . . . . @ @ @ @ . @ @ @ @ @ # # @ @ @ . . . @ @ @ @ @ @ @ @ @ . . . . . . @ @ @ @ @ @ @ @ $ $ @ @ @ @ @ @ @ @ $ $ @ @ @ @ @ @ @ @ @ @ @ @ @ @ @ @ . @ @ @ @ @ . . . . . . . . . . . . . . . . . . # # @ @ @ @ @ @ @ @ @ @ @ # # # # & & & & & & & & & # # o . . @ . . # # # # . . # # # # # % % % # % % % % % % % % $ $ $ $ $ $ $ $ $ $ $ $ # # % * * * * * * * 8 6 6 6 6 * * * * $ = $ $ $ $ % % = $ = $ # # = % = $ $ @ @ @ @ @ @ @ @ @ @ $ $ # @ @ @ @ @ . # * # @ . @ @ @ @ @ $ $ $ # $ % * * 6 6 5 7 7 7 7 7 7 7 7 7 7 7 7 7 9 9 7 6 5 % % 7 * % % % % % % % % % % % ; ; * % % # % 9 8 $ # @ $ $ $ # % * * 8 8 9 9 9 9 u u 9 9 9 9 9 9 9 9 9 9 7 8 * % % $ $ $ $ $ $ $ $ @ @ @ @ @ @ @ @ @ @ @ @ @ @ @ @ @ @ @ @ @ @ $ $ $ $ = = = % % = * 6 6 6 8 8 6 7 q q 6 6 q 0 0 0 0 0 q q q q 0 q 0 V V N V V V V s s i i i i i 0 9 9 9 9 8 8 8 8 8 9 9 8 9 9 u i i i i i i i i i p i i i i i i i i i f N J J P P L L L L I Y Y ] ] [ [ [ [ [ [ [ [ [ [ ] ] ] ] ] ] Y U U Y Y ] { } } d.s.x.V.Q.!.8XrXdXsXgXcXcXBXBXAXAXCXCXZXSXSXSXGXDXDXDXGXFXFXFXFXFXFXFXFXFXFXFXFXFXFXFXFXDXDXSXSXSXSXSXSXSXSXSXSXSXSXSXSXSXSXSXSXFXFXFXFXFXFXFXFXSXSXFXFXFXFXFXFXSXFXFXFXGXGXGXGXGXGXGXGXGXGXGXGXGXGXGXGXGXGXGXGXGXGXGXGXGXGXGXGXGXGXGXGXGXGXGXGXFXFXGXGXGXGXGXGXGXGXFXFXFXFXGXGXFXFXGXGXGXGXFXFXFXFXGXGXGXGXFXFXGXGXFXFXFXFXFXFXFXFXGXGXGXFXFXFXGXGXGXFXFXFXFXFXGXGXGXGXGX",
"g.f.j.j.j.j.j.j.j.j.j.j.j.j.j.g.s.s.d.d.d.d.d.d.h.k.z.z.n.V.P.R.R.!.!.8X8XrXuXuXpXdXsXsXsXsXaXaXsXsXsXsXsXfXfXfXfXfXfXfXfXfXfXfXsXsXsXsXsXdXdXpXpXpXpXpXdXsXsXsXgXgXzXzXzXcXcXcXbXBXBXBXAXAXCXCXDXCXDXSXSXSXSXSXHXHXHXGXHXGXGXGXGXGXDXDXDXCXCXAXBXcXgXgXdXuX~.R.P.k.} ] J f i i u 9 9 8 * * * * = = = = % % % = % % % % # # # # # # # # # $ $ $ @ $ @ $ @ @ @ @ @ @ @ @ . . @ @ . . . . . . . . . . . . . . . . . . . . . . X . . . . . . @ @ @ @ @ @ @ @ @ @ @ @ @ . . . . . . . . . . . . @ @ @ @ @ @ # # # # @ . . . . @ @ @ . . @ @ @ @ . . . . . . @ @ @ @ @ @ @ @ @ @ @ @ @ @ @ @ @ @ @ @ @ @ @ @ @ @ @ @ @ @ @ @ @ @ @ @ @ @ @ @ @ @ . . . . . . . . . . . . . . . . . . @ @ @ @ @ @ . @ @ @ @ @ # # # # & & & & & & & & & & # # o . . . . . # # # # . # # # # # % % % % % % % % % % % % $ $ $ $ $ $ @ @ @ $ $ $ $ # # = * * * * * * * * 8 8 6 6 * * = = $ = $ $ = $ % % % % = = % % = = # $ $ $ @ @ @ @ @ @ @ @ @ @ @ $ @ @ @ @ @ @ # ; * @ . @ @ @ @ # $ $ $ # = % * 6 7 7 7 7 7 7 7 7 7 7 7 7 7 7 7 7 9 0 7 7 7 5 % 6 * % % % % % % % % % % * ; ; ; % % % * 9 8 $ # $ $ $ $ $ # % % * * > 8 9 9 9 9 9 9 9 9 9 9 9 9 9 7 7 8 * % $ $ % $ $ $ $ $ $ # # @ @ @ @ @ @ @ @ @ @ @ @ @ @ @ @ $ @ @ @ $ $ $ $ = = % % = * * * 6 6 8 8 6 7 7 q 9 6 q q 0 0 0 0 q q q q 0 q 0 V V V V V V V s s i i i i i i i 9 9 9 9 8 8 8 8 8 9 9 9 9 u i i i i i i i i p p p i i i i i i i p f N J J P L L L L L Y Y ] ] [ ] { } } } } } } { [ [ [ [ [ ] ] ] Y Y Y Y ] { } } d.s.x.V.U.Q.7XrXdXdXgXzXcXBXBXAXAXAXCXCXSXSXSXGXSXSXSXSXFXFXFXFXFXFXFXFXFXFXFXFXFXFXFXFXSXDXDXDXSXSXSXSXSXSXSXSXSXSXSXSXSXSXSXSXSXSXSXSXSXSXSXSXSXSXSXSXFXFXFXFXSXSXSXFXFXFXGXGXGXGXGXGXGXGXGXGXGXGXGXGXGXGXGXGXGXGXGXGXGXGXGXGXGXGXGXGXGXGXGXGXGXGXGXGXGXGXGXGXGXGXFXFXFXFXGXGXFXFXGXGXGXGXFXFXFXFXGXGXGXGXFXFXFXGXFXFXGXGXFXFXFXGXGXGXFXFXFXFXGXGXGXGXGXFXFXFXGXGXGXGXGX",
"g.f.j.j.j.j.j.j.j.j.j.j.j.j.g.g.g.g.s.d.d.d.s.s.h.j.z.z.n.B.P.P.R.R.!.!.7X8XrXuXiXpXsXsXfXsXsXsXsXfXfXfXfXfXfXfXfXfXfXfXfXfXfXfXfXfXsXsXsXpXpXpXpXpXpXpXpXsXsXsXfXgXzXzXzXcXcXcXbXbXBXBXAXAXCXCXCXCXCXDXDXDXDXDXDXDXDXDXHXDXHXHXDXDXDXDXCXCXBXBXNXcXgXgXdXuX~.E.K.k.u.] P f f s s a 9 9 8 8 > * = = = = = * * * % % % % % # # # # # # # # $ $ $ $ $ $ @ @ @ @ @ @ @ @ @ . . . . . . . . . . X X . . . . . . . . . . . . . . . . . . . . . @ @ @ @ @ @ @ @ @ @ @ @ @ . . . . . . . . . . . . . @ @ @ @ @ @ @ @ @ . . . @ @ @ @ @ . . @ @ @ . . . . . . . @ @ @ @ @ @ @ @ @ $ $ $ @ @ @ @ @ @ @ @ @ @ @ @ @ @ @ @ @ @ @ @ @ @ @ @ @ @ @ @ @ @ @ @ . . . . . . . . X X . . . . . . @ . @ @ @ @ @ @ @ @ @ # # # # & & & & & & & & & & # # o o . . . . # & # # # # # # # # # % % % % % % % % % % % % % $ $ $ $ $ $ @ $ $ # # $ # # = * * * * * * * * 8 8 6 6 * * = = $ = $ $ = $ % $ % % * * = = = % # $ $ $ # @ @ @ @ @ @ @ @ @ @ @ @ @ @ $ @ @ = 8 * @ . $ # $ @ # $ $ # # % % % * 7 7 7 7 7 7 7 7 7 7 7 7 7 7 7 7 9 0 7 7 7 6 5 6 % % % % % % % % % % % * * * % % # % * 9 7 @ % # # # $ $ # % % % * * > 8 1 9 9 9 9 9 9 9 9 9 7 9 7 8 7 * $ $ $ % % $ $ $ $ $ # # # # # # $ $ $ $ @ @ @ @ @ @ @ @ $ $ @ @ $ $ $ $ = = = % = * * * * 6 6 8 8 8 6 6 9 6 q q q 0 0 0 q q q q q q 0 V V V V V N V V V i i i i i i i i 9 9 9 8 8 8 8 9 i 9 9 9 i i i p i i p p s f p p s s p i i i i f f N J J P L L L I I Y Y Y ] [ { } u.u.} u.u.u.u.{ { { { [ [ [ [ [ ] ] ] [ { } { d.s.x.n.Z.Q.!.8XuXdXgXzXcXcXBXAXAXAXCXCXDXSXGXGXSXSXSXSXFXFXFXFXFXFXFXFXFXFXFXFXFXFXDXDXSXSXFXDXSXSXSXSXSXSXSXSXSXSXSXSXSXSXSXSXSXSXSXSXSXSXSXSXSXSXSXSXFXFXFXFXSXSXSXSXFXFXGXGXGXGXGXGXGXGXGXGXGXGXGXGXGXGXGXGXGXGXGXGXGXGXGXGXGXGXGXGXGXGXGXGXGXGXGXGXGXGXGXGXGXFXGXFXFXFXFXGXFXFXGXGXGXFXFXFXFXFXFXGXGXGXFXFXFXFXFXFXGXGXGXFXFXFXGXGXFXFXFXFXGXGXGXGXFXFXFXFXGXGXGXGXGX",
"g.f.j.j.j.j.j.j.j.j.j.j.j.j.g.g.g.g.g.g.s.s.h.h.h.j.x.z.n.B.P.P.R.R.!.!.!.8X8XuXuXpXsXsXfXfXsXsXsXfXfXfXfXfXfXfXfXfXfXfXfXfXfXfXfXfXsXsXdXpXpXpXpXpXpXpXpXpXsXsXsXfXgXzXzXcXcXcXbXBXBXBXAXCXCXCXCXCXCXCXDXDXDXDXDXDXDXDXDXDXDXDXDXCXCXCXCXBXBXNXcXgXgXhXuXuX~.R.m.k.u.| L J N f s s i 9 8 8 * * * = = = * * * = % % % % % # # # # % # # # $ $ $ $ $ $ @ @ @ @ @ $ @ @ @ . . . . . . . . . . . . . . . . . . . . . . . . . . . . . . . . . @ @ @ @ @ @ @ @ @ @ @ @ @ @ . . . . . . . . . . . . @ . . . @ @ @ . . . @ @ @ # @ @ @ . . @ @ @ @ . . . . . . . @ . . @ @ @ @ @ @ @ @ # # # # $ @ @ @ @ @ @ @ @ @ @ @ @ @ @ @ @ @ @ @ @ @ @ @ @ @ @ @ . . . . . . . . . . . . . . @ @ @ @ @ @ @ # # # # # # # # # # # # & & & & & & & # # # o o . . . . # & # # # # # % % # # % % % % * % % % % % % % % % % $ % $ # $ $ $ # # # # # * * * * * * * * * ; 6 6 6 * * = = = $ $ $ $ % % $ $ $ % * % % # # $ $ $ # # # # # @ @ $ # $ $ $ $ @ . @ $ @ @ * 9 * @ @ # = # $ # # # # % % % % % 7 7 7 9 7 9 9 7 7 q 7 7 7 7 7 7 9 9 7 7 7 7 % 5 % % % % * * * % % % % % * % % # $ # * 7 ; @ % % # # # $ # % % % * * * * > > 9 9 9 9 9 9 9 9 9 9 8 8 6 % $ $ % % % % $ $ $ $ # # # # # # # $ $ $ $ @ @ @ @ @ @ @ $ @ @ @ @ $ $ $ $ # = % % * = = * 6 6 8 8 8 8 6 8 8 q q 0 0 0 q q q q q q q 0 0 V V V V V V i i V i i i i i 0 0 9 9 9 8 8 8 9 9 i 9 9 i i i i p f p f f f f f p f f f p p p f f N N J P L L L L U Y Y Y ] { } d.u.u.u.u.u.h.h.s.u.} { { { { [ [ [ ] Y ] [ { { } s.s.x.n.B.U.W.7XuXpXsXgXcXcXBXBXAXAXCXCXDXSXGXGXSXSXSXGXFXHXFXFXFXFXFXFXFXFXFXFXDXDXDXDXFXDXDXDXSXSXSXSXSXSXSXSXSXSXSXSXSXSXSXSXSXSXSXSXSXSXSXSXSXSXSXSXSXFXFXFXSXSXSXFXFXFXGXFXGXFXGXFXGXFXGXGXGXGXGXGXGXGXGXGXGXGXGXGXGXGXGXGXGXGXGXGXGXGXGXGXGXGXGXGXGXGXGXGXGXGXGXFXFXFXGXGXFXFXGXGXGXGXFXFXFXFXGXGXGXGXFXFXFXFXFXFXGXGXGXFXFXFXGXGXFXFXFXFXGXGXGXGXFXFXFXFXGXGXGXGXFX",
"g.s.j.j.j.j.j.j.j.x.j.j.j.j.j.j.g.g.s.s.s.s.s.s.h.j.x.z.n.m.P.P.R.R.E.!.!.8X9XrXuXiXdXsXfXfXfXfXfXfXkXkXkXkXkXkXkXkXkXkXkXfXfXfXfXsXsXsXsXsXpXpXiXpXdXdXdXsXsXsXfXkXzXzXcXcXcXcXbXBXVXAXAXCXCXCXCXCXCXAXAXAXCXDXDXDXCXDXDXDXCXCXDXCXAXBXNXNXcXgXgXgXhXhXdXuX8X!.n.k.u.| Y L K f f f s i 9 8 * = = = = % = = % % = = % % % = # # $ $ $ $ $ $ @ @ $ $ $ @ @ @ @ @ @ @ . . . . . . . . . . . . . . . . . . . . . . . . . . . . . . . . . . @ @ @ # @ @ @ @ @ @ @ @ . . . . . . . @ . . . @ @ @ @ @ . . . @ @ @ @ . . . . . . @ @ @ @ @ @ @ . . @ @ . . . . . @ @ @ @ @ @ @ @ @ @ # @ @ @ @ @ @ @ @ # $ $ $ @ $ @ $ @ @ @ @ $ @ @ @ @ @ @ @ @ @ @ @ @ @ . . . . . . . . . . . . @ @ @ @ $ # @ # # # & & & & & & & ; & & & & & & & & & o o o & & . . . # # # # # # # % % % % * % % % % % % % % % % % % # # # # $ # # @ @ # $ @ @ # * * * * = = * 8 7 8 8 8 ; ; % % $ $ @ $ $ % $ $ % $ % * % $ % % $ $ # # # # # # # @ # # * % @ # @ # # @ # # # * s # # & # # # * * * @ = ; % * 7 8 7 7 7 9 0 9 7 9 0 q 6 7 0 7 7 9 0 s 7 7 9 5 7 7 7 # 7 * # * * % % @ % 7 7 * % % * # 7 7 * % 7 $ % $ % * % $ $ % * = 8 @ * * ; 7 8 8 7 8 9 8 7 ; 7 7 6 % % $ % % $ $ $ $ $ $ $ = = = = % # # # # # $ $ $ @ @ @ @ @ @ @ @ $ $ $ $ @ @ # # # # = % * 6 6 8 8 7 7 8 8 6 6 9 9 q 7 q q q q q q q 0 0 V V V V V V V N i i s i i i i 0 0 0 9 9 9 9 0 i i i i i i p f f f N N f N N N N N f i i s p N N J P P P P L I I Y Y ] [ { } } h.d.d.h.h.h.h.h.h.u.u.u.} { { { { ] ] Y ] [ { } } d.s.x.c.V.P.Q.!.uXiXdXgXcXcXbXBXAXAXCXDXDXSXSXFXFXFXFXHXHXHXFXFXDXHXHXGXGXGXSXSXSXSXSXSXSXSXSXSXSXSXDXSXDXDXDXDXDXDXDXDXDXDXDXDXSXSXSXSXSXSXSXSXSXSXSXSXSXSXSXSXSXSXFXFXFXFXFXFXFXFXFXFXFXFXFXFXFXFXFXFXFXFXFXFXGXGXGXFXFXFXGXGXFXGXGXGXFXFXFXGXGXGXGXGXFXFXFXFXFXFXFXFXFXFXGXFXFXFXFXFXGXGXGXFXGXGXGXGXGXGXGXGXGXGXGXGXGXGXGXGXFXFXGXGXFXFXFXFXFXFXFXFXGXGXFXFXGXGXGXGXGX",
"g.s.f.j.j.j.j.j.j.x.j.j.j.j.j.j.g.g.s.s.s.s.s.s.h.j.x.z.n.n.B.P.R.R.R.!.!.7X8XwXuXiXdXdXfXfXfXfXfXfXfXkXkXkXzXzXzXzXkXkXkXkXfXfXfXfXsXsXsXsXpXpXiXpXpXdXdXdXsXsXfXkXzXzXcXcXcXcXvXVXVXAXAXAXAXCXAXAXAXAXAXAXAXCXAXAXAXAXAXAXAXAXBXBXBXNXNXcXgXgXgXhXhXhXdXuX8X!.P.c.h.} ] L P J N f f i 9 8 * * % % * * % % % % % % % % = # $ $ $ $ $ $ $ $ $ @ $ @ @ @ @ @ @ @ @ @ . . . . . . . . . . . . . . . . . . . . . . . . . . . . . . . @ @ @ @ @ @ @ @ @ @ @ @ @ @ @ . . . . . . . . . . . . @ @ @ @ . . . @ # @ . @ . . . . . . . @ @ @ @ @ . . . . @ @ . . . @ @ @ . @ @ @ @ @ # # @ @ @ @ @ @ @ @ $ $ @ @ $ $ $ = @ @ @ $ $ @ @ @ @ @ @ @ @ @ @ @ . . . . . . . . . . . . . . . @ @ @ $ # @ @ # # & & & & & & & & & & & & & & & & & o o o & & o . # # # # # # # # % % % % % % % % % % % % % % % % % # # # # # # # @ @ # # # # & * * * * * * * 8 7 8 ; ; ; 8 8 * % $ $ $ % % % % % % $ $ % % $ $ @ * > 9 w w 9 9 9 % # # = % # % % # # # # @ @ % 9 @ @ @ @ @ # # * * * > 8 * ; 7 % 7 7 7 7 9 7 7 7 % 9 9 6 6 9 9 7 0 0 5 9 0 9 9 0 e # $ 7 % # # @ % * 7 7 % * * % # @ % 7 7 7 7 % @ % % @ @ % * $ $ * 8 * 8 % * ; 7 7 7 7 ; * * * 5 5 % % $ $ $ $ $ $ $ $ $ $ $ = & = = % # % % % # # $ $ @ $ @ @ @ @ @ @ $ @ $ $ @ @ @ # # # # # * * 6 8 8 9 9 8 8 6 6 8 9 9 7 7 q q q q q q 0 0 V V V V V V V V V V V V s s i i 0 9 9 9 9 9 0 i i s s s f f f N f N J J J J N N N N N N N N N J J P P P L I ] ] ] ] { { } } h.h.l.l.k.l.l.l.l.l.h.h.h.u.} } { { { { [ ] [ { } } d.g.j.z.n.B.Q.!.rXuXdXgXzXcXbXBXBXAXCXCXDXDXDXSXFXFXHXHXHXHXHXHXHXHXHXHXSXSXSXSXSXSXSXSXSXSXSXDXDXDXDXDXDXDXDXDXDXDXDXDXCXDXDXDXSXSXSXSXSXSXSXSXSXSXSXSXSXSXSXSXSXSXSXFXFXFXSXSXFXFXFXFXFXFXFXFXFXFXFXFXFXGXFXFXGXGXGXGXFXFXGXGXFXGXGXGXFXFXFXGXGXGXGXGXFXFXFXFXFXFXFXFXGXFXFXFXFXFXFXFXGXGXGXFXGXGXGXGXGXGXGXGXGXGXGXGXGXGXGXGXFXFXGXGXFXFXFXFXFXFXFXFXGXGXFXFXGXGXGXGXGX",
"g.g.s.f.f.j.j.j.j.x.x.j.j.j.j.g.f.g.g.s.s.s.s.s.s.j.k.z.b.M.m.P.P.R.R.E.!.!.8XrXuXuXpXdXdXfXfXfXkXkXkXkXkXkXzXzXzXzXzXkXkXfXfXfXfXfXdXdXdXdXpXpXiXpXpXpXdXdXdXsXkXkXzXzXcXcXcXvXvXVXVXAXAXAXAXAXVXVXAXBXBXBXBXBXBXBXBXBXBXBXBXBXBXNXNXNXcXgXgXgXhXhXhXhXdXuX8XT.P.c.h.{ ] U L K K N f s u 9 8 * % = * * = = % = % % # = # $ $ $ $ $ $ $ $ $ $ $ @ @ @ @ @ @ @ @ @ @ . . . . . . . . . . . . . . . . . . . . . . . . . . . . . . @ @ @ @ @ @ @ @ $ @ @ @ @ @ @ @ . . . . . . . . . . . . . @ . . . . @ # # @ @ . . . . . . . . . @ @ @ @ . @ . . @ @ @ . . . . . . @ @ @ @ @ # # @ @ @ @ @ @ @ @ @ @ @ @ $ $ = = @ @ $ $ $ $ @ @ @ @ @ @ @ . . . . . . . . . . . . . . . . . . @ @ @ @ @ @ @ $ # # & & & & & & ; & & & & & & & & & & & & & & # # # # # # # % % % % % % % % % % % % % % % % % % % % % # # # # @ @ @ @ @ # # # & & ; ; ; ; ; 8 8 8 8 ; ; 7 7 7 8 * $ $ $ % % $ % % % @ @ % % $ $ * 9 9 9 9 9 9 9 9 9 * # # * ; # # . . @ # @ # 8 9 # # @ @ # # # = # % ; ; ; 7 9 8 9 9 7 7 9 9 9 9 0 9 7 8 9 0 9 9 s 9 5 9 s 9 7 9 7 7 7 ; % ; 9 7 # # ; 9 ; # # ; 7 * * % % * * 7 7 % @ @ * * $ $ 7 7 @ $ * 8 7 * 7 7 7 8 * % % ; % % % % % $ $ $ $ $ $ $ $ $ $ = = * * = % % % * % # # $ $ $ @ @ @ @ @ @ @ @ @ @ @ @ @ @ # # # # * * 6 6 8 7 9 9 8 8 6 6 9 9 q q q q q q q q 0 0 0 V V V V V V V V V i i i i i i 0 9 9 9 9 9 i i i s s N N N N N N N J J J J J N N N N N N N J J P P L L I ] [ { [ { } } d.h.l.c.c.c.K.K.K.c.c.c.c.l.h.h.} } } } { { { [ [ { { } d.s.j.z.c.V.R.!.8XrXpXfXzXcXbXBXBXAXAXCXCXCXDXSXSXFXFXFXHXHXHXDXHXHXFXFXFXSXSXDXDXDXSXSXSXSXSXDXDXDXDXDXDXDXDXDXDXDXCXCXDXDXDXDXDXCXCXCXCXSXSXSXSXSXSXSXSXSXSXSXSXSXSXSXSXSXSXSXFXFXFXFXFXFXFXFXFXFXFXFXFXGXGXGXGXGXGXGXGXGXGXGXFXGXGXGXFXFXFXGXGXGXGXGXGXGXGXGXFXFXFXFXGXGXFXFXFXFXFXFXGXGXFXFXFXGXFXFXGXFXFXFXFXFXFXFXGXFXFXFXFXFXGXGXFXFXFXFXFXFXFXFXGXGXGXFXGXGXGXFXFX",
"g.g.g.j.j.j.j.j.j.x.x.j.j.j.j.g.f.g.g.s.s.s.s.s.s.j.j.z.z.n.n.m.P.R.R.E.T.!.7X9XrXuXiXdXdXfXfXfXkXkXkXkXkXzXzXcXzXzXzXzXzXfXfXfXgXfXsXdXdXdXdXpXpXpXdXdXdXdXdXfXfXkXzXzXcXcXvXbXbXVXVXAXVXVXVXVXBXBXBXBXNXNXNXNXcXNXNXNXNXNXNXNXNXNXgXgXgXgXhXhXhXhXhXhXuXwX7XR.m.c.u.} [ ] L L K K N f i 9 8 6 = * * * * = % % % # = $ $ $ $ $ $ $ $ $ $ $ $ $ @ @ @ @ @ @ @ @ @ . . . . . . . . . . . . . . . . . . . . . . . . . . . . . . . . . @ @ @ @ @ @ @ @ @ @ @ @ @ . @ . . . . . . . . . . . . . . . . # # # @ @ @ . @ . @ @ . @ @ @ # @ @ @ @ @ @ @ @ @ @ . . . . . @ @ @ @ @ @ @ @ @ @ @ @ @ @ @ @ @ @ @ @ $ $ $ $ @ $ $ $ $ $ @ @ @ @ @ @ @ . . . . . . . . . . . . . . . . . @ @ @ @ @ @ @ @ $ # & & ; & ; ; ; ; & & & & & & & & & & & & & & # # # # # # % % % % % % % % * * % % % % % % % % % % % % # # # # $ @ $ @ @ # # % & & ; ; ; > 8 8 8 8 8 8 8 9 9 8 8 ; = $ $ $ $ $ @ $ $ $ % $ $ $ 6 0 9 8 * # @ # * ; w 7 * @ ; 0 * @ * # # % # * 8 * % # # # & & # # 8 * ; ; 8 8 7 8 ; 7 7 7 7 9 9 w 7 % 0 B ~ B B B B s 0 s s 7 * 7 9 7 ; 9 w B B 7 ; % 9 w 9 ; % % * 7 % % % % % * . # % 7 7 # $ 8 # 0 * 8 $ @ 8 8 9 9 7 8 ; ; ; * % % % % % $ $ $ $ % % % $ $ % * * ; ; * % % * * % % % # $ $ @ @ @ @ @ @ @ @ @ @ @ @ @ @ $ # # % * * 6 8 8 7 9 9 8 8 8 q 9 9 q 7 7 q q q q q 0 0 0 0 V V V V V V V V i i i i s i 0 9 9 9 0 i i i s s N N N N N N J J J J J J J J J N N N J J J P L L I I ] ] { } } } d.h.h.l.c.K.P.P.P.^.P.P.K.K.K.c.c.h.h.d.} } { { { [ [ { } d.d.j.j.x.c.V.U.W.8XrXpXfXzXcXvXbXBXAXAXCXCXCXDXDXDXSXFXGXGXHXHXDXHXHXFXFXSXDXDXDXDXDXSXSXDXDXDXDXDXDXDXDXDXDXDXDXCXCXCXCXCXDXDXDXCXCXCXCXCXCXCXSXSXSXSXSXSXSXSXSXDXSXSXSXSXSXSXSXSXSXSXFXFXFXFXFXFXFXFXFXFXFXGXGXGXGXGXGXGXGXGXGXFXGXGXFXFXFXFXGXFXGXFXFXGXGXGXGXGXGXGXGXGXFXFXFXGXGXFXFXFXGXFXFXFXGXFXFXFXFXFXFXFXFXFXFXFXFXFXFXFXFXGXGXGXFXFXFXFXFXFXGXGXGXGXFXGXGXGXGXFX",
"s.g.g.j.j.j.j.j.j.x.j.j.j.j.j.j.j.j.j.g.s.s.s.s.h.j.j.x.z.b.M.m.P.P.R.R.R.!.7X8XrXrXuXpXdXsXfXfXfXfXgXkXzXzXzXcXcXzXzXzXgXfXfXfXgXgXsXdXdXdXdXpXpXdXdXdXdXdXdXfXfXkXkXzXcXcXcXvXbXVXVXVXVXVXVXBXNXNXNXNXcXcXcXzXgXgXgXzXgXgXgXgXgXgXgXhXdXhXdXdXdXdXdXdXuX8X!.R.K.M.h.u.} | Y L P K N f i 9 8 * = % % % % % = $ $ $ $ $ $ $ $ $ $ $ $ $ $ $ $ $ @ $ $ $ @ @ @ @ @ . . . . . . . . . . . . . . . . . . . . . . . . . . . . . . . . . . @ @ @ @ @ @ @ @ @ @ @ . . @ . . . . . . . . . . . . . . . # # # @ @ @ . . @ @ @ @ # # @ @ # @ @ @ @ @ @ @ . . . . . . . @ @ @ @ @ @ . . @ @ @ @ @ @ @ @ @ @ $ $ $ $ @ @ @ $ $ $ $ $ $ @ @ @ @ @ @ @ . . . . . . . . . . . . . . . . . @ @ @ @ # # @ @ $ # & & & ; ; ; ; ; ; ; ; * ; ; & & & & # # # # # # # # # # % % % % % % % % % * % % % % % % % % % % # % # # # $ $ $ $ $ $ # & = = = > > > > 8 8 8 > 7 7 9 9 8 ; ; * % % = = # @ @ $ $ = = = % * 7 9 # # # # # # # # ; w 9 $ * s 9 = * @ # * * 9 9 * # $ # % % * % # * = % ; 8 ; 8 9 7 9 7 9 s s s s B B ~ _ E B d B Q C B B s w 7 7 ; s 9 d ` s . s 9 9 9 8 ; ; ; . @ % * ; 7 ; % * ; 7 * @ @ # % $ 9 s # 7 9 w s s 9 7 ; * * * * % % % % % % $ % % $ % % % % % % * 8 8 8 * * * 6 7 * * % % # $ $ @ @ @ @ @ @ @ . . @ @ @ @ $ # # = * * 6 6 8 7 9 9 8 9 q q q q 9 q 7 q q 0 0 0 0 0 0 V V V V V V V N V V N V V V V i 0 8 0 i i i i s N N N N N J J P P J J K P K J P J J P P P P L L I Y ] [ } } } h.h.h.l.l.c.K.P.^.E.E.~.E.^.^.^.^.^.K.c.c.h.d.} { { { { [ [ { d.s.j.x.z.c.V.U.!.8XrXiXsXgXcXcXbXBXAXAXCXCXCXCXDXDXSXFXGXGXFXFXDXDXSXSXSXSXDXDXDXSXSXSXDXDXDXCXCXZXZXDXDXCXCXCXCXCXCXCXCXDXDXDXCXCXCXCXCXCXCXCXCXCXCXSXSXSXSXSXSXDXDXDXDXSXSXSXSXSXSXSXSXSXSXFXFXSXFXFXFXFXFXFXGXGXGXGXGXGXFXFXFXFXGXFXFXFXFXFXFXFXFXGXGXFXFXFXGXGXGXGXGXGXFXFXFXGXGXGXGXFXFXFXFXFXFXFXFXFXFXFXFXFXFXFXFXFXFXFXFXGXGXFXFXGXGXGXGXFXFXGXGXGXGXGXGXFXFXGXGXGX",
"s.g.f.j.x.x.j.j.j.j.x.j.j.j.j.j.j.j.j.g.s.s.s.s.h.h.j.k.x.z.n.n.m.P.P.R.R.!.!.8X8XrXtXiXiXdXfXfXfXfXkXkXzXzXzXcXcXzXzXzXzXgXfXfXgXgXsXdXdXdXdXpXpXpXdXpXdXdXdXdXfXkXkXzXcXcXcXvXbXbXBXVXVXVXNXNXNXNXcXcXcXzXgXgXgXgXgXgXhXgXgXgXhXhXhXuXuXuXuXuXiXdXdXuXwX8X!.R.P.M.k.u.u.{ ] U L P J f i 9 8 * % $ = % % = $ $ $ $ $ $ $ $ $ $ $ $ $ $ $ $ $ $ @ $ $ $ @ @ @ @ . . . . . . . . . . . . . . . . . . . . . . . . . . . . . . . . . . . @ @ @ @ @ @ @ @ @ @ @ . . . . . . . . . . . . . . . . . . @ @ @ . @ . . . @ @ # # # # # # # @ @ @ @ @ @ @ . . . . . . . @ @ @ @ @ . . . . @ @ @ @ @ @ @ @ @ $ $ $ $ @ @ @ @ $ $ $ $ $ @ @ @ @ @ @ @ @ . . . . . . . . . . . . . . . . . @ @ # # # @ @ # # & & & * ; ; ; & * ; ; ; ; ; & & # & & & # # # # # # # # % % % % % % % % % % % % % % % % % % % % $ $ # # # $ $ $ @ $ $ # & = * * > > > 8 8 9 8 > 8 7 9 9 9 ; ; * % # # = = # = % % % % % 8 9 8 @ @ # = * * = % # @ d s % $ 9 w 8 * # % ; 8 9 9 ; * ; ; 8 9 9 9 9 * * * ; 8 * 8 9 9 9 w s B B B B B s B ~ B s d B B d B B d w 7 7 1 # C X.E 9 9 s s 9 ; 9 1 ; ; 9 s w w 9 7 7 9 9 9 9 h d d s 9 % 7 s s w 7 * 8 8 7 7 * * 7 7 * % % % % % $ $ % % $ % % % % % * 6 8 8 8 7 8 7 7 9 8 7 6 % % = $ $ @ @ @ @ @ @ @ . @ @ @ @ $ # # % * * 6 6 8 7 7 7 9 9 q q q q q q q q q 0 0 0 0 0 V V V V V V V V V V V V V V V i i 0 0 0 i i i s N N N N N N J P J J P P L L P P P P P P L L L L I I ] | } } h.h.h.l.c.K.K.P.(.^.^.~././././.^.^.^.^.P.P.K.c.h.h.} } { { { { { } s.j.z.c.c.n.I.R.7X8XuXdXgXzXcXbXBXBXAXCXCXCXCXCXDXDXFXFXFXFXFXHXDXSXSXSXDXDXDXDXSXSXDXDXDXDXCXCXCXCXCXCXCXCXCXCXCXCXCXCXCXCXCXCXCXCXCXCXCXCXCXCXCXCXCXCXCXSXSXSXDXDXCXCXZXDXSXSXSXSXSXSXSXSXSXSXSXSXFXFXFXFXFXFXGXGXGXGXGXFXFXFXFXGXFXFXFXFXFXFXFXFXGXGXFXFXFXFXGXGXFXGXGXGXFXFXGXGXFXFXFXFXFXFXFXFXFXFXGXGXFXFXFXFXFXFXGXGXFXFXGXGXFXFXGXGXGXGXFXFXGXGXGXGXGXGXFXFXFXFXGX",
"g.s.g.j.j.j.j.j.g.j.j.j.j.j.j.j.j.j.j.g.s.s.s.s.h.h.j.j.x.z.b.n.m.V.P.P.R.R.!.7X8XrXrXuXiXdXfXfXfXfXfXzXzXzXzXzXcXcXzXzXzXzXzXgXgXgXfXdXdXdXdXpXdXdXdXdXdXdXdXsXkXkXzXzXcXcXcXcXvXvXvXvXNXvXvXvXcXcXzXzXgXfXdXdXdXiXuXuXuXuXuXuXuXwXwXwXwXwXwXuXuXuXuX9X8X8XE.R.I.M.z.h.u.} [ ] L L K N s u 8 = % % $ $ = = $ $ $ $ $ @ @ @ $ $ % $ $ $ $ $ # $ $ @ @ @ @ @ @ @ . . . . . . . . . . . . . . . . . . . . . . . . . . . . . . . . . . . . . . @ @ @ @ @ @ @ @ @ . . . . . . . @ . . . . . . . @ @ @ . @ . . . . . @ @ @ # # # # # $ # @ @ @ @ @ @ . . . . . . @ . . . . . . . . . @ @ @ @ @ @ @ @ @ @ $ $ @ @ @ @ @ @ $ $ $ $ $ $ $ @ @ @ @ @ . . . . . . . . . . . . . . . o . . @ # # # # # # % & > ; ; ; ; ; ; ; ; ; ; ; & & & & & & & # # # # % % % % % % % % % % % % % % % % % % % % % % % % $ $ $ # # # $ $ @ $ # # # = * 8 8 > ; 8 9 9 9 8 8 9 9 9 9 9 ; * % # $ # % % % * * % # * 8 7 * . = = % = # # % * # B s = & 9 s w 9 9 9 9 w 9 ; ; 9 9 9 9 9 w s s s B g s w 9 9 9 w w w w s s B ! Q d d E C d d d d w d C B d w w h h `  .C B s 9 d w w d d h g E C B d e w s B B B d E ! B B ` 7. .! d ; ; 7 9 9 7 7 7 7 7 7 * % % % % % % $ $ $ $ % % * 6 6 7 8 8 9 9 9 9 9 9 9 9 9 8 6 * * = # @ @ @ @ @ @ @ @ @ @ @ @ @ $ # % * * 6 6 6 8 8 8 9 9 q q q q q q 7 q 0 0 0 0 0 0 V V V V i V V V V V V V V V i i i 0 i i i i i N N N B N N J J P P P P L L L L L P P P L L L L I ] ] ] } d.h.h.l.c.S.(.(.^.^.^././././././././././.E.^.^.P.c.l.h.h.} } } } { { } s.j.z.c.n.V.P.Q.!.8XuXdXfXgXcXcXBXBXAXAXAXCXCXCXDXDXDXDXSXFXFXFXDXDXDXDXDXDXSXSXSXSXDXDXDXCXCXCXCXCXCXCXCXCXCXCXCXCXAXCXCXCXCXCXCXCXCXCXCXCXCXCXCXCXCXCXCXCXCXCXCXCXCXCXCXCXCXDXSXSXSXSXSXSXSXSXSXSXSXSXFXFXFXFXFXFXGXGXGXGXFXFXFXGXGXGXFXGXFXFXFXGXGXGXFXFXFXFXFXFXFXFXGXGXFXFXFXFXFXFXGXFXGXGXGXFXFXFXGXGXGXGXFXFXFXFXGXGXGXGXFXFXFXFXFXFXFXFXFXFXFXFXFXFXFXFXFXFXFXFXGX",
"s.s.s.g.j.j.j.j.g.j.j.j.j.j.j.j.j.j.j.g.j.s.h.h.s.h.j.j.x.x.z.n.n.m.V.P.U.R.!.!.8XrXrXtXiXiXdXfXfXfXfXzXzXzXzXzXzXcXcXzXzXzXzXzXgXgXfXdXdXdXdXpXdXdXdXdXdXdXsXfXfXzXzXcXcXcXcXcXcXcXcXvXvXvXcXcXcXzXgXfXfXdXiXuX8X8X~.!.!.~.~.~.~.~.E.!.!.7X8X8X9X9X9X8X8X!.E.R.K.M.z.h.h.u.} [ Y L K N s u 8 = * % $ $ = % $ $ $ $ @ @ @ @ $ $ % % $ $ $ $ # $ @ @ @ @ @ @ @ @ . . . . . . . . . . . . . . . . . . . . . . . . . . . . . . . . . . . . . . @ @ . . @ @ @ @ @ @ . . . . . @ @ @ @ @ . . . . @ @ . . . . . . . . @ @ @ @ # # @ # $ @ @ @ @ @ @ @ . . . . . . . . . . . . . . . @ @ @ @ @ @ @ @ @ . @ @ $ @ $ @ @ @ @ $ $ $ $ $ $ @ @ @ @ @ @ . . . . . . . . . . . . . . o o @ @ @ # # # # # % * ; ; ; 1 1 1 > > & & ; ; ; & & # & & ; # # # # % % % % % % % % % % % % % % % % % % % % % % % # % $ $ $ # # # $ $ @ $ # # # & ; 9 9 9 8 9 9 9 9 9 9 8 8 9 9 9 8 * % # $ # # $ # % % # % ; 8 % # % # % = = * * * ; * B 9 # ; s C s ; 9 9 s d s w s 9 9 9 9 7 9 w s d ~ ~ B B C C B C B d s h d Q ..` W B d d C ` ` W e d C C C B C C ! 8.Q g B 9 w w C C d h C ! Q C d d B B W ! ~ C g E ! E ` ....d s B s s s 9 ; ; 7 9 7 7 % % % % % 5 5 % % $ $ % % 6 6 7 7 9 9 9 9 0 0 0 9 9 9 9 9 9 8 6 * = % @ @ @ @ @ @ @ @ @ @ @ . @ @ # = * = 6 6 6 6 8 8 9 9 8 q q q q q 7 0 0 0 0 0 0 0 V V V V i i V V V V V V V V i i i i i i i i N N N N N N J J P P P P P P L P L L L L L I I I Y ] ] ] } u.h.h.l.c.K.(.^.^././././.hXhXeXhXhXhX/./././.~.^.^.P.c.l.h.d.} d.u.} { u.s.j.c.n.n.V.P.R.W.!.8XiXdXgXcXcXNXBXBXAXAXAXCXCXDXDXDXDXDXDXSXSXDXDXDXDXDXDXSXSXSXDXDXDXDXCXCXCXCXCXCXCXCXCXCXCXCXCXCXCXAXAXAXAXCXCXCXCXCXCXCXCXCXCXCXCXCXCXCXCXCXCXCXCXCXCXCXCXSXSXSXSXSXSXSXSXSXSXSXSXFXFXFXFXFXFXGXGXGXFXFXFXGXGXGXGXGXGXFXGXFXGXGXGXFXFXFXFXFXFXFXFXGXFXGXGXFXFXFXFXGXGXGXGXGXFXFXFXGXGXGXGXFXFXFXFXGXGXGXGXFXFXFXFXFXFXFXFXFXFXFXFXFXFXFXFXFXFXFXFXFX",
"s.g.f.f.f.f.j.j.j.j.j.j.j.j.j.g.k.j.j.j.j.j.j.j.j.h.h.h.j.x.x.z.c.c.M.P.P.P.Q.W.7X8XrXuXiXpXdXfXfXfXkXzXzXzXzXzXcXcXcXzXzXzXzXzXgXgXgXfXdXdXdXdXdXdXdXdXdXdXfXfXfXzXzXzXzXcXcXcXcXcXcXcXcXcXcXzXgXgXfXdXuXuX8X8X!.R.R.R.P.P.P.P.P.P.P.P.P.R.T.!.7X8X7X6XT.T.E.R.I.M.M.z.j.u.} [ ] L P N f i 8 = % % $ $ $ $ % % % % = $ $ $ $ % $ $ # # # $ $ $ # @ @ @ @ @ @ @ . . . . . . . . . . . . . . . . . . . . . . . . . . . . . . . . . . . . @ @ @ @ @ @ @ @ @ @ . . @ . . . . . . . @ . . . . . . . . . @ @ @ @ @ . . . @ @ @ @ @ @ $ @ @ @ @ # @ @ @ @ . . @ @ @ . . . . . @ . . . @ @ @ @ @ @ @ @ @ @ @ @ $ $ @ @ @ @ $ # # # # $ @ @ @ @ . . . . . . . . . . . . . . . o o o # # & & & & * * * * ; ; ; ; ; > ; 1 ; ; & & # & # # & # # # # # % % % % * % * 5 5 5 % % % % % % % % $ % % % % % # $ $ $ $ @ $ $ $ $ # # & = * * * > 9 9 9 9 9 9 9 9 1 9 9 9 9 9 9 8 # # # @ $ % % # % * @ 9 9 # ; $ $ % * % # * ; ; > s # * d s a s w ; ; 9 w 9 w g g B d s s w h w h ! C w w s g B ~ E E  .C X. .X.( C Q C C ! ` 8.X.Z Q Z d B B e g ( X.! C C C d w ` ` C ! ` ( Q e Z Q ^ ` C W C C ` E 9 B ..` B ; 9 w ~ ~ d 7 7 9 7 7 9 9 * % % $ 6 8 @ . % $ % % = 8 9 7 7 0 9 9 9 i s i 9 0 s 0 i 0 9 6 * * * & . # # @ @ . # @ @ . . @ @ # # = $ 6 6 8 8 8 7 7 9 9 9 q q q q 9 0 0 0 q q 0 V 0 V V V V V V V V V V V V V i 0 i i 0 i i N N N N N K K P P P P P P P L L L L L L I Y Y I Y ] ] | { } h.l.c.c.(.(.(.^././././.IXhXhXnXhXhXhXeX/././././.^.P.K.c.c.k.s.d.d.u.u.u.d.j.c.V.B.P.R.R.!.7XrXpXdXgXgXzXcXNXBXBXAXAXCXCXCXCXDXDXSXSXSXSXDXDXDXDXSXSXSXSXSXDXSXCXCXCXCXCXCXCXCXCXCXCXAXAXCXCXCXAXAXAXAXAXAXAXAXAXAXAXAXAXCXCXCXCXCXCXCXCXCXCXCXCXCXCXDXDXSXSXSXSXSXSXSXSXSXSXFXSXSXSXFXFXFXFXFXFXFXFXFXFXFXFXFXFXFXFXFXFXFXFXFXFXGXGXGXFXFXFXFXFXFXFXFXFXGXGXGXFXFXFXFXFXFXFXFXFXFXFXFXFXFXFXFXFXFXFXFXFXFXFXFXFXFXFXFXFXFXFXFXFXFXFXFXFXFXFXFXFXFX",
"d.g.g.f.f.f.j.j.j.j.j.j.j.j.j.g.j.j.j.j.s.s.j.j.s.s.s.h.j.x.z.z.z.c.c.V.B.P.Q.W.!.7X8XrXtXiXdXfXfXfXkXzXzXzXzXcXcXcXcXcXzXzXzXgXgXgXgXfXdXdXdXdXdXdXdXdXdXdXdXsXgXkXzXzXzXcXcXcXcXcXcXcXcXcXzXzXsXdXdXuX8X8X!.R.R.P.c.c.l.l.c.l.l.l.c.c.M.P.U.Q.!.7X7X!.T.T.E.R.I.m.M.M.z.j.u.} ] L P N s u 8 = = = = = = = = = % % $ = $ = $ $ $ $ # # # # = = = $ @ @ @ @ @ @ @ . . . . . . . . . . . . . . . . . . . . . . . . . . . . . . . . . . . . @ @ @ @ @ @ @ @ @ @ . . . . . . . . . . . . . . . @ . . . @ @ @ @ . . @ @ @ @ # # # # @ @ . @ @ @ @ @ . . . . . . . . @ . . . @ . . . . @ @ @ @ @ @ @ @ @ @ $ $ $ @ @ @ @ $ $ # # # # # @ @ @ . . . . . . . . . . . . . . o # # # # # & & & & * * * * 1 1 ; ; > > > > > ; ; & & & & & # # & % % % % % * % % % 5 5 % % % % % % % % % % % % * % % # $ @ $ $ $ @ $ $ $ $ @ # # & = * * 8 > 9 9 9 9 9 9 9 9 9 9 9 9 9 9 9 # % # @ @ # % # @ # # s s % ; * * * * 8 9 9 8 ; s a s B E d d g s d s 9 s s g g Q ` ` ! ! Q Q C g B C g 1 1 h s d C  . .! 8.! Q Q Z Q ^ ` ( Q ` 8.^ ^ Q C C C d E ` ....W Q Z d ^ Q Q ^ ` X.8.^ Z Q C ^ Q Q ! !  .` C ! 8.8.8.Q w C B d s B B s 9 7 ; 9 0 9 ; ; 7 7 @ s ~ C C C C s 9 8 9 9 9 s s s s s s s s s s 9 9 9 0 9 * # & # & @ @ # . . @ . . . @ @ @ # = $ * 6 6 6 8 9 9 9 9 9 0 q q q 9 0 0 0 q q 0 0 0 0 V V V V V V V V V V V V 0 0 0 0 0 i V N N N N N N K P P P P L L L L L L I Y Y Y ] ] ] ] ] [ } } h.l.c.K.(.(.^.^././././.hXhXnXnXnXnXhXhXhXIXhX/././.~.^.P.K.c.k.h.h.d.d.s.d.d.j.z.n.B.U.R.!.!.7XrXuXdXfXgXzXcXcXBXBXBXAXAXCXCXCXCXCXDXDXSXSXDXDXDXDXSXSXDXDXDXDXSXCXCXCXCXCXCXCXCXCXCXCXAXAXAXAXAXAXAXAXAXAXAXAXAXAXAXAXAXAXCXCXCXCXAXCXCXCXCXCXCXCXCXCXDXDXCXCXSXSXSXSXSXSXSXSXFXSXSXSXFXFXFXFXFXGXFXFXGXGXFXFXFXFXFXFXFXGXFXFXFXFXGXGXGXFXFXFXFXFXFXFXFXFXFXFXGXFXFXFXFXFXFXFXFXFXFXFXFXFXFXFXFXFXFXFXFXFXFXFXFXFXFXFXFXFXFXFXFXFXFXFXFXFXFXFXFXFXFX",
"d.s.s.f.f.j.j.j.j.j.j.j.j.j.j.j.j.j.f.s.s.s.s.s.d.d.s.s.j.x.z.z.c.c.c.n.V.B.U.W.W.!.7XrXrXuXpXsXfXfXfXgXgXzXzXcXcXcXcXcXzXzXgXgXgXgXgXfXdXdXdXdXdXdXdXdXdXdXdXsXfXzXzXzXzXcXcXcXcXcXzXzXzXzXzXgXdXiXuX8X7XW.R.P.c.l.h.7.} } } } } } 7.h.l.c.B.P.T.T.W.W.T.T.T.R.I.P.I.K.M.z.h.u.[ ] P N i 9 * % $ $ $ $ $ $ $ $ $ $ $ $ $ $ $ $ $ $ $ # # # = = # # @ @ @ @ @ @ @ . . . . . . . . . . . . . . . . . . . . . . . . . . . . . . . . . . . . . . . . @ @ @ @ @ @ @ . . . . . . . . . . . . . . @ @ . . . . @ @ @ . @ @ @ @ # # # # @ @ . @ @ @ @ @ . . . . . . . . . . . . . . . . . . @ @ @ @ @ @ @ @ $ $ $ $ $ $ @ @ $ @ @ $ $ # # # @ @ . . . . . . . . . . . . . . . # # # # # & & & & & * * ; 1 1 1 1 1 ; ; ; > ; ; ; & & & ; # % * % * % % * * 5 5 5 5 5 5 5 5 5 5 5 5 5 * % % % % % $ $ @ @ $ $ $ $ @ $ @ @ @ # # # & * * 8 9 9 9 9 9 9 9 9 9 9 9 9 9 9 9 ; ; ; * # @ # # % @ $ * s d 8 9 w 9 9 9 7 8 9 w s 9 s d d h 9 d B C E Q !  . .` Q ! ` ` ! Q ! ` ` Q C C C g d h e Q Q ` Q `  .`  .` ' ' ` ^ ` ` ^ ' ' ` ^ Z Z Q Z ` ^ ^ 1.Z Z ^ ^ ' Z ^ ' ^ ` ' A d C C Q C W X.8.8.` ` S.H.8.X.C Q ` ! C g g s h w 9 9 9 9 7 7 7 7 . ~ X.B 9 i 9 w ~ ! ~ ~ E E ~ ! ~ ~ ~ ~ E B B s s i 9 9 9 9 * = # # . @ # . @ @ . . . @ @ @ @ = = = 6 6 8 8 8 9 9 9 9 9 q q 6 9 0 0 0 q q q 0 0 0 0 V 0 0 0 V V V V V V V 0 0 0 0 0 i V V N N N N J K P P P L L L I I I I Y ] Y ] [ [ [ [ { } } d.h.c.K.(.(.^.^./././.uXhXhXhXnXnXnXnXnXhXhXhXhXhX/././.~.^.P.K.c.l.h.h.h.h.h.s.j.z.V.P.Q.W.!.!.8XrXuXdXfXgXgXcXcXNXBXBXBXAXAXCXCXCXCXCXCXDXDXDXZXZXZXZXZXDXDXSXSXCXDXCXCXCXCXCXCXCXCXCXAXAXAXAXAXAXAXAXAXAXAXAXAXAXAXAXAXAXAXCXCXCXCXCXCXCXCXCXCXCXCXCXCXCXDXCXCXCXCXSXSXSXSXSXSXSXSXSXSXSXFXFXFXFXFXGXGXGXGXFXFXGXGXGXGXGXGXFXFXFXFXGXGXFXFXFXFXFXFXFXFXFXFXFXFXFXFXFXFXFXFXFXFXFXFXFXFXFXFXFXFXFXFXFXFXFXFXFXFXFXFXFXFXFXFXFXFXFXFXFXFXFXFXFXFXFXFXFX",
"d.d.g.g.f.j.j.j.j.j.j.j.j.j.j.j.j.f.s.f.s.s.s.s.s.s.s.s.j.j.j.x.z.z.c.c.n.V.P.Q.W.!.7X8XrXuXpXsXfXfXfXfXgXzXzXcXcXcXcXcXcXcXzXgXgXgXgXfXfXdXdXdXdXdXdXdXdXdXdXdXfXzXzXzXcXcXcXcXcXcXzXzXzXzXsXsXpXuX8X!.W.R.c.c.h.} | _ L L L P L _ | } h.k.c.V.I.U.T.T.T.T.R.R.T.I.I.I.M.b.k.u.} ] P N i 8 * = $ $ $ $ $ $ $ $ $ $ $ $ $ $ $ $ % # # # $ @ @ @ # # @ @ @ @ @ @ @ @ . . . . . . . . . . . . . . . . . . . . . . . . . . . . . . . . . . . . . . . . @ @ @ @ @ @ @ . . . . @ . . . . . . @ . . @ . . . . @ @ @ . @ @ @ @ @ @ # # @ @ @ @ @ @ @ @ . @ @ @ . . . . . . . . . . @ @ . . @ @ @ @ @ @ @ @ $ $ $ $ $ $ $ $ @ @ @ $ $ $ # # @ @ . . . . . . . . . . . . . . # # # # # & & & & * * ; ; ; > 1 1 1 1 1 ; ; > ; ; ; & & * ; # % ; % % % * * 7 7 7 6 6 5 5 5 7 7 7 7 5 5 % % % % $ $ $ $ $ @ $ $ $ @ @ @ @ @ @ @ # & = * * * 9 9 9 9 9 9 9 9 9 9 9 9 9 9 ; ; * * * * # % ; 7 8 ; ; s s ; ; 9 7 ; * 7 7 ; # # # C E d d g d s h Q X...X. .` X.`  .` ` ..8...` ` ^ Q W ` ` Z Q ..` c d C C ` ' ( ^ Z C Z ` ' ^ ^ ' ' D Z A Z C x C Z 1.( Z ' 1.Z ' ' ' ' ^ Z F F e d F Z ' 8.X.` ^ ..X.8.' ^ W ` ` Q ` ! B d B d s h w 9 8 ; 8 ; s ! 8 @ i 9 s B ! ! E ~ ! E B d B K K B B B B K K B s i 9 9 9 > & # @ @ @ . = @ @ @ @ @ @ # # = = * 6 8 8 8 9 9 9 9 9 9 0 q q 9 9 q q q q q q 0 0 0 0 0 0 0 V V V V V V V 0 0 0 0 0 V V V N N N N K K P P P L L L U I I I Y Y Y ] [ { { { } } } h.l.S.(.(.^.^./././.eXhXhXhXhXnXnXnXnXnXnXnXhXnXhX/./././.E.^.P.K.c.l.k.j.j.j.j.x.c.V.U.Q.R.W.!.7X8XuXdXdXfXgXzXcXcXNXBXBXBXAXAXAXAXCXCXCXCXCXCXCXCXCXCXCXCXCXCXCXCXDXCXCXCXCXCXCXCXCXCXAXAXAXAXAXAXAXAXAXAXAXAXAXAXAXAXAXAXAXCXCXCXAXCXAXCXCXCXCXCXCXCXCXCXCXCXCXCXSXSXSXSXSXSXSXSXSXSXSXSXFXFXFXFXFXGXFXGXGXFXGXGXGXGXGXGXGXGXGXFXFXFXGXFXFXFXFXFXFXFXFXFXFXFXFXFXFXFXFXFXFXFXFXFXFXFXFXFXFXFXFXFXFXFXFXFXFXFXFXFXFXFXFXFXFXFXFXFXFXFXFXFXFXFXFXFXFXFX",
"d.d.d.g.g.j.j.j.j.j.j.j.j.j.j.j.j.h.h.f.h.h.s.s.f.s.s.s.s.j.j.x.x.z.c.n.n.V.B.P.W.!.7XrXrXuXpXdXfXfXfXgXgXgXzXcXcXcXcXcXcXcXzXzXgXgXgXfXgXfXdXdXdXdXdXdXdXdXdXsXfXzXzXcXcXcXcXcXcXzXzXzXzXsXaXpXrX8XW.Q.P.V.l.h.} _ L K N N N i N N L ] } d.x.n.m.I.T.T.T.T.T.R.T.R.T.R.m.M.z.h.} ] P f 9 * = = $ $ $ $ $ $ $ $ $ $ $ $ $ $ $ $ = # # # $ $ @ @ @ @ @ @ @ @ @ @ @ @ @ . . . . . . . . . . . . . . . . . . . . . . . . . . . . . . . . . . . . . . . @ @ @ @ @ @ @ . . . @ @ @ . . . . @ @ . . . . . . . . . . . . . . . . @ @ @ @ @ @ # @ @ @ @ @ @ @ @ . . . @ . . . . . @ @ . @ @ @ @ @ @ @ @ @ @ @ $ $ $ @ @ $ $ @ @ $ $ $ $ @ @ @ . . . . . . . . . .   X X X . o o & & & & & & ; ; > > > ; 1 1 1 1 1 9 1 1 > ; ; ; * & & ; # % % % % * * * 7 5 5 6 6 5 5 5 6 6 6 5 5 % % % $ $ $ $ $ $ @ @ $ $ $ @ @ @ @ @ @ # = * * * * * 1 1 9 9 9 9 9 9 9 9 9 9 9 9 ; ; * * ; ; ; ; 9 9 ; # # 9 w * # ; % * ; ; % # # ; B Q Q C Q ! B h W ......!  .` X.8.8.X.`  ...8...' ' ' ( ' ( Z ` 1.' C x x Z ( x ( ` ^ D A Z ' ' ^ ' Z A D Z D Z x ' ' ' ' A ' ' D ' D D ' ' D A A x x d Z X.1.x C ` X.Q ' ' ( ^ ( ( Q ( Q ! Q Q ` Q C C E E g a & B s * E ! E ` _ g a s g B E B s g B K K K K K K B K E B s 8 * > * * # @ @ . # @ @ @ @ @ @ # # = * * 8 8 9 9 9 9 9 9 0 0 0 0 q 6 7 6 6 6 q q q q q 0 0 0 0 0 V V V V V V V V 0 0 0 V V V V V N N J K P P L L L L L L L I Y Y Y ] ] [ { { } } } h.h.c.(.^.^.^.~././.eXhXhXnXnXnXnXnXnXnXnXnXhXhXnXhXhXhXhX/./.E.E.P.c.c.c.k.k.z.x.z.n.V.P.Q.T.W.!.8X8XuXiXdXfXgXgXcXcXNXBXBXBXBXAXAXAXAXCXCXCXCXCXCXCXCXCXCXCXCXDXDXCXCXCXCXZXZXCXCXCXCXAXAXAXAXAXAXAXAXAXAXAXAXAXAXAXAXAXAXAXAXAXAXAXAXAXCXCXCXCXCXCXCXCXCXCXCXCXCXCXSXSXSXSXSXSXSXSXSXSXSXSXFXSXSXFXGXGXFXFXFXFXFXFXGXGXGXGXGXGXGXGXGXFXFXFXFXFXFXFXFXFXFXFXFXGXFXFXFXFXFXFXFXFXFXFXFXFXFXFXFXFXFXFXFXFXFXFXFXFXFXFXFXFXFXFXFXFXFXFXFXFXFXFXFXFXFXFXFXFX",
"d.d.d.s.g.j.j.f.j.j.j.j.j.j.j.j.j.j.h.h.h.h.s.s.s.s.s.j.j.j.j.x.x.x.z.n.n.n.V.P.R.!.7XrXrXuXpXpXfXfXfXgXgXgXzXcXcXcXcXcXcXcXcXzXzXgXgXgXfXfXdXdXdXdXdXdXdXdXdXsXgXzXzXcXcXzXzXzXzXzXzXgXsXaXpXtX7X!.Q.P.n.z.h.} ] P N i 0 9 9 8 i N K I ] } j.n.n.B.Y.T.T.4XT.T.6XE.T.T.I.m.M.k.u.] J i 8 = = % % $ $ $ $ $ $ $ $ $ $ $ $ $ $ $ $ $ $ $ $ $ $ $ @ @ @ @ @ @ @ @ @ @ . . . . . . . . . . . . . . . . . . . . . . . . . . . . . . . . . . . . . . . . @ @ @ @ @ @ @ @ . . @ @ @ . . . . @ . . . . . @ . . . . . . . . . . . . . . @ @ # # @ @ @ @ @ @ @ . . . . @ . . . . . @ . . @ @ @ @ @ @ @ @ @ @ @ $ $ $ @ @ # $ $ @ $ $ $ $ @ @ @ . . . . . . . . . .   X X X . . o & & & & & & ; ; > > ; ; 1 1 1 1 9 9 1 1 ; ; ; ; * * & ; # % % % % * * 5 5 5 6 6 5 5 5 5 5 5 5 5 5 5 % % % % % $ $ $ @ @ @ @ @ @ @ @ @ @ # = = * * * * * 1 1 9 9 9 9 9 9 9 9 9 9 9 9 9 > 9 8 8 8 ; ; ; 8 @ . . ; 9 8 * % # % ; ; 9 s C E X.C g g h a a h X.X.Q Q E Q C C  .....1.8.1.8...1.' ' -.' Z A Z 1.Z Z ^ A ' Z A ' ' ' A e A ' ' 1.' D D ^ A Z ' 8.8./ x D A D D / D A D D D D A x F A A x ^ ( x W 1.` Q X.^ Q C W ! Q Q W ` X.!  .` ` `  . ._ ~ a w ~ ! ` B B E B a s B d B ` ` ~ E K E ~ E K g K K K K ~ ~ B a * * 9 # . & # . @ . . . . @ # = * 8 8 8 9 9 9 9 9 9 9 0 9 9 9 6 6 6 6 6 6 q q q q q q q 0 0 0 0 V 0 0 V V V V 0 V V V V V V V B N J K P L L I I I L L I Y ] ] Y ] ] { } } } d.h.h.l.S.^.^.^.~./././.hXhXnXnXnXnXnXnXnXnXnXnXnXhXnXnXhXhXhXeX/.~.^.^.P.c.c.c.c.c.z.z.n.V.P.Q.!.!.8X8X8XuXuXdXdXfXgXgXcXcXcXNXBXBXBXBXAXAXAXAXAXAXCXCXCXCXCXCXCXCXCXCXCXCXCXCXZXZXCXCXCXCXAXAXAXAXAXCXAXAXAXAXAXAXAXAXAXAXAXAXAXAXAXAXAXAXAXCXCXCXCXCXCXCXCXCXCXCXCXCXCXCXCXSXSXSXSXSXSXSXSXSXSXSXSXSXFXGXFXFXFXFXFXFXGXGXGXGXGXFXGXGXFXFXFXFXFXFXFXFXFXFXFXFXFXFXGXGXFXFXFXFXFXFXFXFXFXFXFXFXFXFXFXFXFXFXFXFXFXFXFXFXFXFXFXFXFXFXFXFXFXFXFXFXFXFXFXFXFXFXFX",
"d.d.d.s.g.f.f.g.j.j.j.j.j.j.j.j.j.j.j.h.h.s.s.s.d.s.s.j.j.j.j.j.k.x.z.c.c.n.V.B.Q.W.7X8XrXrXiXpXsXfXfXgXgXgXzXzXcXcXcXcXcXcXcXcXcXgXgXgXgXgXdXdXdXdXdXdXdXdXsXfXgXzXzXzXzXzXzXzXzXzXzXsXsXiXrX9X6XW.P.n.z.h.} ] P N i 9 6 6 6 6 0 i N L ] } j.c.n.B.Y.T.T.6X6X4X6XT.!.!.R.I.M.z.u.] J i 8 = % % % $ $ $ $ $ $ 5 $ $ $ $ $ $ $ $ # $ $ $ # # $ $ @ @ # # @ @ @ @ @ . . . . @ . . . . . . . . . . . . . . . . . . . . . . . . . . . . . . . . . . @ @ @ @ @ . . . @ @ @ @ @ @ . . . . . . . . . . @ @ . . . . . . @ @ @ @ . . . @ @ @ # # # @ @ @ @ @ . . . @ @ @ . . . . . . @ @ @ @ . . . @ @ @ @ @ @ $ $ $ @ @ # # # # $ $ $ $ # @ @ @ . . . . . . . . .   X X X . . o & & & & & ; ; ; > > 1 > 1 1 1 1 9 9 1 1 ; > ; ; ; ; ; ; % % * * * * 5 7 6 7 6 7 6 7 6 6 5 5 5 5 5 5 % % % % % % $ $ @ @ $ $ @ @ @ @ @ @ # = * * * * * * 1 9 9 u 9 9 9 9 9 9 9 9 9 9 9 9 9 9 ; ; * # # # ; * ; * 7 9 ; # ; ; 7 s C ! Q C s ; w d h d C ! X.` ` ` ! C g Q ` Q Z Q ' X...' ' ' ' -.' D ^ D -.F A D Z D Z ' ' ' ' A A ' 1.' ' ' ' ^ D D ^ 8.8.' A x D D / / ' ^ D / D A D A A F F Z A ^ ^ ^ ' ' Z Z ' D Z Z C Z W ! W !  . .!  .X. ._  .X.....X.v.!  . .` X.7....... .X.S.S. .! ~ _ _ _ ~ ~ ~ ! ~ K K !  . .B 9 9 8 . # & . @ @ . . @ # = * 8 8 8 9 9 u u 0 9 9 9 0 9 9 8 8 8 6 6 6 q q q q q q q q 0 0 0 0 0 0 0 V V V V V V V V V V V V N N N P P L I I I I I Y Y ] ] ] ] ] [ { } d.d.h.h.h.l.K.(.^.^./././.uXhXnXnXnXnXnXnXnXnXNXNXnXnXnXnXnXnXhXhXhX/./.E.^.P.P.c.c.c.c.n.n.n.V.P.R.!.!.8X8X8XwXuXuXdXhXgXgXcXcXcXNXNXBXBXBXBXBXBXAXAXAXAXAXAXCXCXCXCXCXCXCXCXCXZXZXZXZXCXCXCXCXCXCXCXCXCXCXCXCXCXCXCXCXAXAXAXAXAXAXAXAXAXAXAXAXAXAXCXCXAXCXCXCXCXCXCXZXZXZXZXZXSXSXSXSXSXSXSXSXSXSXSXSXSXSXFXGXFXFXFXFXFXFXFXFXGXGXFXFXFXFXFXFXGXFXGXGXFXFXFXFXFXFXFXFXGXGXGXFXFXFXFXFXFXFXFXFXFXFXFXFXFXFXFXFXFXFXFXFXFXFXFXFXFXFXFXFXFXFXFXFXFXFXFXFXFXFXFXFXFX",
"d.d.d.s.g.f.g.g.j.j.j.j.j.j.j.g.j.j.h.h.s.s.s.s.d.s.s.s.s.s.s.h.k.x.x.z.c.c.V.P.U.Q.!.7XrXrXuXpXdXsXfXgXgXgXgXzXcXcXcXcXcXcXcXcXcXgXgXgXgXgXdXdXdXdXdXdXdXdXgXgXgXgXzXzXzXzXzXzXzXgXfXsXpXiX9X8XT.I.n.z.h.} ] L N i 8 8 6 6 6 6 9 i N P ] } h.z.n.B.I.T.T.6X6X6X6XT.!.6XT.I.M.l.u.] J u 8 = % * % 5 6 5 6 5 % 5 $ $ $ $ $ $ $ % = = # $ $ @ @ @ @ @ # # @ @ @ @ @ @ . . . . . . . . . . . . . . . . . . . . . . . . . . . . . . . . . . . . . . # @ # @ @ . . . @ @ @ @ @ @ . . @ . . . . . . . @ @ . . . . . . @ @ . @ @ @ @ @ @ @ # # @ @ @ @ @ @ @ . @ @ @ @ . . . . . @ @ @ . . . . . . @ @ @ @ $ $ $ $ $ $ @ # = = # $ $ $ # & @ @ . . . . . . . . . .     . . . . # & ; ; ; ; ; 1 9 9 9 9 1 1 1 1 1 1 1 ; ; ; ; * ; ; ; % % * * * * 5 7 7 7 7 7 q q q 6 6 6 6 5 6 5 5 % $ % % $ $ $ @ @ @ $ $ @ @ @ @ @ @ = # & # & = * 8 > 1 9 9 u 9 9 u a 9 9 9 9 9 9 9 > * # # # # # * # & % @ ; w s 9 w C Q ~ C C C E E Q ` E E Q Q ` `  ... . .C Q ^ C W Z Q Q Q ' ' ' 8.-./ / D D D ' D Z A D D / 1.D A -.1.' D Z ^ ' ' ' Z A D D ' -.' / A F D ' ' ' ' / / D F F F D x x F A x Z ( ' ^ Z ^ ^ D A Z Z W Q ( C E ( ` ..8... . .X.S.S.S.8. . .S...S.S.S.S.S.S.8...S.(.v.7.....X.o.! | _ ~ ~ ~ s 9 E S.X.B s s & . @ @ $ @ @ @ @ & * 8 8 8 9 u u i u 9 i i i 0 0 0 0 8 8 8 8 q q q q q q q q q q q 0 0 0 q 0 0 V V V V V V V V V V V N N N P L I I I I I Y ] ] ] ] ] [ [ [ } } d.h.h.h.l.c.(.^.E./././.uXhXhXnXnXnXnXnXnXnXnXNXNXNXnXnXnXnXnXnXhXhX/./.E.^.^.P.P.c.c.c.B.B.B.B.P.U.R.!.8X8X8XwXuXuXdXdXgXgXgXcXcXcXNXNXNXBXNXBXBXBXBXBXAXAXAXAXCXCXCXCXCXCXCXCXZXZXZXZXCXCXZXCXCXCXCXCXCXCXCXCXCXCXCXCXAXAXAXAXAXAXAXAXAXAXAXAXAXAXCXCXAXCXCXCXCXCXCXCXDXSXSXSXSXSXSXSXSXSXSXSXSXSXSXFXSXSXFXGXFXFXFXFXFXFXFXFXFXFXFXFXFXFXFXFXGXGXGXGXFXFXFXFXFXFXFXFXGXGXGXFXFXFXFXFXFXFXFXFXFXFXFXFXFXFXFXFXFXFXFXFXFXFXFXFXFXFXFXFXFXFXFXFXFXFXFXFXFXFXFXFXFX",
"i.i.d.d.g.g.f.f.f.f.j.j.j.j.j.g.j.j.j.j.j.s.d.d.s.s.s.s.s.s.s.h.j.j.x.z.z.n.V.B.I.U.W.6X7XrXiXiXfXfXfXfXfXgXzXzXcXcXcXcXcXcXcXcXzXgXgXgXgXfXdXdXdXdXdXdXhXdXdXdXgXgXgXgXgXgXgXgXfXfXsXdXiXrX8X!.R.P.c.k.s.{ ] L N p i 8 8 8 8 6 8 0 i P Y } g.x.n.B.U.R.R.T.6X6X6X6X6XW.T.I.M.k.} ] N i 8 8 8 % 6 6 6 6 6 6 6 * % % = $ $ $ $ $ $ $ $ @ @ @ @ @ $ $ @ @ . . . @ @ @ @ . . . . . . . . . . . . . . . . . . . . . . . . . .   . . . . . . . . . . . @ . @ @ @ @ @ @ @ @ @ @ @ @ @ @ @ @ . . . . . @ @ . . . . @ . @ @ @ @ @ @ @ @ # # # @ @ @ @ @ @ @ @ @ @ . . . . . . . . . @ @ @ @ @ @ @ @ @ . @ @ @ @ @ @ $ $ = = $ # # # # @ @ @ . . . . .   . . . . . . . . . . . o # & # & ; ; ; ; 1 1 1 1 1 1 9 9 1 1 ; ; > ; ; * * * ; ; * % % * 5 7 7 7 6 5 5 6 7 7 q q 6 6 5 5 5 5 5 5 5 5 $ $ @ @ @ @ @ @ @ @ @ @ @ @ = = # % = * * * 9 9 9 8 9 9 9 9 9 9 9 9 a u 9 > # * * & @ @ & * * % ; ; ; 9 s B C B d ; B ..Q C C Q Q C C E E E ! Q C C ( X.' ( Q ^ Z C C A Q ' ' ' ' ' / D / D / / ' D A D D D A ' 1.' D A A A ' ' D F A D D -.' 1./ D F A D D D D / / / D A D D x x 4 4 4 x ^ ' ^ ' D ' D Z D ' ' ' ' Z ! Q X.X...! ! ..S.(.S.....S.S.8.X.X.X.! ! ` `  . .Q ~ `  .X..... .~ ! _ ~ ~ ~ B s u B 7.B 9 s 9 7 $ # @ $ @ * * 9 9 9 9 u u i i i i i i i i 0 0 0 0 9 9 8 6 q q q 7 5 q q q q q q q q q q V V V V V V V V V V V V B N N N P P L I I I Y Y Y Y ] ] ] [ | { } } h.h.h.h.l.c.(.^.^./././.uXhXhXnXnXnXnXNXnXnXnXBXnXnXnXnXnXnXnXhXhXhX/./.~.E.E.R.P.P.P.P.P.B.P.P.P.R.R.!.8X8X8XuXwXuXuXhXfXgXgXgXzXcXcXcXNXcXcXNXBXBXBXBXAXAXAXAXCXCXCXCXCXCXCXCXCXCXCXCXSXDXDXCXCXCXCXCXCXCXCXCXCXCXCXCXCXCXCXCXCXAXAXAXCXAXAXCXCXCXCXCXAXAXCXCXCXCXZXZXZXZXZXZXSXSXZXZXSXSXSXFXFXFXSXFXFXFXFXFXFXFXFXFXFXFXGXGXGXFXFXFXGXGXFXFXFXFXFXFXFXFXFXFXFXFXFXFXFXFXFXFXFXFXFXFXFXFXFXFXFXFXFXFXFXFXFXFXFXFXFXFXFXFXFXFXGXGXFXFXFXFXFXFXFXFXFXFXFXFXFXFXFX",
"i.i.d.d.d.g.g.g.j.f.j.f.g.g.s.s.s.s.s.s.s.s.s.d.s.s.s.s.s.h.h.j.s.h.j.x.z.n.V.B.I.U.W.!.7X8XtXiXdXdXfXfXfXgXzXcXcXcXcXcXcXcXcXcXcXzXgXgXgXgXhXdXdXdXdXdXhXdXdXdXgXgXgXgXgXgXgXgXfXdXdXuXuX8X!.!.P.P.c.h.d.{ ] L J N p i 9 9 9 8 9 9 i J I { g.z.n.B.R.R.T.W.6X6X6X6X4XW.Y.U.M.x.} ] J p 8 9 9 9 8 8 8 8 8 8 6 6 * * = $ $ $ $ $ $ $ $ @ @ @ @ @ $ $ @ @ @ @ . . @ @ @ . . . . . . . . . . . . . . . . . . . . . . . . . .   . . . . . . . . . . . @ @ @ @ @ @ @ $ $ @ @ @ @ @ @ @ @ @ . . . . . @ @ @ @ @ @ @ @ @ @ @ @ @ @ @ @ @ @ @ @ @ @ @ @ @ @ @ @ @ @ @ @ @ @ @ @ @ @ @ @ @ @ @ @ @ @ @ @ @ @ @ @ @ @ $ $ $ $ $ $ $ $ $ @ @ @ . . . . . . . . . . . . . . . . . o o # # & ; ; ; ; ; ; 1 1 9 9 9 9 1 1 ; ; ; ; ; * * ; ; * * % * * 5 7 7 7 6 7 7 7 q 7 6 5 6 5 5 5 5 5 5 5 5 5 $ $ $ $ @ @ @ @ @ @ @ @ @ @ # = % % * * * * 8 9 9 9 9 9 9 9 9 u a 9 9 * > > 9 & & > * @ . & % $ # % % 9 s B s w d e C ` C g C E Q E C E Q ` ! ! Q ` 1.8.1.' X.( Z Z Z A C A D ^ -.' / ^ / A D D / / D ^ ^ A ' ' D D ' ^ A D -./ D D D D / -./ ' -.-.A F A / / D D D D ' ' / ' A l 4 e e e A D D / :.1.8.-.' ' ^ ^ ^ ` ( ` 8.X.` X.S.X...1... ..... .!  .X.` Q ~ ! (  .! W Q E ! ` X.....! E ~ E E E ~ K s u B ~ s # 9 0 9 % @ 8 = @ 8 8 i u u u i i i i i i i i i i i 0 0 7 8 8 6 6 q 6 q 6 5 q q q q q q q q q 0 V V V V V V V V V V V B B N N P L I I I I Y Y Y Y ] ] [ { } } } u.h.h.h.k.c.c.P.^./././.eXhXhXhXnXnXnXnXNXnXnXBXBXBXnXnXnXnXnXnXhXnXhXeX/./.~.E.R.P.P.P.P.P.P.P.P.R.R.!.!.~.8XuXuXuXuXuXdXdXhXgXgXgXzXcXcXcXcXcXcXNXBXBXBXBXBXAXAXAXAXAXAXCXCXCXCXCXCXCXCXCXCXCXCXCXCXCXCXCXCXCXCXCXCXCXCXCXCXCXCXCXCXCXCXCXCXAXCXCXCXCXCXAXAXCXCXCXCXZXZXZXZXZXSXSXSXZXZXZXFXJXFXFXFXFXFXFXFXFXFXFXFXFXFXFXFXGXGXGXGXFXFXGXGXFXFXFXFXFXFXFXFXFXFXFXFXFXFXFXFXFXFXFXFXFXFXFXFXFXFXFXFXFXFXFXFXFXFXFXFXFXFXFXFXFXFXGXGXGXFXFXFXFXFXFXFXFXFXFXFXFXFXFX",
"i.i.d.d.d.g.g.f.j.j.j.f.f.g.g.s.s.s.s.d.d.d.d.d.d.d.d.s.s.s.h.j.s.h.h.j.x.c.V.B.B.U.W.W.7X7XrXtXpXdXdXfXfXgXzXcXcXcXcXcXcXcXcXcXcXzXgXgXgXgXdXdXhXhXhXdXdXdXhXhXfXfXgXgXgXfXsXsXsXdXuXuXrX8X!.Q.P.B.z.j.s.{ ] L J N f i i i 9 9 9 9 i N I { g.z.n.B.R.T.T.6X6X6X6X6X4XW.Y.Z.M.x.u.] P f i i s i 9 9 9 9 9 9 8 8 8 6 * % = $ $ $ $ @ $ @ @ @ @ @ @ @ @ @ @ @ . . @ @ @ . . . . . . . . . . . . . . . . . . . . . . . . .       . . . . . @ . . . @ @ @ @ @ @ @ @ @ @ @ @ @ @ @ @ @ @ @ . . . . . . . . . . . . . @ @ @ @ @ @ @ @ @ @ @ @ . . . @ @ @ @ @ @ @ @ @ @ @ @ @ @ @ @ @ @ @ @ @ @ @ @ @ @ @ @ = = = $ $ = $ $ $ # # @ @ @ @ . . . . .   . . . . . . . . . . X . . # # ; ; ; ; ; 1 ; > > 9 9 1 > 1 1 > 8 > > ; ; * * * * 5 * * 5 5 7 7 5 6 7 7 q q 7 6 5 6 5 5 5 5 5 5 5 5 $ $ $ $ $ @ @ @ @ @ @ @ @ @ @ # = % = * * * ; 8 8 9 8 9 9 9 9 a a a 9 * = * * 8 * & & & = & @ * # * w d B s 9 w 9 w h g E C C W W W E W E W Q Q ` ` X.X.X.X...Z W ^ ' ^ Z Z A Z ' 1.' D ^ ' / D D A Z D ^ ' Z 8.' A A D / / A -.D D D D A ' -.' -.:./ v F A / D D D D D ' ' / ^ x e e e 4 4 e x D 1.1.^ -.1.D Z ' ' Q Z Z ` ..` 8.(.X.S.S. .X.S...` ! !  . .Q `  ...X. .! ~ ` ! ! ! ` X...X.` X._ E B g B E B 9 B B * 8 8 s s 8 = 8 * 9 9 i i p u p i p f p p i s i i i i 0 9 9 8 6 6 6 6 6 6 5 q q q q q q q q q 0 V 0 0 V V V V V V V V B B N N P L I I I Y ] ] ] ] ] { { } } } } u.h.h.k.l.c.K.^.^./././.hXhXhXnXnXnXnXnXNXnXnXBXBXBXNXnXnXnXnXnXnXnXhXeX/.~.~.E.R.P.P.P.P.P.P.R.R.R.R.!.!.~.8XuXuXuXuXuXdXhXdXhXgXgXgXzXcXcXcXcXcXcXcXBXBXBXBXBXAXAXAXAXAXCXCXCXCXDXDXDXDXCXCXCXCXCXCXCXCXCXCXCXDXCXCXCXCXZXCXCXCXCXCXCXCXAXAXAXCXCXCXCXCXCXCXCXCXCXCXCXCXZXZXZXZXZXZXZXZXZXFXSXFXFXFXFXFXFXFXFXFXFXFXFXFXFXFXGXGXFXFXFXFXGXGXGXGXFXFXFXFXFXFXFXFXFXFXFXFXFXFXFXFXFXFXFXFXFXFXFXFXFXGXGXGXGXGXFXFXFXFXFXFXFXFXGXGXGXGXFXFXGXGXFXFXFXFXGXGXFXFXFXFXFX",
"i.i.d.d.d.g.f.j.j.j.j.j.j.j.j.j.j.j.s.s.d.d.d.d.d.d.d.d.s.s.s.h.j.j.j.j.x.c.n.V.B.I.W.W.!.7XrXtXiXpXdXfXfXgXzXcXcXcXcXcXcXcXcXcXzXgXgXgXfXdXdXdXhXhXdXdXdXdXhXgXdXsXgXgXgXsXdXdXdXpXuXrX9X8X!.Q.U.B.c.k.s.} ] Y P J N f p i u 9 9 9 i N L { d.x.V.P.Q.T.T.6X4X4X4X4XW.T.Y.Z.M.x.d.[ L J f p s s i i i i i i 9 9 9 8 * * = # $ $ $ $ $ @ @ @ @ @ . @ @ @ @ @ @ @ @ @ @ @ . . . . . . . . . . . . . . . . . . . . . . . .       . . . . . @ . . . @ @ @ @ @ @ $ @ @ @ @ @ @ @ @ @ @ @ @ @ . . @ @ . . . . . . . . @ @ @ @ @ @ @ @ . @ @ @ . . @ @ @ @ @ @ @ @ @ @ @ @ @ @ @ @ @ @ @ @ @ @ @ @ @ @ @ @ @ = = = $ $ = # # # % % # # $ @ . . . . . . . . . . . . . . . . . . . o # & ; ; ; ; ; ; > 1 9 9 > > > ; ; 8 8 8 ; ; * * * 7 5 7 * 5 5 7 7 5 6 6 7 7 7 q q q 6 5 5 5 5 5 5 5 5 $ $ $ $ $ @ @ @ @ @ @ @ @ @ @ # = % * * * ; ; 8 8 8 8 9 9 a a s 0 9 > 8 > * & = * * # # * * @ $ 9 s B h w 9 9 w w d C C W Q Z ` ` ` `  .` Q W Q Q Q Z C C ^ X.( ^ ( ^ ^ ^ ^ A x Z ' -.' ^ ^ / D D F F A D ' ' ' / D D x A ' D ' A A A D D -.-./ ' -.D F A A D D D D D D D D A D x x x x e e e F 8.D e -.-.Z ^ ' ' ' ' Z Z W 8.S.H.1.S.8.1.S.S.! Q ! `  .X...S.........S.(.S... .`  .X...X.X..... ._ _ ~ B ~ B d s ~ 0 * 9 i ~ B @ 8 9 9 i i i p p p f f f f f f N N i i i 0 9 0 9 6 6 6 6 6 6 5 5 5 q q q q q q q q 0 0 0 0 q V V V V V V B B N N P I I ] ] ] ] ] ] [ [ { } d.} } u.d.h.h.l.l.c.K.^.^././.eXhXhXhXnXnXnXnXNXNXMXMXBXBXBXBXnXnXnXnXnXhXnXhXhX/.~.~.~.E.P.P.P.P.P.R.R.R.R.R.!.!.~.8XuXuXuXuXuXuXdXdXhXhXgXgXgXzXgXcXcXcXcXcXNXBXBXBXBXBXAXAXAXAXCXCXCXCXCXDXDXDXCXCXCXCXCXCXCXCXCXCXCXDXCXCXCXCXZXZXCXCXCXCXCXCXAXAXCXCXCXCXCXCXCXCXCXCXCXCXCXCXZXZXZXZXZXZXSXSXZXFXSXFXFXFXFXFXFXFXFXFXFXFXFXFXFXFXFXFXFXFXFXFXGXGXFXFXFXFXFXFXFXFXFXFXFXFXFXFXFXFXFXFXFXFXFXFXFXFXFXFXFXGXGXGXGXGXFXFXFXFXFXFXGXFXGXGXGXGXFXFXGXGXFXFXFXFXGXGXFXFXFXFXFX",
"i.i.d.d.d.g.f.j.j.j.j.j.j.j.j.g.j.j.s.s.d.d.d.d.d.d.s.d.s.s.s.s.j.j.j.j.x.z.n.n.B.I.T.W.W.7XrXuXiXpXdXfXfXfXgXzXcXcXcXcXcXcXcXcXzXgXgXgXgXdXdXdXdXdXdXdXhXdXhXhXfXsXgXgXsXdXdXdXpXuX9X8X8X8X!.T.U.P.V.z.h.d.{ ] L L P J N p i i 9 9 i N L ] u.j.V.I.T.T.T.T.4X4X4XT.T.Y.U.Z.n.x.s.[ U L J N N f N N f p p i i u 9 9 9 8 * = # # $ $ $ $ @ @ @ @ . . . . . @ @ @ & & & & = @ @ @ . . . . . . . . . . . . . . . . . . . . . . . . . . . . @ @ @ @ @ @ @ @ $ $ @ @ @ @ @ @ @ $ $ $ @ @ @ @ @ @ @ @ . . . . . . . . @ @ @ @ @ @ @ @ @ @ @ @ @ @ @ @ @ @ @ @ @ @ @ @ @ @ @ @ @ @ @ @ @ @ @ @ @ @ @ @ @ @ @ = = = $ $ = # # $ # # # @ # @ . . . . . . . . . . . . . . . . . . . o & & ; ; ; > > > 1 1 1 1 > > > > > 8 8 8 ; * * * ; 7 7 5 * 7 7 7 6 6 5 6 5 5 6 6 q q 6 6 6 5 5 5 5 5 5 $ = $ $ $ @ @ @ @ @ @ @ @ @ @ # % % * ; ; ; ; 8 8 9 9 9 s s s a 9 * * 8 9 ; & * # * 8 > @ # ; s h s s 9 9 h g C Q ( X.....8.1.' 1.1.1.1...' ` ` ` ^ ` ' ' ` ' 1.' ' ^ Z Z D Z A A A D ' ' ' ' D ^ A A A Z ' ' D / / / D F D ' ' / A F D ' -./ D / / ' A v A D / D A A A A A A ^ Z l x x e e D ' ^ x x ' D ^ ' ' ' ' ' ' ' X.H.J.X.8.1.` ` 8.X.` ` X...S.S.8.....8.S.8.S.S.S.X. .X.X.....X.X... .` _ ..X. .` B ~ ~ ! s 9 s * B  .B 9 9 9 s i s f f N N N N N N N N N N s i i 0 0 9 6 6 6 6 6 6 5 5 5 5 q q q q q q q q q q q V V V V V V V B B N N P I I ] ] ] [ [ [ [ { } u.d.d.h.h.h.h.h.k.c.c.P.^.E./././.hXhXhXnXnXnXnXnXBXnXnXMXLXBXBXnXnXnXnXnXhXhXhXhXhX/.~.~.R.R.P.P.P.P.R.R.R.R.R.E.!.~.~.8XwXwXwXuXuXuXdXhXdXfXfXgXgXgXzXcXcXzXcXNXBXBXBXBXBXAXAXAXAXCXCXCXCXCXCXCXCXSXZXZXCXCXCXCXCXCXCXCXCXCXCXCXCXCXCXCXCXCXCXCXCXAXAXCXCXCXCXCXCXCXCXCXCXCXCXCXCXSXSXSXZXZXZXSXSXZXSXSXFXFXFXFXFXSXSXFXFXFXFXFXFXFXFXFXFXFXFXFXFXFXFXFXFXFXFXFXFXFXFXFXFXFXFXFXFXFXFXFXFXFXFXFXFXFXFXFXFXFXFXFXFXGXGXFXFXFXFXFXFXFXFXGXFXFXFXFXFXGXGXGXFXFXFXGXGXFXFXFXFXFX",
"{ i.i.d.d.d.g.j.x.x.j.j.j.g.s.s.h.s.s.d.d.d.d.d.d.d.d.d.d.s.s.s.h.j.j.j.x.z.n.n.B.I.U.W.W.7X9XtXiXiXdXdXfXfXgXgXcXcXcXcXcXcXcXcXcXzXgXgXgXgXhXdXdXdXdXdXhXhXdXhXhXsXsXsXdXdXdXiXuXrX8X8X8X7X!.W.Q.U.B.c.j.s.} { ] Y L L P J p i u 9 i f P Y { j.n.Z.Y.T.T.T.T.4XT.T.Y.Y.U.Z.n.z.s.{ ] Y L P P J P J J N N f i i i u u 9 8 6 * % # $ $ $ @ @ @ @ . . . . . @ # # & & & & & & @ @ @ @ . . . . . . . . . . . . . . . . . . . . . . . . . . @ @ @ @ . @ @ @ $ $ $ $ $ $ $ $ $ $ $ $ @ @ # # @ @ @ @ . . . @ @ @ @ @ @ @ @ @ @ @ @ @ @ @ @ @ @ @ @ @ @ $ $ @ @ @ @ @ @ @ @ @ @ @ @ @ @ @ @ @ @ @ @ @ @ $ $ $ = @ @ @ $ @ $ $ # # @ @ # @ . . . . . . . .     . . . . . . . . . o # & ; ; * ; > > 1 1 > > > > > ; ; 8 8 8 * * * * * * 7 5 * 7 7 7 6 6 7 7 6 5 5 6 7 7 6 6 6 6 6 5 5 5 5 $ $ $ $ $ @ @ @ @ @ @ @ @ @ # = % * ; ; ; ; ; * 8 9 9 s s a 9 9 8 > * * * * * > * & * * ; 9 s h 9 8 w g C E C ` ` ` X.1.1.8.1.X.1.X.' X.X.' ` Q Q Q ` ' ' ` ` ( ` ' ' ^ Z A Z ^ D A x A ' -.-.^ ' ^ Z A x Z ^ ' / / ' / D D D / ' D A A D / D D / D D D A D D D D v v A v A D D A e Z -.1.1.-.-.' ' 1.' ^ ^ -.^ ^ ' ^ ' 1.G./.' ' ` ` Z Q ^ ` ` X.8.8.8.....S. .!  .X.8.S... .X...X. . . .X..... .`  ...S.S. . . . .` g 9 ; 8 E  .i 9 s i s N f N J J J J J J J J N N N s i i 0 9 8 6 6 6 6 6 5 5 5 5 q q q q q q q q q q V V V V V V V V B N N P P I I ] ] ] [ [ [ { { } d.d.h.h.h.h.h.h.k.c.c.P.R.E.~././.eXhXhXnXnXnXnXnXBXnXnXLXLXBXBXnXnXnXnXhXhXhXhXhXhX/.~.~.E.R.P.P.P.P.R.R.R.R.R.E.E.E.~.~.~.~.8XwXuXuXuXdXhXdXhXfXgXgXgXzXzXzXcXNXBXBXBXBXBXAXAXAXAXCXCXCXCXCXCXCXCXSXSXZXZXSXCXCXCXCXCXDXSXSXCXCXCXCXCXCXCXCXCXCXCXCXCXCXCXCXCXCXZXZXZXZXZXZXZXCXCXSXSXSXSXZXSXSXSXZXSXSXFXFXFXFXFXSXSXSXSXFXFXFXFXFXFXFXFXFXFXFXFXFXFXFXFXFXFXFXFXFXFXFXFXFXFXFXFXFXFXFXFXFXFXFXFXFXFXFXFXFXFXFXFXFXGXFXFXGXGXFXFXFXFXFXFXFXFXFXFXGXGXFXFXFXFXGXGXFXFXFXFXFX",
"{ { i.d.d.d.g.f.j.j.j.j.j.j.g.g.s.s.s.s.d.d.d.d.d.d.d.d.d.s.s.s.h.h.j.j.x.z.n.V.B.B.I.U.W.!.7X9XtXiXpXdXsXfXgXgXgXcXcXcXcXcXcXcXcXzXgXgXgXgXfXdXhXdXdXdXdXhXhXhXdXdXdXdXpXuXuXuXrX9X8X8X7X7X!.W.W.Q.P.n.z.j.d.i.{ [ ] Y L P J p i u 9 p J L { s.b.m.I.Y.Y.Y.T.T.4XT.T.Y.I.Z.m.z.j.u.{ [ Y L L P L P P J J N f i i i i u 9 8 * % # @ @ @ @ @ @ . . . @ @ @ # & = & & & & & & & & @ @ @ . . . . . . . . . . . . . . . . . . . . . . . . . . . @ @ @ @ @ @ $ $ # # $ $ $ @ $ $ @ @ @ $ @ $ @ @ @ @ @ @ @ @ @ @ @ @ @ @ @ @ @ @ @ @ @ @ # @ @ @ @ @ @ @ @ @ $ @ @ @ @ @ @ @ @ @ @ @ $ @ @ @ @ @ @ @ @ @ @ @ @ @ @ @ @ @ @ @ $ $ @ @ @ @ . . . . . . X X     . . . . . . . o o o # # * * * * * > > > > > > > 8 8 8 ; ; ; ; * * * * * 5 5 5 7 7 7 7 7 6 7 q q 7 7 7 5 6 6 5 5 5 5 5 5 5 $ $ $ $ $ @ @ @ @ @ @ @ $ # # % * * * 8 8 ; ; * 9 i i 9 9 9 9 > 8 8 * * = * * ; 8 * % ; w s h & 9 d C Q Q ! Q `  .X.1.8.1.X.X.X.X.' ' X.' ` ^ ( ` ^ Z Z Z ^ ' ' ' ( ' ' ( Z Z A D D A A Z D D ^ ' ' ^ Z c x Z ' D / ' / ' -.A D D D A v A ' ' D / / D D / D v A A v A A v A A v ^ -.1.^ D D v Z ^ ' ' ' 1.^ ' ' ^ ' -.1.' 9.G.' Q ' Q Z Q ^ 1.` ` ( ` ' ` ` X. . .X.X. . . .X.` X.X.X.X.X. .X...X.X.X...8.v.7._ ~ ! X.Q d d s a ! B i f f f N N N J J J J J J K K N N N N s i 0 0 9 6 6 6 6 5 5 5 5 5 6 5 q q q q q q q q V V V V V V V V B B N P L I I ] ] ] [ [ { { } u.d.h.h.h.k.k.k.k.c.c.c.P.R.~./././.hXhXhXnXnXnXnXnXnXBXBXBXBXLXnXnXnXnXnXnXhXhXhXhXeX/.~.~.E.E.R.^.P.P.P.P.R.R.E.R.R.E.E.~.~.~.~.~.wXwXuXuXdXhXdXhXhXfXgXgXgXzXcXcXNXBXBXBXBXAXAXAXAXCXCXCXCXCXCXCXCXDXDXDXDXDXSXSXSXDXSXSXSXSXSXSXDXZXZXZXZXZXZXZXZXZXZXZXZXZXZXZXZXZXZXZXZXZXZXZXZXZXZXZXZXZXZXSXSXZXSXSXFXFXFXSXSXSXSXSXSXFXFXFXFXFXFXFXFXFXFXFXFXFXFXFXFXFXFXFXFXFXFXFXFXFXFXFXFXFXFXFXFXFXFXFXFXFXFXFXFXFXFXFXFXFXFXFXFXGXGXGXFXGXFXFXFXFXFXFXFXFXFXFXFXFXFXFXFXFXFXFXFXFX",
"{ { u.d.d.d.s.f.j.j.j.j.j.j.j.j.j.j.s.s.d.d.u.u.d.d.d.d.d.s.s.h.h.j.j.x.x.x.n.V.V.B.P.U.T.W.7X7XtXuXiXdXdXfXgXgXgXcXcXcXcXzXzXcXcXzXgXgXgXgXdXdXdXhXdXdXdXdXhXhXdXdXuXuXuXrX9X8XrX9X8X8X7X7X!.W.W.W.U.V.n.x.j.d.u.} [ [ ] U P J p i 9 i N L [ s.z.M.C.I.Y.Y.T.T.T.T.T.Y.I.I.N.b.z.s.u.{ ] L L L L L P P P J f p i i i u 9 8 * & $ @ @ @ @ @ . . . . @ # & = = & & & & & & = & @ = = @ @ . . . . . . . . . . . . . . . . . . . . . . . . . . @ @ @ @ @ @ $ $ # # $ $ $ $ $ $ @ @ @ $ @ $ $ @ . . @ @ @ @ @ @ @ @ @ @ @ @ @ @ @ @ @ # @ @ @ @ @ @ @ @ @ $ $ $ # # $ $ $ $ $ $ @ @ # $ $ @ @ @ @ @ @ @ @ @ @ = $ $ $ @ @ @ # # # @ @ @ . . . . . . X X X   . . . . . . o o . o # & & & * * * * > > ; ; > 8 8 8 ; ; ; 7 ; * * * * * 5 5 5 7 7 7 7 7 5 5 q q q q q 6 6 6 5 5 5 5 5 5 5 $ $ $ $ $ @ @ @ @ @ @ $ # = = = * * 8 8 8 ; > 9 9 i 9 8 * 8 9 9 9 > > * * * * ; # ; s g s 9 ; d B Q ` ` `  . .` ` ( ( ` ( W ( ^ ^ ` ' 1.' ( ( ^ ` ( Q Z A x A ^ ' ' ^ ' ' ' ^ A D D Z A x v A A ^ ' ( ^ W x c A A D ' -.' / / D x A A A A 1.-.D / / D A D F D D A v A v v D l / 1.) x x D ^ ^ ' x Z x ^ 1.' ( ^ 8.8.G.-.' G.8.A ' ( Q ^ Q ^ Q ^ X.X. .1.8.8...X.` ` Q W `  . ...1.8.S.S.1...S...X.X.X.X.X.` X.` ! W E  .Q a s d d ~ s u f f N J J N J K P P K J K J N N N s i 0 0 9 8 6 6 6 5 6 5 5 5 5 5 q q q q q q q q q q q V V V V V B B P P I I I ] ] { [ { { } } d.d.h.h.k.k.k.k.z.c.M.M.P.E.~.~.~.uXhXhXhXnXnXnXnXnXnXBXLXLXLXLXnXnXnXnXnXnXhXhXhXhXuX/.~.~.E.E.^.R.P.R.P.P.R.R.E.E.R.R.E.!.!.~.~.~.wXwXwXuXuXdXhXdXhXfXgXgXgXgXzXcXcXBXBXBXBXAXAXAXAXCXCXCXCXCXCXCXCXCXDXCXDXSXSXSXSXSXSXSXSXSXSXSXSXSXSXSXSXSXSXSXSXZXZXZXZXSXZXZXZXDXZXZXZXZXZXZXZXZXZXSXZXZXZXSXSXZXSXSXFXFXFXSXSXSXSXSXSXSXFXFXFXFXFXFXFXFXFXFXFXFXFXFXFXFXFXFXGXFXFXFXFXFXFXFXFXFXFXFXFXFXFXFXFXFXFXFXFXFXFXFXFXFXFXFXFXGXGXGXGXFXFXFXFXFXGXGXGXFXFXFXFXFXFXFXFXGXGXGXGXFX",
"T { i.d.d.d.g.g.g.g.f.j.x.j.j.j.j.j.s.s.s.d.d.d.d.u.u.u.d.s.s.h.j.j.j.j.x.z.n.V.V.B.P.I.U.W.7X7XrXrXtXiXdXdXfXgXgXzXzXzXzXzXzXzXzXgXzXgXgXgXhXdXdXdXdXhXhXdXuXuXuXuXuXuXwX8X8X8X8X8X8X8X9X7X7X7X7XW.Z.B.V.n.b.x.f.s.u.{ [ U L J f i 9 i p P ] } x.M.C.C.Y.4XT.T.T.4X4X4XY.I.C.Z.m.z.s.{ [ ] Y U Y U U L P J H f p i i u 9 9 > * @ $ @ @ . . . @ @ . @ & * > * * > > * & & # @ @ # @ @ @ @ @ . . . . . . . . . . . . . . . . . . . . . . . . . . @ @ @ $ @ $ # # $ $ % $ $ $ $ $ $ @ @ @ @ @ @ @ @ @ @ @ @ @ @ . @ . . @ @ # # # @ @ @ @ $ $ @ @ @ @ @ @ @ @ @ $ @ @ @ @ @ @ @ @ @ @ @ @ @ @ @ @ @ @ @ = = = @ @ @ @ $ # $ $ @ @ . @ @ @ o . . . . . . . . . . . . . . X . o @ @ # # * * * * * * 8 ; * * ; 8 8 6 * 6 6 * * % % * 5 % 5 7 6 5 5 7 7 7 q q 7 7 7 7 q q 6 6 5 5 5 5 5 5 $ $ $ $ @ @ @ @ @ @ $ = = * 6 = = * 8 8 8 9 0 9 9 9 8 8 9 9 8 8 ; * * ; ; ; * # h B 9 ; d C C C ` X. . . .! W Q Q ` ` ( ^ ` ' ( ' ' ` 1.1.^ Q ^ ^ ^ ^ Z x x A Z ' ' ' ' ^ ' ^ A Z D v x A v Z x ^ ' ' Z Z Z Z A Z D / ' ' / / v A / ^ D <.D D D / A D A v A D D l A v l D 1.) Z A Z Z Z ^ ^ A Z ^ ^ Z ' G.' ' 8.^ A Z ' ^ ' ( ' ' ( ^ Z Q ' 8.1.` 8.`  .X.X. .X. . ...X. .X. ...8...` ` ` ! ` X.1...X.X. .! ! ` ..X. .X.E C B ~ E B f f f N N J J N J K K K P P N N N N s i 0 0 9 8 6 6 6 6 5 5 6 6 5 6 6 q q q q q q q q q q q V V V V B P N P L I I ] ] [ { { { } } d.s.h.j.k.k.k.c.c.c.c.K.P.E.~.~.~.uXhXhXhXnXnXnXnXnXnXBXBXLXLXMXnXnXnXnXnXnXnXnXhXhXuX~.~.~.E.E.E.R.R.R.R.R.R.R.R.E.E.R.E.E.!.~.~.8X8XwXwXuXuXdXdXdXgXgXgXgXgXgXzXcXcXBXBXBXBXBXBXAXAXAXAXCXCXDXCXDXDXDXDXDXSXSXSXSXSXSXSXSXSXSXSXSXSXSXSXSXSXSXDXDXDXSXSXSXSXSXSXCXCXDXCXCXCXCXCXCXCXSXSXSXSXSXSXSXSXSXSXSXFXSXSXSXSXSXFXFXFXFXFXFXFXGXFXFXFXFXFXFXSXFXFXFXFXFXFXFXFXFXFXFXFXFXFXFXFXSXSXSXFXFXFXFXFXFXFXFXFXFXFXGXGXFXFXFXFXFXFXFXFXGXGXFXFXGXGXFXFXFXFXFXFXFXFXFXFXFXFXFXFXGX",
"T { d.d.d.d.s.g.g.g.f.j.j.j.j.j.j.h.s.d.d.d.u.u.d.d.u.d.d.s.s.h.j.j.j.j.x.z.n.n.m.B.B.P.U.W.!.7XrXrXuXiXdXsXfXgXgXgXgXgXzXzXzXzXzXgXgXgXgXgXhXdXdXdXdXdXhXdXuXuXuXuXwXwX8X8X7X8X8X8X7X7X7X0X7X7X7XW.U.Z.C.V.n.b.z.j.f.u.} [ U P J p i i i J ] } j.n.N.C.C.Y.Y.Y.4X4X4X4XY.I.C.C.B.b.j.i.{ [ Y Y Y U U U L J J J f f s i u 9 > & @ $ @ @ . . . @ . @ @ = * > * * & & & & & & # @ # @ @ @ @ @ @ @ . . . . . . . . . . . . . . . . . . . @ . . . . @ @ $ $ @ $ # # $ $ $ $ $ $ $ $ $ $ @ @ @ @ @ @ @ @ @ @ @ @ @ @ @ @ @ @ @ @ @ @ @ @ @ @ $ @ @ @ @ @ @ @ @ @ @ @ @ @ @ @ @ @ @ @ @ @ @ @ @ @ @ @ @ $ = = = $ @ @ @ @ $ # $ $ @ @ @ @ @ . . . . . . X . . . . . . . . . X . o @ @ # # * * * * * * 8 ; * * 8 8 8 6 6 8 8 * * * * 5 * % 5 5 6 6 6 7 6 6 7 q 7 7 7 7 6 6 5 5 5 5 5 5 5 $ $ $ $ @ @ @ @ @ @ @ $ = = * * * ; ; * > 9 9 9 9 9 9 8 8 8 8 8 8 ; ; 8 > = # 8 B s . 9 g d E C E `  .Q W W C Q ! ( ( ( Q W Q ` ' ^ ( ( W ^ ` ^ ^ Z Z ^ Z x x x x D ^ ^ ^ ^ ^ ' ' ' ^ Z A A D Z ^ ^ ^ ' Q c Z A A Z ^ ^ ' ' / ^ / A A D ' ' ^ D D D A D A v A D D D v A ' ^ A v D D A Z ) ^ Z ^ ^ ( W 8.J.8.-.1.D x ^ -.D A ' ^ ' ` ' ' ' ' ' ' 1.1.8.` ^ Q ` ( Q (  .`  .1.8.8.....X.` ( ( ` ( Q ( X...X.X...X.`  ...X.X.X. . .~ ~ ~ f i f f J J J J K K P P P K J N N N f i i 0 9 9 6 7 6 6 6 5 5 5 5 5 6 q q q q q q q q q q q V V V V B P N P L I ] ] ] { { { } } d.d.h.j.z.z.c.c.c.c.M.m.K.P.E.~.~.~.uXhXhXhXnXnXnXnXnXnXBXBXLXLXMXnXnXnXnXnXnXnXhXhXuXeXeX~.~.E.E.E.R.R.R.R.R.R.R.E.E.E.E.E.!.~.~.~.8X8X8XwXuXuXdXdXdXfXgXgXgXgXzXcXcXNXNXBXBXBXBXAXAXAXAXAXCXCXDXCXCXCXDXDXSXSXSXSXSXSXSXSXSXSXSXSXSXSXSXSXSXSXSXSXSXSXSXSXSXSXSXSXDXDXDXDXDXDXSXSXSXSXSXSXSXSXSXSXSXSXSXSXSXFXSXSXSXSXSXFXFXFXFXFXFXFXGXFXFXFXFXFXFXSXFXFXFXFXFXFXFXFXFXFXFXFXFXFXFXFXSXSXFXFXFXFXFXFXFXFXFXFXFXFXGXGXFXFXFXFXFXFXFXFXGXFXFXFXGXGXFXFXFXFXFXFXFXFXFXGXFXGXFXFXGX",
"T { i.d.d.d.s.s.g.s.f.j.j.j.j.j.j.j.s.s.s.d.d.u.d.d.d.d.d.s.s.s.h.j.j.j.j.x.z.n.n.V.B.P.U.Q.W.7X7XrXtXiXpXdXdXfXfXgXgXgXgXzXgXzXgXgXzXgXgXgXhXdXdXdXdXdXdXuXuXuXuXwX8X8X8X!.!.7X7X7X7X7X7X7X9X9X7X7XW.Y.Y.Z.C.N.n.b.k.f.u.{ Y L J f i 8 i N L { j.b.N.C.C.Y.Y.T.Y.4X4X4X4XY.Y.Y.Z.M.j.u.{ { [ T Y Y U U L P J J N f s i u 9 > & # @ @ . . . . . @ @ & * > > > * & & & & & & # # # # @ @ @ @ @ @ @ @ @ @ @ @ @ @ . . . . . . . . @ @ @ @ @ @ @ @ $ $ $ $ $ $ $ $ $ @ $ $ $ $ $ @ $ $ @ @ @ @ @ @ @ @ @ $ @ @ @ @ $ @ @ @ @ @ @ @ @ @ @ @ $ $ @ @ @ @ @ @ @ @ @ @ @ @ @ @ @ @ @ @ @ @ @ @ @ @ @ @ $ $ = $ $ @ @ @ @ @ $ # $ $ $ @ # @ . . . . . X o . X . . . . . . . . . . . @ @ $ # # * * * * * ; 7 ; 7 7 7 6 6 8 7 6 6 6 6 6 7 * 5 6 5 6 6 6 6 6 7 7 q 7 q 7 7 q 6 6 6 5 5 5 5 $ $ $ $ $ @ @ @ @ @ @ @ # % = * * 8 8 ; ; 9 9 0 9 9 9 9 8 8 8 8 8 ; ; 8 * # ; a B & # B B d ! ` E Q ! E C C Q Q ` ` Q Q ` ` Q W ^ ( ^ ' ' Z Z Z W Z x x Z Z x x x x A ^ Z x D D ' ' ' ' ^ A A -./ ^ c x ( ( Z x x Z A D ^ ^ ' ^ D ' D v D -.^ D D D D A D A v v A D v D -./ A x v A Z D D Z / 8.' ( Z ^ 8.' ' 8.D D -.-.' A ^ ' ^ ' ' ' ( ' ^ ` X.` ..1.' ` ^ W W W (  .X.1.8.' X.^ Z C Z Q ' 8.1.Q C ` 1... .` X. .`  ... . . . .~  ._ f N ~ ~ N N K J K P L P P P K N B N f s i 0 9 7 7 7 7 6 5 5 5 5 5 5 5 5 5 q q q q q q q q q V V V B B B P P I I ] ] { { } } } u.d.s.j.j.c.c.n.n.n.m.K.P.P.P.^.E.~.~.eXuXhXhXhXnXnXnXnXNXNXNXBXBXnXnXnXnXnXnXnXnXhXhXuXuXeXwX~.~.E.E.E.E.E.E.E.E.E.E.E.E.E.!.!.~.~.~.8X8X8XwXuXiXdXdXdXfXgXgXgXzXzXcXcXNXNXBXBXBXAXAXAXCXAXAXAXCXCXCXCXCXDXDXSXSXSXSXSXSXSXSXSXSXSXSXSXSXSXSXSXSXSXSXSXSXSXSXSXSXSXSXSXSXSXSXSXSXSXSXSXSXSXSXSXSXSXSXSXSXSXSXSXSXSXSXSXSXSXFXFXFXFXFXFXFXFXFXSXFXFXFXFXSXFXFXFXFXFXFXFXFXFXFXFXFXFXFXSXFXFXFXFXFXFXFXFXFXFXFXGXGXGXGXGXGXGXGXGXGXGXGXGXGXGXGXGXGXGXGXGXGXGXGXGXGXGXGXGXGXFXFXGXFXGX",
"T { i.d.d.d.d.d.s.s.s.g.j.j.j.j.j.j.j.s.s.s.d.d.d.d.d.d.d.s.s.s.h.s.j.j.j.x.z.c.n.n.B.B.I.U.W.6X7X7XrXtXuXpXdXdXfXfXgXgXgXgXgXgXgXgXzXgXgXfXhXhXdXdXdXuXuXuXuXwXuX8X~.~.!.!.!.!.7X7X7X7X7X7X9XrXrX7X5X4XT.Y.Z.C.N.n.b.k.s.i.] U J N i 8 8 f L { s.b.N.C.C.Y.Y.T.Y.4X4X4X4X4XT.T.U.m.x.d.i.{ [ [ Y Y U U L P J J f f s i u 9 > * & @ @ . . . . . @ @ = * > > > * & & & & & & # # # # @ @ @ @ $ @ @ @ @ @ @ @ @ @ . . . . . . . . @ @ @ @ @ @ @ @ # # $ $ $ $ $ $ $ @ @ $ $ $ $ @ $ @ @ @ @ @ @ @ @ @ # $ $ @ @ @ $ @ @ @ @ @ @ @ @ @ @ $ $ $ @ @ @ @ @ @ @ @ @ @ @ @ @ @ @ @ @ @ $ $ @ @ @ @ @ @ $ $ @ $ @ @ @ @ @ @ $ # $ $ $ @ # @ @ . . . X o o X . . . . . . . . . . . . @ @ @ $ # % % * = = ; ; ; ; 6 6 6 * 6 6 6 6 5 6 6 7 5 7 7 5 5 6 6 6 6 7 q q q q q q q q 7 6 5 5 5 5 5 $ $ $ $ $ @ @ @ @ @ @ # % * * 8 * * 8 9 9 9 9 9 9 9 8 8 8 > ; * 9 8 # @ 8 w s & # d g C ` ` ! Q Q C g C ( ` ` ( Q W Q ` ` Q Z Z x ^ ` Z Z W x A C x e x Z A x x x x Z D x x D Z v A ^ ' ' Z v ^ ' ' x d ' 1.x x x A Z ^ / -.' ' D A D D ' / D D D D D D A A v v v v -.-.v A A v D ) D D -.-.Z Z Z Z ' 1.1.8.' ^ Z ^ ^ ^ ^ ' ' ^ 1.' ' Z C C Q X.( 8.1.^ ` ' Q Z ' 1.X.X.X.' ' ^ Z Z C Z ^ ( Q ` ( ( ` ` ( ` ..` 8.8. .8... .X. .! X.X.~ ~ _ P f N K K K K P P K K K N N N s s i 0 9 9 6 6 6 7 6 6 6 5 5 5 5 6 5 q q q q q q q q q q V V B B B P P I _ ] ] { { } } u.d.d.s.j.x.c.c.n.V.P.P.P.P.P.R.E.E.~.~.uXuXhXhXhXnXnXnXNXNXNXnXnXnXnXnXnXnXnXnXnXhXhXuXuXuXuXuXwX8X~.!.!.E.E.E.E.E.!.!.!.!.!.~.~.~.~.8X8X8XwXuXuXdXdXdXhXfXgXgXzXzXcXcXcXNXNXBXBXBXAXAXAXCXAXAXAXCXCXDXDXDXSXSXSXSXSXSXSXSXSXSXSXSXSXSXSXSXFXFXFXSXSXSXSXSXFXSXSXSXSXSXSXSXSXSXSXSXSXSXSXSXSXSXSXSXSXSXSXSXSXSXSXSXSXFXFXFXSXFXFXFXFXFXFXFXFXFXSXSXFXFXFXSXFXFXFXFXFXFXFXFXFXFXFXFXFXFXFXFXFXFXFXFXFXFXFXFXGXGXGXGXGXGXGXGXGXGXGXGXGXGXGXGXGXGXGXGXGXGXGXGXGXGXGXGXGXGXGXGXFXFXGXFXFX",
"T { i.d.d.d.d.d.s.g.s.g.j.j.j.j.j.s.s.s.d.d.d.u.d.d.d.d.d.s.s.s.s.h.j.j.j.x.x.z.n.n.V.B.P.U.W.W.7X7XrXrXuXiXpXdXfXfXgXgXgXgXgXgXgXgXgXgXgXgXfXhXhXhXuXuXuXwXwXwX8X~.!.!.!.E.!.!.7X7X7X7X0X7X9XtXtX9X0X5X5X4X4XY.I.C.M.b.j.u.[ Y P J i 8 8 i P ] u.k.b.N.C.C.I.I.Y.4X4X4X4X4X4XW.U.m.x.s.u.{ [ [ ] Y Y U L P J J f s i u 9 9 > * & @ . . . . . . . = * * > * > * & & & & & & # # # # $ $ $ $ $ @ @ @ @ = @ @ @ @ @ @ @ @ . . . @ @ @ . @ @ @ @ @ $ $ $ $ # # @ $ $ $ @ $ $ $ $ @ @ @ @ @ $ $ $ $ $ $ $ $ $ @ @ @ $ $ @ @ @ @ $ $ $ $ $ @ @ @ @ @ @ @ @ @ @ @ @ @ @ @ @ @ @ @ @ @ @ @ @ @ @ @ @ @ @ @ @ @ @ $ $ $ $ $ $ $ $ $ # # $ @ @ . . . . . X X . . . . . . . . o . . . @ @ @ # # # # $ # = % % * * * * * * 6 5 5 5 5 5 5 5 5 7 7 5 6 7 7 6 5 5 6 6 q q q q q 6 6 6 5 5 5 5 5 5 $ $ $ $ $ $ $ @ @ $ = % * * * % * 9 a 9 9 9 9 9 8 8 8 8 ; ; * 8 > & 8 s w @ & g d E ! Q Q W C C d d Q ` ( Q ( ` ` ` ` ( ^ ^ Z e ^ A 4 x Z A x A A x x A A x x l e x / D x A D v v A D -./ v A Z ' ' x Z ' ^ x e x x A ^ ' -.1.D A D D D ' D D D / / D A A A A x ' -.A A D A v A v / <.^ l Z Z e ^ -.1.-.' ' Z ^ ^ ^ Z A ' 1.^ ' ' ` ^ Z Z ` .. .1.` C Q ( Q ' 1.X.( ` ` ^ ^ C d e x Z ' ` ^ ( ` ` ` ` ` `  .` ..S.X. .X.X.X. .~ ! ..X. .~ B B B K K K K K J N N B B f s s i i 0 9 9 8 6 7 7 6 6 6 6 5 5 5 6 5 q q q q q q q q q q V V V B B P P I _ ] ] | { } u.d.d.d.h.j.z.c.n.V.B.P.P.P.P.R.R.E.E.~.~.uXhXhXhXhXhXhXnXNXNXnXnXnXnXnXnXnXnXnXhXhXhXhXuXuXwXwXwXwX8X~.~.!.!.!.!.!.!.!.!.!.!.!.~.8X8X8X8X8XwXuXuXdXdXhXdXfXgXgXgXzXcXcXcXcXNXBXBXBXAXAXAXAXAXCXCXCXCXCXDXDXDXSXDXSXSXSXSXSXSXFXFXFXFXFXFXFXFXFXFXFXFXSXSXSXSXFXSXSXSXSXSXFXFXSXSXSXSXSXSXSXSXDXDXSXSXSXSXSXSXSXSXSXSXFXFXFXFXSXFXFXFXFXFXSXGXFXFXSXFXFXFXFXFXFXFXFXFXFXFXFXFXFXFXFXFXFXFXFXFXFXFXFXFXFXFXFXFXGXGXGXGXGXGXGXGXGXGXGXGXGXGXGXGXGXGXGXGXGXGXGXGXGXGXGXGXFXFXGXGXFXGXGXFXFX",
"T { i.d.d.d.d.d.g.g.g.f.j.j.j.j.j.j.s.s.s.d.d.d.d.d.d.d.d.d.s.s.s.h.j.j.j.x.x.z.n.M.n.B.B.I.Q.W.!.7X8XrXtXiXpXdXfXfXgXgXgXgXgXgXgXgXgXgXgXgXfXhXdXdXuXuXwX8X8X8X~.!.W.W.E.E.!.!.7X7X9X9X7XrXtXyXyXtX9X0X0X5X4X4X4XY.C.M.z.s.{ ] L J i 8 8 u J ] i.f.b.N.C.C.C.I.Y.4X4X4X4X4X4XW.U.n.x.h.u.{ [ [ ] ] Y U L P J J f f i u 9 > > > & . . . . . . . . = * > * * * * * * & & & & # # # # # # $ $ $ @ # # = & # # @ @ # @ @ @ @ @ . . @ @ @ @ @ @ @ @ $ $ $ $ $ $ @ $ $ $ $ $ $ $ $ $ $ @ @ @ $ $ $ $ # $ $ @ @ @ @ $ @ @ @ $ @ @ $ $ $ $ @ @ @ @ @ $ $ $ $ $ @ @ @ @ @ @ @ @ @ @ @ @ @ @ @ @ @ @ @ @ @ @ @ @ @ $ $ $ # # # $ $ $ # # @ @ @ @ # . . . X . . . . . . . o o o o o . @ @ @ @ $ $ @ @ $ $ % % % * % % % % 5 % % % % 5 5 5 % 5 5 5 6 7 7 7 5 5 6 5 6 6 6 6 6 6 5 5 5 5 5 5 5 5 $ $ $ $ $ $ $ $ @ $ = % * * % * 9 0 9 8 > 9 9 9 8 8 ; * ; ; 8 @ # 9 s 9 ; 9 B B ` ! E Q E h h d g E `  .` ` ` `  .` ' ( ^ ^ ^ Z ^ x e x e x e x A x x A A x x x l 4 A Z x D ^ A Z Z x Z / ' ^ x v ^ Z x x ^ Z x x x x A Z / -.-.^ D ^ D ' ^ D D D / D A A v A / / A A D D A Z l ^ -.Z v D D ^ ^ ' Z ^ ^ ( ^ ^ ' ^ Z ^ ' ' ^ Z ^ ' ` ( Q ^ ....` ( ( W C Z X.8.` Q ^ ^ ^ Q c Z A Q ' ' ' ^ Q X.` ^ ` ` ` Q W Q W 8...Q `  .`  .! ~ ! ` _ ~ B N B K K K K K J N N B f s s i i i 9 9 9 7 7 7 7 6 6 6 6 5 5 6 7 6 q q q q q q q q q q V V V B B B P I _ ] ] [ { } u.d.s.s.h.x.z.n.n.B.P.I.R.R.R.R.E.E.~.~.~.uXuXhXhXhXhXhXhXnXnXnXnXnXnXnXnXnXnXhXhXhXhXuXuXuXuXwXwX8X8X~.~.~.~.!.!.!.!.!.7X8X8X8X8X8X8X8XwXwXuXuXuXdXhXdXfXgXgXgXgXcXcXcXcXcXNXBXBXAXAXAXAXAXCXCXCXCXCXDXDXDXSXSXSXFXFXFXFXFXFXFXFXFXFXFXFXFXFXFXFXFXFXFXFXSXSXFXFXSXSXFXFXFXFXSXSXSXSXSXSXSXSXSXSXSXSXSXSXSXSXSXSXSXFXFXFXFXFXSXFXFXFXFXFXSXGXFXFXFXFXFXGXFXFXFXFXFXFXFXFXFXFXFXFXFXFXFXFXFXFXFXFXFXFXFXFXFXFXGXGXGXGXGXGXFXFXGXGXGXGXGXGXGXGXGXGXGXGXGXGXGXGXGXGXGXGXGXGXGXGXFXGXFXFXFX",
"T { i.i.i.d.d.d.g.g.g.f.j.j.j.j.j.j.j.s.s.s.s.s.d.d.d.d.d.d.s.s.s.j.j.j.j.j.x.z.z.n.n.m.B.B.U.Q.W.!.7XrXrXtXiXpXdXdXsXfXgXgXgXgXgXgXgXgXgXgXfXdXdXdXuXuX8X8X~.~.E.E.R.E.E.E.!.!.!.7X9X9XrXtXyXpXaXyXtXtX9X9X0XqX4XY.I.m.b.h.{ ] L J y 8 8 u J U i.f.b.b.N.N.C.C.Y.4X4X4X4X4X4XT.U.n.z.j.s.} [ [ [ ] ] U L P J J N f i u 8 > * * # . . . . . . . . = > > > * * > > * & & & & & & = % % % # $ $ @ # # # # # @ # # # @ @ @ @ @ @ @ @ @ @ @ @ @ @ @ $ @ $ $ $ $ $ $ $ $ $ $ $ @ $ $ $ $ $ $ $ $ $ @ # $ @ @ @ @ @ $ @ @ $ $ @ @ $ # # $ $ @ @ $ $ # $ $ $ $ @ @ @ @ @ @ @ @ @ @ @ @ @ @ @ @ @ @ @ @ @ @ @ @ $ = $ $ # # $ $ $ $ # # # # @ @ # . X . X X . . . . . X o O o o . . @ . @ @ # # @ @ $ = % % * * % % % % 5 % % % 5 5 5 % % % 5 5 6 6 6 7 5 5 5 5 6 6 6 6 6 6 5 5 5 5 6 6 5 5 $ $ $ $ $ $ $ $ $ $ $ % * * = 8 9 9 9 > 9 9 9 9 8 8 8 8 ; ; * @ ; s w * 9 B B ~ ~ Q E B E B Q Q Q X.1...X.1.` ` ` ` ' ( ^ ^ ^ ' W A Z x e e e e x x x A A l x v x e 4 e v ' Z x x D D A A D / / A x Z ^ A A 1.' ^ ^ A v A D ^ 1.1.' ' ^ ' ' D D D ' D A A v ^ -.A v / A A A D D ' / A Z ^ v ' ' Z ^ 1.^ ^ ^ ' ' Z ^ ' ' ' ^ Z ^ ' ` ` Q ` ..` ( !  .C c ( 8.` Q ^ ^ Z A Z A Z Z D ^ Z Z Z Z A ^ ' ' ^ Z ^ ..Q C X...Q ` X. ...X. .~ E ~ ~ B g B B B K K K K N N f s s s i i i 0 9 9 7 6 7 7 6 6 6 6 6 6 6 7 6 q q q q q q q q q q V V V B B B P I ] ] ] [ { } u.d.s.s.j.x.c.n.n.B.I.R.R.R.E.E.E.E.~.~.~.eXeXuXuXuXhXhXhXhXhXhXhXhXhXhXhXnXnXhXhXhXuXuXuXuXwXwXwXwX8X8X8X8X0X7X7X7X7X8X8X8X8X8X8XwXwXuXuXuXuXuXdXhXhXhXgXgXgXgXzXcXcXcXcXNXNXBXBXAXAXAXAXCXCXZXZXCXCXDXDXSXSXSXSXSXGXSXSXGXGXGXGXGXGXFXFXFXFXFXFXFXFXFXFXFXFXSXFXFXFXFXFXFXFXFXFXFXFXFXFXFXFXSXSXSXSXFXFXFXFXSXFXFXFXFXFXFXFXSXFXFXFXGXSXSXGXFXFXFXFXGXGXGXFXFXFXFXFXFXFXFXFXGXGXGXGXGXGXGXGXSXSXGXGXGXGXGXGXGXGXGXGXGXGXFXFXGXGXGXGXGXGXGXGXGXGXGXGXGXGXGXFXGXGXGXGXGXGXGXGXGXGXGXGXSX",
"T { i.i.i.d.d.d.d.s.g.g.g.j.j.j.j.j.s.s.s.d.d.d.d.d.d.d.d.d.s.s.h.g.j.j.j.j.x.z.z.z.n.n.m.B.I.U.W.W.7X7X8XtXuXiXdXdXdXdXfXgXgXgXgXgXgXgXgXgXfXdXuXuXuXuX8X~.!.W.W.E.R.R.R.R.!.!.!.7X9XrXtXyXpXaXaXaXyXtXtXtX9X9XqX4XY.C.M.j.i.[ L f y 8 8 9 J Y { f.x.x.b.N.N.C.Y.4X4X4X4X4XT.T.I.m.z.j.s.} [ [ [ [ ] Y L P P J f f u 9 * > * > # . . . . . . . . & > > * & * > > * & & & = = * * * = % % # $ @ # # & & # # # # @ @ @ @ @ @ @ # @ @ @ @ @ @ # @ @ @ @ @ $ $ $ $ @ $ $ $ @ @ @ $ $ $ $ $ $ $ @ @ $ $ @ @ @ @ @ @ @ $ # $ @ @ $ $ # # $ $ $ $ # # $ $ @ @ @ @ @ @ @ @ @ @ @ @ @ @ @ @ @ @ @ @ @ @ $ $ @ @ $ $ $ = # $ $ $ $ $ # # # # # @ . . . . X X X X . . . . X X o . . . . @ @ @ $ $ @ @ $ % % % * 5 * % % % 5 % % % % 5 % $ 5 % 5 5 5 5 5 5 6 7 q 7 7 6 7 6 6 6 6 6 7 q 7 7 5 5 $ $ $ $ $ @ $ $ $ $ $ % % * 6 9 9 * * 9 9 * 8 8 8 8 8 8 ; * . w d 9 8 s B B E ~ ! E g W  ...X.`  .8.8.` ^ ( ^ Q Z Z A x x v x ^ x x v l v x x e e e x A A e x x x v e 4 A -.x A D v A D A A A / ^ Z A D A ^ 1.1.' ^ A x D A A ' 8.1.^ ^ / 1./ D D ' ^ A D v -.D D D D D D D x ' ' D D v v ' D Z ^ ^ -.' / -.' ' ^ ' ' ' -.( ^ ( ' ( 1.` X.X.` ` ` ` h ` S.Q Z ^ W A W W Z W ^ ^ ^ Z Z ^ ^ A x A Z W ( ' X.1...8.X. .` `  . ... .X.X.`  . .~ K B B B B B N f f f f s s s i u 0 9 9 9 8 6 6 5 5 6 6 6 6 6 6 7 7 q q q q q q q q q V V V V B B B P I ] ] ] { { } d.s.s.s.j.x.c.n.n.B.I.R.R.!.!.E.E.E.~.~.~.~.~.eXuXuXuXhXhXhXhXhXhXhXhXhXhXhXhXhXhXuXuXuXuXuXwXwXwXwXwX8X8X8X9X8X8X8X8X8X8X8X8X9XrXuXuXuXuXuXuXdXdXdXfXgXgXgXgXgXzXcXcXcXNXNXBXBXBXAXAXCXCXCXSXSXSXZXDXDXSXSXSXSXSXSXGXGXGXGXGXGXGXGXGXFXFXFXFXGXFXFXFXFXFXFXFXSXFXFXFXFXFXFXFXFXFXFXFXFXFXFXFXFXFXFXFXFXFXFXFXFXFXFXFXFXFXFXFXSXFXFXFXGXSXSXGXGXFXFXFXGXGXGXGXFXFXFXFXFXFXFXFXGXGXGXGXGXGXGXGXSXSXGXGXGXGXGXGXGXGXGXGXGXGXFXFXGXGXGXGXGXGXGXGXGXGXGXGXGXGXGXFXGXGXGXSXFXFXGXGXGXGXGXGXSX",
"T { { i.d.d.d.g.d.s.s.g.j.j.j.j.j.j.h.s.s.d.d.d.d.d.s.d.d.d.d.d.s.g.s.j.j.j.j.x.z.z.n.n.n.n.B.U.Q.Q.W.!.8XrXuXuXpXdXdXsXsXgXgXgXfXgXgXfXfXgXfXdXdXuXuX8X8X~.!.E.W.E.E.R.R.R.R.W.7X7XrXtXyXpXaXaXjXjXjXaXjXaXyX9X9XqX4XY.n.x.u.{ L f y > > y N L { i.d.f.b.b.n.C.Y.Y.4X4X4X4X4X4XI.C.b.j.u.i.{ { { [ Y Y L P J J N f u 8 > & & & @ . . . . . . . . = & & & & & & & > * & & & * * * & = = * = = # & & # # # # & & @ # # # # # # # @ $ # # $ $ $ @ @ @ @ @ @ @ @ @ $ $ $ $ @ @ $ $ $ $ @ @ @ @ @ @ @ @ @ @ @ @ $ $ @ @ @ @ @ $ $ $ @ @ $ $ $ @ @ @ $ $ @ @ @ @ $ $ $ @ @ @ $ $ $ @ @ @ @ @ @ @ @ @ @ @ @ @ @ @ @ $ $ $ $ $ $ $ # # @ $ @ @ @ . . . . . . . . . . X X X . @ # # # # @ @ $ $ $ $ $ $ % % % % % % % 5 5 5 5 % % % % % % % % % % 5 6 7 6 5 5 5 7 q q 7 7 5 5 5 5 5 5 5 5 5 $ $ $ $ $ $ $ @ $ % % % * 8 0 9 * * * 8 9 8 8 8 8 * 8 8 9 . 9 s 9 d d C g C ` C C Q  .X. .X.( `  .^ W Q ( ^ A A A v x e e l A D e 4 e e x e x x x e e D v x e x l e l x Z / ) D v v A A A D A D D / / D A / 1.^ ^ Z A A A D / D -.-.^ ^ ^ / -.D D ' / D D / / D D D D D D D D / / / D D ' D A Z ^ D 1.1.' 1.( ^ ^ ' ^ ( 1.( ( X.' ( ( 1.X.X.` ( X.W ( 8.^ ^ Q ( ^ ^ ( ' ^ Z ( ^ ^ ` ( ^ ' ' ' / ( ' ' ^ ' ' ..S.S...X.....X.....X.` X.....` E E E E B f f f f s s f i i i 9 9 0 9 9 7 7 6 6 6 6 5 5 5 7 6 6 6 6 q q q q q q q q q q V V B B B P I ] ] ] [ { u.u.d.s.h.j.x.c.c.n.P.U.R.R.!.W.!.E.E.E.~.~.~.~.uXuXuXhXuXuXuXuXhXhXuXuXhXhXhXuXhXhXuXhXuXuXuXuXwXwXwXwXwXwX9X9X9X8XwX8XwXuXuXuXuXuXuXuXdXdXdXhXdXdXfXgXgXgXzXcXcXcXcXcXNXNXBXBXBXBXAXAXAXAXCXDXDXDXDXSXSXSXSXSXGXGXGXGXGXGXGXGXGXGXGXGXGXGXGXGXGXFXGXFXGXFXGXFXGXFXGXFXSXSXSXSXSXFXSXFXGXFXGXFXSXSXSXFXGXFXGXSXFXFXFXFXFXFXFXFXFXFXFXFXFXFXFXFXGXGXGXGXSXSXSXSXSXSXSXSXGXGXGXSXFXFXFXGXFXFXFXFXFXFXFXFXFXFXFXGXGXGXGXGXGXGXGXGXGXGXGXGXGXGXGXGXGXGXGXGXGXGXGXGXGXGXGXGXGXGXGXGXGXGXGXFXGX",
"T [ { i.i.i.d.d.s.s.s.g.g.j.j.j.j.j.j.s.s.s.d.d.d.d.d.d.s.s.s.s.s.g.s.j.j.j.j.x.z.z.n.n.n.n.V.P.U.Q.W.!.7XrXrXrXiXpXdXdXdXdXdXsXfXgXgXfXfXgXfXdXdXuXwX8X8X~.E.R.R.R.U.R.R.U.Q.W.7XrXtXtXyXaXaXjXjXkXkXjXjXjXjXyXtX0XqXY.N.x.u.[ L f y > > y H P ] { d.f.b.b.n.C.Y.Y.4X4X4X4X4X4XI.C.b.k.u.i.i.{ [ [ Y U L P J J f i 9 > > & & = . . . . . . . . . @ = & & & & * & & & & & & * * * = = = = = # = & # # # # & & & # # # # # # # # $ $ $ $ $ @ @ @ @ @ @ @ $ $ $ @ $ $ $ $ @ @ @ $ @ @ @ @ @ @ @ @ @ @ @ @ @ @ $ $ @ @ @ @ $ @ $ $ $ $ $ $ # # $ $ $ $ @ @ @ @ $ $ @ @ @ @ $ $ $ @ @ @ @ @ @ @ @ @ @ @ @ @ $ $ $ @ $ $ $ $ # # # # $ $ @ @ @ . . . . . . . . . . . X X . . @ @ @ @ $ $ $ @ @ $ $ $ $ $ % % % % % % 5 5 % % % % % % % 5 5 5 5 5 5 5 6 6 5 5 7 q q 7 q 6 5 5 6 7 7 5 5 5 $ $ $ $ $ $ % % % % % % 7 7 9 9 8 8 * > 8 8 8 6 * 9 = * . 0 B s a d B h !  .E C E Q ` X.` ` X.( Q ^ ^ ^ Q W Z A A x l e e l v A l 4 4 4 4 e x x c x A ^ x Z D e 4 x x x A x v ) D A A A D A D D D / / D D / 1.1.' ^ D D ^ ' D A / -.-.-./ D D / D D -.D D -.D D D D D D D D / D D ^ D / ' ^ D D D D 1.8.' 1.` ( ( ` Q ^ 1.( ^ ' X. .` X.` 1.` Q ' ` X.^ ' ^ Z Q e Z ' c Z ^ Z ( ( ' ( ' ^ / ^ 1.8.1.' X.1.` ` 8.(.S.8.8.8.S.S.8.......X. . ._ _ _ _ ! ~ f u s s f s u u i u 9 9 9 9 8 6 6 $ 6 6 6 7 7 7 7 6 6 5 5 q q q q q q q q V V V B B N P I ] ] ] ] { u.u.d.s.j.j.z.c.n.B.P.R.R.W.!.!.~.~.E.~.~.~.~.~.wXwXuXuXuXuXhXhXhXuXuXuXuXuXuXuXuXuXuXuXuXuXuXuXwXwXuXuXwXwXwXwXwXwXwXuXuXuXuXuXuXuXdXdXdXdXhXdXdXfXgXgXgXzXcXcXcXcXNXNXNXNXBXBXBXAXAXAXAXAXDXDXDXSXSXSXSXSXSXSXGXGXGXGXGXGXGXGXGXGXGXGXGXGXGXGXGXGXGXGXGXGXGXGXGXGXGXGXSXGXGXGXSXSXSXGXGXGXGXFXSXSXSXSXGXGXGXGXFXFXFXFXFXFXFXFXFXFXFXFXFXFXFXFXGXGXGXGXSXSXSXSXSXSXSXGXGXGXGXSXHXHXFXFXFXFXFXFXFXFXFXFXFXFXFXGXGXGXGXGXGXGXGXGXGXGXGXGXGXGXGXGXGXGXGXGXGXGXGXGXGXGXGXGXGXGXGXGXGXGXGXGXGX",
"T { { i.i.d.d.d.g.s.g.g.g.s.g.j.j.j.h.s.s.s.d.d.d.d.d.d.s.s.s.s.s.g.s.f.j.j.j.x.x.z.z.z.z.z.n.V.U.U.Q.W.!.7XrXrXuXiXpXdXdXdXdXdXfXgXgXfXfXfXhXhXuXuXwX8X~.!.R.R.R.R.R.R.R.U.Q.W.7X7XtXyXaXaXjXkXlXlXlXlXkXkXjXjXaX9X5XY.N.z.u.[ P H y 8 8 y p P Y { d.f.b.b.n.C.Y.Y.Y.4X4X4XY.Y.I.m.b.k.u.i.{ [ [ [ [ U P P J J p u > * * * & . . . . . . . . . . . = = & & & & & & * * & & * * * * = = = # # = # # # # # & = = # # & & & & # # # $ $ $ @ $ $ $ @ @ @ @ $ $ $ @ @ @ @ @ @ @ @ @ @ @ @ @ @ @ @ @ @ @ @ @ @ @ $ $ $ $ @ @ $ @ $ $ $ $ $ # # $ $ $ $ $ $ @ @ @ @ @ @ @ @ @ @ @ @ @ @ @ @ @ @ @ @ @ @ @ @ @ $ $ $ $ $ $ $ $ # # # $ $ @ @ @ @ @ . . . . . . . . . . X . . . . . @ @ $ $ @ @ @ @ $ $ $ $ $ $ $ $ $ 5 5 5 5 % % 5 % % % 5 5 5 5 % % % 6 6 5 5 7 q q q q 7 5 5 7 7 7 6 5 $ % $ $ $ $ $ # % % # % * 8 7 * 8 9 9 8 > > 8 8 = 8 8 8 # B B s > d g g X...g g C ( ` ( ( ( ` ( Q ^ ( ^ ^ ( ^ x v v x l l l l v v x e e e 4 e e x x e D Z x Z ^ A l l x A D A A / ' / / D D D D D / / D / / / / -.-.-./ / 1.-.D A / / -.-./ ' D ' / D <.' / ' D D D D D D S %.-.A / D / -./ / D D D ^ 1.8.^ ' 1.' ^ ^ Q ( 1.( W ( ( ( X...` 1.' ' X.1.^ Z ` W W c ^ ( ^ Q ^ ^ ' ' ^ Z ^ ^ A v x x Z ^ ' ' ` X.1...X.X.1.8.8.8...X.X...1......._ _ _ _ ! ~ g s s s s i 9 i i 9 9 9 9 9 8 6 * 6 6 6 7 6 7 6 7 7 6 5 5 5 q q q q q q q 0 V V V B B P I ] ] ] ] [ } u.d.d.j.j.z.c.V.B.U.Q.R.W.!.!.~.~.~.~.~.~.~.~.~.~.wXwXwXuXuXuXuXwXwXwXuXuXuXuXuXuXuXuXuXuXuXuXuXuXuXuXiXuXiXiXwXuXuXuXuXuXuXiXdXdXhXdXdXdXfXfXgXgXgXgXzXcXcXcXcXNXNXNXBXBXBXBXAXAXCXCXCXDXDXDXSXSXSXSXSXSXSXSXGXGXGXGXGXGXGXGXGXGXGXGXGXGXGXGXGXGXGXGXGXGXGXGXGXGXGXGXGXSXGXGXSXSXGXGXGXGXFXFXGXGXGXGXGXGXSXGXFXFXFXFXFXFXFXFXFXFXFXFXFXFXGXGXGXGXGXGXSXSXSXSXGXGXGXGXGXGXSXSXHXGXFXFXFXHXGXGXGXGXGXGXGXGXGXGXGXGXGXGXGXGXGXGXGXGXGXGXGXGXGXGXGXGXGXGXGXGXGXGXGXGXGXGXGXGXGXGXGXGXGXGXGX",
"T { i.i.d.d.d.d.g.s.s.g.s.s.s.g.j.j.s.s.s.s.d.u.d.d.d.s.s.s.s.s.s.s.s.g.j.j.x.x.x.x.z.z.z.z.n.n.P.P.U.Q.!.7X8XrXuXuXpXpXdXdXdXdXhXgXgXfXfXfXhXdXuXuXwX~.!.E.R.P.P.P.R.R.R.R.Q.W.7XrXtXyXpXjXkXkXlXlXxXlXlXlXkXjXjX9X5X4XC.b.u.] P f y 8 8 y p J L { d.x.b.N.N.C.I.I.Y.Y.Y.Y.Y.I.C.N.b.j.u.i.[ [ [ [ ] L P P J f u 9 * & & & = . . . . . . . . . . . . = = & & & & * * * * * * * * * = = = @ # = # # # # & = = = & & & & & # # # # $ $ @ @ @ $ $ @ @ @ @ @ @ @ @ @ @ @ @ @ @ @ @ @ @ @ @ @ @ @ @ @ @ @ @ @ @ $ $ # $ # @ $ $ $ @ $ $ $ # # $ $ $ # $ $ @ @ @ $ $ @ @ $ @ @ @ @ = @ @ @ @ @ @ @ @ @ @ @ $ $ $ $ $ $ $ $ $ # # $ $ @ @ @ @ @ @ . . . . . . . . . X . . . . . @ @ @ $ $ @ @ @ @ $ $ $ $ 5 5 % 5 5 5 5 5 5 5 5 5 5 5 % 5 5 5 % % $ 5 6 6 6 5 5 6 7 7 7 5 5 5 7 7 6 5 $ $ $ $ $ $ $ $ # # # $ % 7 7 7 % 8 9 9 8 8 > 8 = 8 9 9 * s B s 9 9 ~ .... .d g Q Q Q ! ` X.X.` X.` ( ( ^ ^ Q x x v x x x x v x v v x e e e 4 e e e e 4 v x e x Z ' D v / -.-.' / / / -.:.-.-.-.%.%.-.-.%.%.-./ ) ' -.1.-.<.<.D D D -.D ' / / -./ D ' / -.:.:.D D D / / / S %.-.-.D / / / -./ -.D / D ' 8.9.' -.8.' ^ ^ ^ ' 1.( Q ^ c W ' 1.` X.X.' 8.X.c Q Q Z Z c Z Z Z Q ^ 8.1.Z A x ^ ^ ^ D Z ' -.^ ^ ^ Q ( ` ` ..8.8.1. .( ` X...8.S.(.S.8.X. .! ! ! ~ K g s s s s s s i u i 9 9 9 6 = 6 7 6 6 6 6 6 6 7 q 6 6 5 q q q q q q q q q 0 V V B B P P _ ] ] ] ] } } } d.s.x.z.z.V.B.P.R.R.R.E.E.E.~.~.~.~.~.~.~.wXwX~.~.wXwXuXuXuXuXwXuXuXuXwXwXuXuXuXuXuXuXuXuXuXuXdXdXiXiXiXiXuXdXdXdXdXdXdXdXdXdXhXhXfXfXgXgXgXgXzXzXcXcXcXcXNXNXBXBXBXBXBXBXAXAXCXCXCXDXDXSXSXSXSXSXSXSXSXSXGXGXGXGXGXGXGXGXGXGXGXGXGXGXGXGXGXGXGXGXGXGXGXGXGXGXGXGXGXGXGXGXGXGXGXGXGXGXFXFXGXGXGXGXGXGXSXSXFXFXFXFXFXFXFXFXGXGXFXFXFXFXGXGXGXGXGXGXGXGXSXSXGXGXGXGXGXSXSXGXGXFXHXDXHXHXGXGXGXGXGXGXGXGXGXGXGXGXGXGXGXGXGXGXGXGXGXGXGXGXGXGXGXGXGXGXGXGXGXGXGXGXGXGXGXGXGXGXGXGXGXGXGX",
"T [ { i.i.i.d.d.d.s.g.s.s.s.g.j.j.s.s.s.s.d.u.u.d.d.s.s.s.s.s.s.s.s.s.s.j.j.x.x.x.x.z.z.z.z.n.n.n.B.I.Q.W.!.8X8XrXuXuXpXdXdXdXsXhXfXgXfXfXfXdXhXuXuXwX8X!.E.R.R.R.R.R.R.Q.Q.W.W.7X9XyXyXaXkXxXxXxXxXxXxXlXlXlXjXjXtX5X4XC.b.s.[ P p y 8 8 8 p J L { g.x.b.N.N.C.I.I.I.Y.Y.Y.Y.I.C.N.b.j.u.{ [ Y Y ] Y L P J f u 9 1 > & & @ . . . . . . . . . . . . . . = = = & * * * * = * * * = = = = = # # = # # # # # % % = # # # # # # # # # $ @ @ @ @ @ @ @ @ @ @ @ @ @ @ @ @ @ @ @ @ @ @ @ @ @ @ @ @ @ @ @ @ @ @ @ @ @ $ $ # $ $ $ $ @ @ $ $ $ $ $ $ $ $ $ $ $ $ @ $ $ $ $ $ $ $ @ @ @ = @ @ @ @ @ @ @ @ @ @ $ # # # # # $ # # # # # $ $ @ @ @ @ @ @ @ @ @ . . . . . . . . . . o . @ @ @ $ @ $ $ $ $ $ $ $ 5 5 5 5 5 5 5 5 5 5 5 5 5 5 5 % % % % % % % 5 5 5 5 5 5 5 5 5 6 5 5 5 6 5 5 5 % % % $ $ $ $ $ # # $ % 7 7 7 * % * 8 8 8 8 8 * * 9 6 @ s E 9 w & B S.S. .h g ! ` ` ! (  ..... .Q ^ ` ` Q Z W ^ v v x l l x v v v x A x e e 4 e 4 e x 4 l e l x x / -.<.9.-./ -.%./ S -.:.-.:.:.:.-.:.:.-.:.:.-.%.:.<.-.<.9.%.D / / -./ -.' / ' / A 1.-./ <.1./ / ' / / / S S -.-.D / ' -./ / -.D ' / -.<.8.' 1.1.' ' ' ^ ( 1.( ^ ` W W ` X.' 1.' ` G.^ W W C Z c Z d x e Z ( X.1.Z Z W ^ ( ^ ^ ^ ^ ^ ^ ' 1.' X.8.8.8.1.` ` `  .X..... ...S.(.(...` ~ !  . .~ ~ s f f B f s i s 9 9 9 9 8 * * 7 6 6 6 6 6 6 7 q 7 6 7 q q q q q q q q q 0 V V B B N P I I ] ] ] { { } d.s.j.z.c.V.B.P.U.R.R.R.R.E.~.~.~.~.~.~.~.wX~.wXwXwXwXwXwXwXwXwXuXuXuXwXwXuXuXuXuXuXuXuXuXuXdXdXdXdXdXdXdXdXdXdXdXdXdXdXdXsXsXfXfXgXgXzXzXzXzXcXcXcXcXcXNXcXNXBXBXBXBXAXAXAXAXCXCXCXDXDXSXSXSXSXGXGXGXGXGXGXGXGXGXGXGXGXGXGXGXGXGXGXGXGXGXGXGXGXGXGXGXGXGXGXGXGXGXGXGXGXGXGXGXGXGXFXFXFXFXGXGXGXGXGXSXFXGXGXGXGXGXFXFXSXSXGXGXGXGXGXGXGXGXGXGXGXGXGXGXGXGXGXGXGXGXGXGXGXGXGXHXHXHXHXHXHXHXHXGXGXGXHXHXHXHXGXGXGXGXGXGXGXGXHXHXGXGXGXGXHXHXHXGXGXHXGXGXGXGXGXHXHXHXHXHXGXGXGXGXGXGXGX",
"T [ { i.u.d.d.d.d.d.g.g.g.s.g.j.f.s.s.s.s.d.u.u.u.u.d.d.s.s.s.s.s.s.s.s.j.x.x.x.x.x.x.x.z.z.c.n.n.B.P.U.Q.W.7X8X8XrXuXuXiXdXdXdXdXfXgXfXfXfXdXdXuXuX8X8X!.R.R.R.R.R.R.R.T.T.W.4X7XtXyXpXjXkXxXxXvXvXvXxXxXxXlXjXjXtX0X4XC.n.f.[ P f y > > 8 u H L { g.b.b.N.N.C.I.I.I.Y.Y.Y.I.C.N.b.x.s.i.[ Y U Y U L P J f i 8 > > > & # . . . . . . . . . . . . . . . = = = = & * * * = * * * = = = = = # = = # # # # # # % % # # # # @ @ $ # # $ $ @ @ @ @ @ @ @ @ @ @ @ @ @ @ @ @ @ @ @ @ @ @ @ @ @ @ @ @ @ @ @ @ @ @ @ @ @ # # $ $ $ $ $ $ $ $ $ $ $ $ $ $ $ $ $ $ $ $ $ $ $ $ $ $ @ @ @ = @ @ @ @ @ @ @ @ @ @ # # # # # $ $ # # # # $ $ $ @ @ @ @ # @ @ @ @ @ . . . . . . . . . . . @ @ @ @ @ $ $ $ $ $ $ $ $ $ 5 % 5 5 5 5 5 5 5 5 5 5 5 % % % $ $ % % 5 5 5 5 5 5 5 5 6 5 6 5 5 5 5 5 5 5 * % % $ $ @ $ $ $ $ * 7 7 * % * % * * 8 8 8 * 9 9 # 7 ~ s s w w S.X.E C g ~  .!  .` ` ( Q ( ( ` ( ^ ^ ^ ^ W x x x x l l l l l l l x x x x e e 4 4 e e e l v v v D :.9.<./ %.-.-.%.-.:.:.:.:.:.:.:.:.:.:.:.:.:.:.:.<.:.:.<.-.%.-.-.:./ :.:.-.-./ D :.-.-.9.-./ / -.-.-.-./ / :.:./ / -.:.S %.%./ :.-./ -.-.' 8.-.' -.-./ ' 1./ ^ ' ^ Z ^ ' X.1.W ' 8.Q W Q c x c C W Z x ` ( x ` Z Z ( Z ' ^ Z Z ' 1.' ' 1.1.1.' ^ D Z Z W ^ ` ..X. .( ! X.S.(.S. .! ! _ _ _  .~ B s i s 0 9 9 8 8 9 9 9 8 % $ $ $ 6 6 7 7 6 6 6 6 q q q q q q q q q q q 0 V V B B N P I _ ] ] { { } d.s.j.z.c.n.B.P.P.R.R.R.R.E.E.~.~.~.~.~.~.~.~.wXwXwXwXwXwXwXwXwXeXuXuXuXuXuXuXuXuXdXdXuXuXdXdXdXdXdXdXdXdXdXsXsXfXfXgXgXfXgXgXgXgXzXzXzXzXcXcXcXcXcXcXNXNXNXBXBXBXBXBXAXAXAXAXCXCXCXDXDXSXSXSXGXSXGXGXGXGXGXGXGXGXGXGXGXGXGXGXGXGXGXGXGXGXGXGXGXGXGXGXGXGXGXGXGXGXGXGXGXGXGXGXGXGXGXGXGXGXGXGXGXGXSXSXFXGXGXGXGXGXFXFXSXSXGXGXGXGXFXFXGXGXGXGXGXGXGXGXGXGXGXGXGXGXGXGXGXGXHXHXHXHXHXHXGXGXHXGXGXGXHXHXHXHXGXGXGXGXHXGXGXGXGXGXGXGXGXGXGXGXGXGXGXGXGXGXGXGXGXGXGXGXGXGXGXGXGXGXGXGXGX",
"[ { i.d.u.d.d.s.d.d.s.g.s.s.g.g.g.s.s.d.d.d.d.d.d.d.d.d.s.s.s.s.s.s.g.j.j.x.x.x.x.x.x.x.x.z.z.c.n.V.P.U.Q.W.!.8X8X9XuXuXuXpXpXdXdXfXfXsXsXdXdXdXuXuX8X!.!.R.R.R.T.R.T.W.W.W.4X6X9XtXpXaXjXxXxXvXvXvXvXvXxXxXlXjXjXyX9X5XI.M.f.{ L N y 8 > 8 i f U i.f.b.N.C.C.C.Y.Y.Y.Y.Y.Y.C.C.N.b.j.u.{ ] U L L P J J f p 9 > & & & # . . . . . . . . . . . . . . . . . = = = @ & = = = = = = * & = = * = % % = = % # # # # # % % # # @ @ @ # # # @ @ @ @ @ @ @ @ @ @ @ @ @ @ @ @ @ @ @ @ @ @ @ @ @ @ @ @ @ @ @ @ @ @ @ @ $ $ $ $ $ $ $ $ $ $ $ $ $ $ $ $ $ $ $ $ $ $ $ $ $ $ $ $ @ @ @ @ @ @ @ @ @ @ @ @ @ @ $ # # # # $ $ $ # $ $ $ $ $ $ $ # # # # # # # @ @ @ # # # . . . . . . . @ @ @ @ $ $ $ $ $ $ $ $ $ $ $ 5 % 5 5 5 5 5 5 5 $ $ $ $ % % % % $ $ % % 5 5 5 5 5 5 5 7 5 6 6 6 5 5 5 5 % % % % $ $ $ $ @ @ % 7 7 * % * ; ; * 8 8 7 7 7 8 8 7 ~ d w w 9 ....g ! C Q W (  . .( ` ( Q ^ Q ^ ( ( ^ ^ ( ' ^ A A A A A v l l e 4 4 e l x l e e k e l v A D A / D %.<.:.:.2.:.:.<.2.w.2.2.2.:.,.,.:.:.:.2.2.<.2.:.:.<.-.:.w.<.-.-.<.-.-.:.-.-.-.' ' -.8.8.-.' / -.-.-.:.-.-.:.:.%.-.-.<.%.%.%.%.:.-.%.<.:.8.J.1./ ' -.' -.1./ ) ' D Z ' 1.1.' W 1.1.^ A Q c e c d Z c ` ` x ^ ^ ( ^ Z x Z ^ A ' ^ ' 1.' ^ ^ ^ A Z D ^ ^ ^ ' 8.1.8.S.S.S.S.S.S.S.S.S...! E ~ _ _ ~ g 9 9 0 9 6 7 8 8 7 0 0 8 = * 6 6 7 7 7 7 7 q 6 6 q q q q q q q q q q q 0 V B B B N P I ] ] ] { } u.d.h.x.c.n.m.P.P.P.R.R.R.E.W.~.~.~.~.~.~.~.~.~.wXwXwXwXwXwXwXwXuXuXuXuXuXuXuXdXdXdXdXdXdXdXdXdXdXdXdXdXfXgXgXgXgXgXgXgXgXgXgXzXzXzXcXcXcXcXcXcXcXNXNXBXBXBXBXBXAXAXAXAXCXAXCXCXDXDXDXSXSXSXSXSXGXGXGXGXGXGXGXGXGXGXGXGXGXGXGXGXGXGXGXGXGXGXGXGXGXGXGXGXGXGXGXGXGXGXGXGXGXGXGXGXGXGXGXGXGXGXGXGXGXFXFXGXGXDXDXHXHXFXFXHXHXGXGXHXHXFXFXDXDXGXGXGXGXGXGXGXGXGXGXGXGXGXGXGXGXHXHXHXGXGXGXGXHXHXHXGXGXGXGXHXHXGXGXHXHXHXHXGXGXGXGXGXGXGXGXGXGXGXGXGXGXGXGXGXGXGXGXGXGXGXGXGXGXGXGXGXGXGX",
"[ { { i.i.u.d.d.d.d.s.g.s.s.g.g.g.s.s.d.d.d.d.d.d.d.d.d.s.d.d.d.d.s.j.j.j.x.x.x.x.x.x.x.x.x.z.z.n.V.P.U.R.R.!.7X8X9XuXuXuXiXpXdXdXfXfXfXsXdXdXdXuXuX8X!.R.R.R.R.T.T.T.W.W.W.6X7XtXiXaXjXkXxXvXvXvXvXvXvXxXxXlXjXjXyX9XqXY.N.j.{ L J u 8 8 8 p R Y u.x.b.N.C.C.Y.4XY.Y.Y.Y.Y.C.N.b.z.f.u.[ Y L P P J f p u > > & & @ . . . . . . . . . . . . . . . . . . . & & & . @ & & & = = = * & = * * * = % * * = # # # # # % # # # @ @ # # # # @ @ @ @ @ @ . @ @ @ . . . . @ @ @ @ @ @ @ @ . @ @ @ @ @ @ @ @ @ @ @ @ @ $ $ $ $ $ $ $ $ $ $ $ $ $ $ $ $ $ $ $ $ $ $ $ $ $ $ $ $ @ @ @ @ @ @ @ @ @ @ @ @ @ @ # # # # $ $ $ @ # $ $ @ @ @ $ $ # # # # # # # # @ @ # # # . . . . . . . . . @ @ % $ $ $ $ $ $ % 5 5 5 5 5 5 5 5 5 5 5 % $ $ $ $ $ % % % % $ $ $ % % 5 % $ 5 5 5 6 6 6 5 5 5 5 5 $ $ $ $ $ $ $ $ $ $ ; 9 7 % % 7 7 8 7 7 7 7 9 9 0 $ ! s 8 B s ` ` Q ! E g X.! `  . .` X. .( X.1.' ( ^ ' ^ ^ ^ ^ / D D A v l e e e 4 4 e l x v x l v v D D D D / %.:.:.2.w.2.w.w.2.2.2.q.q.q.q.,.w.q.,.:.2.w.2.2.w.2.:.<.<.-.:.<.:.:.<.-.-.<.-./ -.-.-.-.8.-.<.' -.-.-.-.:.-.%.:.:.%.:.:.2.%.#.%.-.<.:.%.:.-.<.D.<./ -.-.) / -.-./ -.^ ^ ' 1.1.' ' -.8.' ^ Z c c c e Z Z ' Z Z W e W ' A x x ' ' ^ ' -.' ^ Z ^ Z Z ^ ^ ^ ^ Z Z Z Z ^ ' X.......X...S.(.S._ ~ E ~ E ` _ B s s w i w 9 * 8 0 s 0 = 8 8 8 7 7 9 9 9 q q q 6 q q q q q q q q q 0 V V V B B B P P I I ] ] { } d.s.x.c.n.n.V.P.P.R.R.R.R.E.E.~.E.~.~.~.~.~.wXwXwXuXwXwXuXuXuXuXuXuXuXuXdXdXdXhXhXhXhXdXdXdXdXdXdXdXfXgXzXgXgXgXgXgXzXzXzXzXzXzXcXcXcXcXcXcXNXBXBXBXBXBXBXBXAXAXAXAXCXCXCXCXDXDXDXSXSXGXSXSXSXGXGXGXGXGXGXGXGXGXGXGXGXGXGXGXGXGXGXGXGXGXGXGXGXGXGXGXGXGXGXGXGXGXGXGXGXGXGXGXGXGXGXGXGXGXGXFXGXHXDXFXGXGXDXDXHXHXFXFXHXHXGXGXGXGXDXDXDXDXGXGXGXGXGXGXGXGXGXGXGXHXGXGXGXGXHXHXHXGXGXGXGXHXHXHXGXGXGXGXGXHXHXHXHXHXHXHXGXGXGXGXGXGXKXKXKXKXGXGXGXGXGXGXGXGXGXGXGXGXGXGXGXGXGXGXGXGXGX",
"{ { { i.d.d.d.d.g.s.s.s.s.s.s.g.s.s.s.s.s.d.d.d.d.d.d.d.d.d.s.s.s.s.g.j.j.x.x.x.z.x.x.x.z.z.n.n.n.V.P.U.R.!.7X8X8X8X9XuXuXiXpXdXsXsXsXgXgXsXdXiXuX9X8X7X!.T.R.!.T.T.!.6X6X6X7X7XiXaXjXkXzXxXcXvXvXvXvXvXvXxXxXlXaXaX9X4XY.N.x.u.L J p 8 > y H P [ u.b.N.N.C.C.Y.4X4X4XY.4XY.C.N.b.k.u.{ ] U P J N s u 8 > > & = = . . . . . . . . . . . . . . . . . . . . . . @ @ @ @ @ # & = * * * = = = = = = * = # # # # # # # # @ @ @ @ # # @ @ @ @ @ @ @ @ @ @ @ @ @ @ @ @ . . @ @ @ @ @ . . . . . . @ . @ . . @ @ @ @ $ $ @ $ $ $ $ $ $ $ $ $ @ @ $ $ $ $ @ @ $ $ $ $ $ $ $ @ $ @ @ @ @ @ @ @ @ @ @ @ # # $ $ $ $ $ $ $ # @ @ $ # # # # @ # # # # # # # # . . . . . . . . . . . . . @ @ @ # $ $ $ $ $ $ $ 5 5 5 5 5 5 5 5 5 5 $ $ 5 $ $ $ % % % $ $ $ % % % % 5 5 5 5 % % % % 5 5 5 % % % * @ $ * # @ % % . % s 9 @ 7 7 ; 7 7 9 7 7 7 B i * ~ d 8 s B ` s ! Q ! W ! ` ` `  .` X...` ' ' ^ ^ ^ ^ Z Z A x x A A A x x v l l l l l v x l x v v A D D %.:.:.%.:.<.2.w.w.w.w.2.2.2.w.q.q.w.w.q.,.,.,.w.q.q.2.,.2.,.2.2.,.,.:.:.:.:.:.<.:.-./ -.-.-.-.<.:.-.9.-.:.:.%.-.:.-.S :.:.:.%.:.,.:.#.:.:.:.:.%.:.<.:.0.<.-.-.-./ / -.<.D -./ D -.1.1.^ -.8.1.1.^ c A x x x ^ ' ^ Q W x e ' ( x x c Z ` ' ' ' ^ ' ^ ^ Z Z x v x Z x x x x C C W ! ` X.X.` X.S.S. .B g ~ ~ K ~ K E B s w s 7 0 s s s i ; 8 8 9 0 0 9 9 9 q q 6 6 q 7 7 7 q q q q q q 0 V V B B B P P I I ] ] [ } d.d.j.z.c.c.M.V.P.P.P.P.R.E.E.E.E.E.E.~.~.~.wXwXuXuXuXuXuXuXuXuXuXuXuXuXuXdXdXdXhXdXdXdXfXfXdXdXgXgXgXgXzXzXzXzXzXcXcXcXcXcXcXcXcXcXcXcXNXBXBXBXBXAXAXAXAXAXAXAXAXAXCXCXDXDXDXSXSXSXGXGXDXDXSXGXGXGXGXGXGXGXGXGXGXGXGXGXGXGXGXGXGXGXGXGXGXGXGXGXGXGXGXGXGXGXGXGXGXGXGXGXGXGXGXGXGXGXGXGXGXGXGXHXHXHXGXGXGXGXGXGXGXGXGXGXGXGXGXHXHXHXGXGXGXGXGXGXGXGXGXGXGXGXGXGXGXGXGXGXHXHXHXHXHXHXHXHXHXHXGXGXGXGXGXGXGXGXGXGXGXGXGXGXGXGXGXGXGXGXGXGXGXGXGXGXGXGXGXGXGXGXGXGXGXGXGXGXGXGXGXGXGX",
"[ { i.i.d.d.d.g.s.g.g.g.s.s.s.s.g.s.s.s.s.d.d.d.d.d.d.s.s.s.s.s.s.g.j.j.x.x.x.x.z.z.z.z.z.z.c.n.n.V.P.U.Q.W.!.8X8X8X9XuXuXiXpXdXsXsXsXsXsXdXdXuXuX9X8X7X!.W.W.!.!.!.7X8X7X9X9XtXiXaXjXzXxXxXvXbXbXbXvXvXvXxXxXlXjXaX9XqXY.C.b.s.] L f y y i J U { g.b.V.C.C.4X4X4X4X4X4X4XC.N.N.z.j.u.[ Y L J N i u 8 > = = @ . . . . . . . . . . . . . . . . . . . . . . . . @ @ @ @ @ @ # & & = = = = = = = = * % # # # # # # # # @ @ @ @ # # @ @ @ @ . . . . @ @ @ @ @ @ @ @ . . . . . . . . . . . . . @ . @ . . . @ @ @ @ $ $ $ $ $ $ $ $ $ $ $ $ $ $ $ $ $ @ @ $ $ $ $ $ $ @ @ $ $ $ @ @ @ @ @ @ @ @ @ @ $ $ $ $ $ $ $ $ $ @ $ $ $ # # # # # # # # # # # # . . . . . . . . . . . . @ @ @ # $ $ $ $ $ $ % % 5 5 5 5 5 5 5 5 5 5 $ $ 5 5 $ $ % % $ $ $ $ = = % % % 5 5 % % % % % 5 5 5 5 % % % $ % % # # # $ % 9 7 % $ # % % * * $ * 7 s 9 * C C h h B C 9 C  .! ` ` ` ! !  .` X.X.( Q ( ( Z Z c x e x x x l x v 4 4 e 4 l v v v v v v v A D D D / -.:.<.<.:.<.2.2.2.q.0.q.q.q.q.q.q.q.w.2.w.q.w.w.w.q.q.q.w.w.2.3.2.2.2.;.:.:.<.:.<.:.:.:.:.:.-.:.9.<.-.2.w.:.:.-.:.:.-./ :.:.%.%.%.:.%.%.:.,.:.:.-.:.<.<.q.9.:.:.:.-.%.:.:./ -./ / 1.-.1.' 1.8.-.-.^ Z Z A v W ' ' ^ ^ W c ^ Z Z W Z x ' 1.' ' ^ Z x d x c A A Z ^ A Z Z x A C C C C Q Q ! X.X...8.8.X.! E E E B ! ~ d a ; 8 8 9 s h d s 9 9 9 7 9 9 9 0 0 0 q 9 9 q q q q 7 7 q q q q 0 0 V V B B B P P I ] ] ] } } d.h.j.c.c.n.M.V.P.P.P.R.R.E.E.E.E.~.~.~.8XwXwXuXuXuXuXuXuXuXuXuXdXdXuXdXdXdXhXhXhXhXfXgXfXfXgXgXgXgXgXzXzXcXcXcXcXcXcXcXcXcXNXcXNXNXNXBXBXBXBXAXAXAXAXAXAXAXAXCXCXCXCXDXDXDXSXSXSXGXSXSXSXSXGXGXGXGXGXGXGXGXGXGXGXGXGXGXGXGXGXGXGXGXGXGXGXGXGXGXGXGXGXGXGXGXGXGXGXGXGXGXGXGXGXGXGXGXGXGXGXGXGXHXHXGXGXGXGXGXGXGXGXGXGXGXGXGXGXHXHXGXGXGXGXGXGXGXGXGXGXGXGXGXGXGXGXGXGXGXGXGXGXGXGXGXHXHXHXGXGXGXGXGXGXGXGXGXGXGXGXGXGXGXGXGXGXGXGXGXGXGXGXGXGXGXGXGXGXGXGXGXGXGXGXGXGXGXGXGXGXGX",
"{ { i.d.d.d.d.g.s.g.s.s.s.s.s.s.j.s.s.s.s.d.d.s.d.d.s.s.s.s.s.s.j.j.j.x.x.x.x.z.n.n.c.c.c.c.n.n.n.V.B.U.Q.W.!.8X8X8X9XuXuXiXpXdXsXsXsXsXsXdXiXuXuX9X8X7X!.!.!.!.7X7X7X8X9X9XrXiXaXsXkXzXcXcXbXVXVXVXbXbXvXvXxXzXjXaXtX0X4XC.b.h.{ U J p p p P ] u.k.N.C.C.Z.4XqX4X4X4X4X4XC.N.b.k.f.i.] L J f p u > > @ . . . . . . . . . . . . . . . . . . . . . . . . . . . . @ @ @ @ @ @ @ # % # % % = = = * % % % % % % % % # # $ @ @ $ $ # @ @ @ @ . . . . @ @ @ @ @ . @ @ . . . . . . . . . . . . . @ @ @ . . . . . . @ @ $ $ $ $ $ $ $ % $ $ $ $ $ $ $ $ $ $ $ $ $ $ $ $ @ @ @ @ $ $ $ # $ @ @ @ @ @ @ @ $ $ @ @ # @ @ # # @ $ $ $ # # # # # # # # # # . . . o o # # . . . . . . @ @ @ @ @ @ $ $ $ $ 5 5 5 5 5 5 6 6 5 5 5 5 5 $ 5 5 5 $ $ $ $ $ $ $ = $ % % % % % % % % % % % % * * % % $ * * # % % $ $ 8 0 $ @ * # * * $ % % % 9 s ; s E # w w s g s Q Q X.S...`  .X.X.(  .' ` ` ' ' Z ^ Z x x x v x x x x l x e e D A v v v v v A D D %.%.-.:.2.2.2.w.w.q.q.w.w.q.q.0.q.q.q.q.q.q.,.,.,.,.,.,.w.q.q.q.q.w.q.w.2.2.,.;.:.:.<.:.:.w.q.<.:.:.:.9.<.-.<.2.-.:.:.<.<.:.-.:.2.,.:.:.,.:.:.,.,.,.:.:.:.:.q.<.q.:.:.:.-.%.:.:.%.:.-.-.:.-.<.-.1.1.-.-.' D D ^ ^ ' ' ^ Z Z W ^ A x x A ' ' 8.1.W x e x A Z Z x x ^ ' -.^ ^ x e e d C Z W Q Q W ! ` ` X...S.X.~ E ~ g E E E g ; 8 8 8 ; 9 s s s 0 9 9 9 9 0 0 i 0 0 0 9 9 q q q q 7 q q q q 0 0 V V B B N B P I I ] ] ] { } d.h.k.c.c.n.M.P.P.P.P.P.R.E.E.W.E.~.~.~.wXwXuXuXuXuXuXuXdXdXdXhXhXhXdXhXfXfXhXfXgXgXgXgXgXgXgXcXcXgXcXcXcXcXcXcXcXNXNXNXNXNXNXNXNXBXBXBXBXBXAXAXAXAXAXAXCXCXCXDXDXDXDXSXSXSXSXSXSXSXGXGXGXHXGXGXGXGXGXGXGXGXGXGXGXGXGXGXGXGXGXGXGXGXGXGXGXGXGXGXGXGXGXGXGXGXGXGXGXGXGXGXGXGXHXHXGXGXGXGXGXGXHXHXHXGXGXGXGXGXGXGXGXHXGXGXGXGXHXHXHXGXGXGXGXGXGXGXGXGXGXGXGXGXGXGXGXGXGXHXHXHXHXHXHXHXHXHXHXHXHXHXGXGXHXHXHXHXHXHXHXHXHXHXGXGXGXGXHXHXKXKXHXGXGXGXGXGXKXKXKXKXGXHXHXGXGXGXGXGXGX",
"{ { i.d.d.d.d.d.s.s.g.s.s.s.s.g.g.s.s.s.d.d.d.s.d.d.s.s.s.s.s.s.j.j.j.x.x.x.z.z.n.c.c.c.n.n.n.n.n.V.P.U.R.W.!.8X8XwXuXuXiXpXpXdXsXsXsXsXsXdXiXuXuX9X8X8X!.!.!.8X7X7X8X8X9XrXtXiXsXfXzXcXcXvXVXAXVXVXVXbXbXvXxXzXjXaXyX9X5XY.n.k.u.Y L J J P U { j.b.V.Z.Z.4X4X4X6X4X4X4X4XC.N.b.k.f.} ] L J p u > * @ . . . . . . . . . . . . . . . . . . . . . . . . . . . . . @ @ @ @ @ @ # # # # % % = * = * % % % % % % % % $ $ $ $ $ $ $ @ @ @ @ @ . . . . . . . . . . . . . . . . . . . . . . . . . @ @ @ . . . . . @ @ @ $ $ $ $ $ $ $ % $ $ $ $ $ $ $ $ $ $ $ $ $ $ $ @ @ @ @ @ @ @ $ # @ @ @ @ @ @ @ @ @ @ @ @ @ @ @ @ # # $ @ @ $ # # @ @ @ @ # @ # . . . . . . . . . . . . . . @ @ @ $ $ $ $ $ $ 5 5 5 5 5 5 6 6 5 5 5 5 5 5 5 5 5 5 $ $ $ $ $ $ $ $ $ $ % % % % % % % % $ % % % % $ $ * % $ % # @ % 6 8 . . # $ # # $ % 9 % 8 ; 9 C ; 9 s h C g C  .S.8.X.` Q ` ( ` X.X.X.' 1.' ^ Z D D Z A A A A v A x x e e D D A v A D D D / %.-.:.:.:.2.w.w.q.q.q.2.2.w.r.'.'.r.q.q.0.r.t.q.w.,.,.,.w.q.q.q.q.t.t.q.q.w.2.2.,.2.<.:.;.:.:.w.0.<.:.:.<.<.<.2.2.:.-.:.:.w.2.:.:.<.w.,.,.:.,.:.:.,.,.,.:.:.:.:.w.:.2.:.:.:.%.%.:.:.&.:.<.-.-.:.<.:.1.-.1.-.-.) ^ ' ' -./ Z Z Z ^ ^ x x A ^ 1.1.' ^ d x A Z A x x x x x ^ Z A A A A d d d C C C C W C Q ! ` X.8.8.X.! ~ ~ E ! X.E s 8 8 * % 8 9 0 s s i 9 9 9 i s s 0 0 9 0 0 q q q 0 q q q q q q 0 V V V B N N P I L I ] ] [ } d.h.k.z.c.c.M.P.P.P.P.P.P.R.E.E.E.E.~.~.wXuXuXuXuXdXhXhXhXhXdXdXhXhXfXfXgXgXgXgXgXgXgXgXgXgXgXcXcXcXcXcXcXNXNXNXNXBXNXBXBXBXBXBXBXBXBXAXAXAXAXCXCXCXAXCXCXCXDXDXSXSXSXSXSXSXSXSXSXSXGXGXGXGXGXGXGXGXGXGXGXGXGXGXGXGXGXGXGXGXGXGXGXGXGXGXGXGXGXGXGXGXGXGXGXGXGXGXGXGXGXGXGXGXHXHXGXGXGXGXGXGXGXGXGXGXGXGXGXGXGXGXHXHXGXGXGXGXGXGXGXGXGXGXGXGXGXGXGXGXGXGXGXGXGXGXGXHXHXHXHXHXHXHXHXHXHXHXHXGXHXHXHXHXHXHXHXHXHXHXHXHXHXHXGXGXGXGXHXHXKXKXKXGXGXGXGXGXKXKXKXKXGXGXHXKXKXKXGXGXGX",
"{ { i.i.d.d.d.d.s.s.g.g.s.s.g.g.s.s.d.s.d.d.d.s.d.d.s.s.s.s.g.s.j.j.j.j.j.x.z.z.z.z.c.n.n.n.n.n.V.B.U.Q.T.!.~.8X8XwXuXuXiXpXpXdXsXsXsXdXsXdXpXiXuXrX9X8X8X8X8X8X9X8XrXuXuXuXiXpXsXfXzXcXvXvXVXAXAXAXVXVXbXvXxXzXkXjXaX9XqXY.n.x.d.{ Y Y Y Y { d.b.N.C.Y.4XqX5X4X4X4X4X4X4XY.m.N.z.h.} ] P p u > = @ . . . . . . . . . . . . . . . . . . . . . . . . . . . . . . @ @ @ @ # # # # # # = % % = = = % % % % % # $ $ @ @ @ @ $ $ @ @ @ @ @ . . . . . . . . . . . . . . . . . . . . . . . . . . . . . . . . . . @ @ @ $ $ $ $ $ $ $ $ $ $ $ $ $ $ $ $ $ $ $ $ $ $ $ $ @ @ @ @ @ @ $ # @ @ @ @ @ @ @ @ @ @ @ @ @ @ @ @ # # @ @ @ @ # # @ @ # # # # . . . . . . . . X . . . . . @ @ @ @ $ $ $ $ $ $ % 5 5 5 5 5 5 5 5 5 5 5 5 5 5 5 5 $ $ $ @ @ @ @ @ @ $ $ $ $ % % % % % % $ $ % % % % # % @ @ # @ # 7 7 $ % % $ % $ $ % % % # 9 9 s 9 ; w 9 d C ! !  .` ` ! ! Q ` X.8.' ' ' ( ^ Z Z ^ Z A A A A A A A x x e l D / v v D D / %.%.:.<.<.2.q.q.q.q.q.q.q.q.q.0.r. X Xr.0.r.r.r.r.r.r.q.q.q.t.t.t.t.r.r.r.t.q.q.w.,.2.2.q.q.:.:.:.<.w.q.w.:.:.2.:.:.q.q.<.:.:.:.2.<.,.:.:.2.:.:.:.,.;.,.,.,.w.:.:.,.,.w.:.2.;.,.,.:.&.;.2.;.:.w.:.-.<.:.2.9.-.:.-.-./ / ' -./ D Z D ^ ^ Z D W ' -.^ Z Z e e A W Z x x Z Z x W ^ Z ^ Z Z x C d e d c x c C C E W Q ` X.....X.Q ! ` ....E s 9 8 8 9 i 9 9 0 s s 0 9 0 i i i 9 9 9 9 0 0 0 0 0 q q 0 q q q q 0 0 V N N N N P L I I ] ] { } d.h.k.c.c.M.P.P.P.P.P.P.R.R.E.E.E.~.8XwXuXuXuXhXhXdXhXhXhXhXhXhXhXgXgXgXgXgXgXzXzXgXgXcXcXcXcXgXcXNXNXNXNXBXBXBXBXBXBXBXBXBXBXBXBXAXAXAXAXCXCXCXCXCXCXCXDXDXSXSXSXSXSXSXSXSXSXSXSXGXGXGXGXGXGXGXGXGXGXGXHXHXHXGXGXGXGXGXGXGXGXHXHXGXGXHXHXGXGXGXGXGXGXGXHXHXHXHXHXGXGXHXHXHXHXHXHXHXHXHXHXHXHXHXHXHXHXHXHXHXHXHXHXHXHXHXHXHXHXHXHXHXHXHXHXHXHXGXGXGXHXHXHXHXGXGXGXHXHXHXHXHXHXHXHXHXHXGXGXHXGXKXKXHXHXGXKXGXGXHXHXKXKXKXKXKXKXKXKXKXKXKXKXKXKXKXKXKXKXHXGXGXGXKXKXKXGXGXGXGX",
"{ i.i.d.d.d.s.g.s.g.s.s.s.s.s.g.g.s.s.s.s.d.d.s.d.d.s.s.s.s.g.s.h.j.j.j.j.x.x.z.z.z.c.n.n.n.n.V.V.B.U.Q.!.!.8X8X8XwXuXuXuXpXpXpXsXsXsXsXsXsXdXpXuXuXrX8X8X8X9X9XuXuXuXpXpXpXpXsXfXzXcXvXvXBXAXAXAXAXVXVXbXvXxXxXkXjXaXtX0X4XN.b.f.i.{ { { { d.k.n.C.Z.4XqX0X0X5XqX4X4X4X4XY.C.N.z.h.} U J u > = . . . . . . . # . . . . . . . . . . . . . . . . . . . . . . . . . . @ @ @ # $ # # # # % % % % % # % % # # $ @ $ @ $ $ # $ @ @ @ @ @ . . . . . . . . . . . @ @ @ . . . . . . . . . . . . . . . @ . . . . . @ @ @ $ $ $ $ $ $ $ $ $ $ $ $ $ $ $ $ $ $ $ $ $ $ $ $ @ @ @ @ @ @ $ $ @ @ @ $ $ @ @ @ @ @ @ @ @ @ @ @ # @ @ @ @ @ @ # # # # # # # . . . . . . X . . . o . . . @ # @ @ # $ $ $ $ $ $ % 5 5 5 5 5 5 5 5 5 5 5 5 5 5 $ $ $ $ @ @ @ @ @ @ @ @ $ $ % % % % % % $ % % % % % % $ @ # # @ % 9 7 @ 7 7 % 7 % % 7 9 % w s C B ; w w C Q Q ` ` C ( X. .`  ...X.( ( ( ^ W c c Z W A F x x x x l l e x v -.1.A v D / %.-.:.:.;.2.w.w.q.q.q.q.0.r.0.0.r. X Xq.w.q.0. X Xr.r.r.r.r.r.r.r.r.t.t.r.r.r.t.t.t.w.,.2.w.q.r.2.:.;.:.,.q.q.,.2.w.:.;.2.2.2.<.<.:.:.:.:.:.,.2.:.,.w.,.,.,.,.w.q.:.;.2.,.w.,.2.,.2.2.:.:.,.2.,.:.2.2.:.<.-.9.9.-.-.-.-.-.-.-.-.) / / D D ^ Z ' ' ' ^ e e x 3 d x d x x Z ^ ^ ( ' x ' ' Z ' ^ Z A C Z C c c C C W Q ! ( `  . ... .~ ~  .`  .~ s w 0 s s 9 8 9 0 i s i i i i i u u i 0 0 0 0 0 0 0 0 0 0 q q q 0 0 i V N N N B P P I ] ] ] [ } d.h.k.c.c.V.P.P.P.P.P.R.R.E.E.!.~.8XwXuXuXuXhXhXhXhXhXfXgXgXgXgXgXzXzXzXgXgXzXcXcXcXcXcXcXcXcXcXNXNXBXBXBXBXBXBXAXAXBXAXBXBXAXAXAXAXAXCXCXDXCXDXZXZXDXDXSXSXSXSXSXSXSXSXGXGXGXGXGXGXGXGXGXGXGXGXGXGXGXGXHXHXGXGXGXGXGXGXGXGXHXHXGXGXHXHXGXGXGXGXGXGXGXHXHXHXHXHXGXGXHXHXHXHXHXHXHXHXHXHXHXHXHXHXHXHXHXHXHXHXHXHXHXHXHXHXHXHXHXHXHXHXHXHXHXHXGXGXGXHXHXHXGXGXGXGXGXGXGXGXKXKXHXHXGXGXGXGXHXGXKXKXKXKXGXHXGXHXKXKXKXKXKXKXGXGXKXKXKXKXKXKXKXKXKXKXKXKXHXHXGXGXKXKXKXGXKXGXGX",
"i.i.i.d.d.d.g.g.s.g.g.g.s.s.s.g.g.g.g.g.g.d.d.d.d.d.s.s.s.s.g.s.h.h.j.j.x.x.x.z.z.c.c.n.n.n.V.V.B.Z.U.W.!.!.8X8X8XwXuXuXuXiXiXpXdXdXdXsXsXsXdXpXuXiXuX9X9XrXuXrXuXuXpXpXpXpXdXfXzXcXcXbXBXBXAXAXAXAXAXVXVXbXvXxXlXkXaXyX9X4XC.b.b.g.d.d.s.g.z.b.C.Z.4X5X0X0X0X0X0XqXqX4X4XY.C.N.b.u.[ L G u = = . @ @ @ . . . # . . . . . . . . . . . . . . . . . . . . . . . . @ @ @ @ @ @ @ @ # # # = = # % % $ # $ $ @ @ @ $ @ $ $ $ $ $ @ @ @ . @ . . . . . . . . . . . . . . . . . . . . . . . . . . . . . . . . . @ @ @ @ $ $ $ $ $ $ $ $ $ $ $ $ $ $ $ $ $ $ $ $ $ @ $ $ $ $ $ $ $ $ $ $ @ $ $ $ $ @ @ @ @ @ @ @ @ @ @ @ $ @ @ @ @ @ @ @ @ # # # . . . . . . . o X X X X . . . . # # # # $ $ $ $ $ % % 5 5 5 5 5 5 5 5 5 5 5 5 5 5 $ $ $ $ $ @ @ @ @ @ @ @ $ $ # % % # # $ $ $ % % % % % # @ # % # % 7 9 $ @ % % % % % * 7 w 7 B C E s h ~  . .d C Q ` X.X.X. .X. .W ( ` ` ^ W Z A Z Z v x x l l l k e 4 x v D 1./ l D / %.-.:.:.:.;.,.w.2.w.q.q.0.r.r.r.r.0.q.q.q.q.0.r. X X Xr.r. Xy.y.r.y.r.t.t.t.t.q.q.q.t.q.2.w.q.q.0.q.2.,.:.:.,.q.w.q.w.2.;.:.:.<.2.2.,.:.&.:.,.,.,.;.,.q.,.,.;.,.q.w.:.,.,.,.w.,.w.,.2.,.;.:.,.,.,.;.2.w.:.:.:.w.9.-.-.:.-.:.:.1./ ' -.-.^ Z ^ ^ ' ' v x e e e x d x d d x x x x A e x 8.^ Z 8.' ' ' ^ Z C c C C W Q ` ` ` `  .X.X..._ E E  .S...E s s s 9 8 9 9 9 s B s i i i i i i i i i 0 0 0 0 0 0 0 0 0 q q 0 0 0 V V N N N P P I ] ] ] ] { } s.h.k.c.M.P.P.P.P.P.P.R.R.W.!.~.8XuXuXuXuXhXdXdXhXhXfXgXgXgXgXgXzXzXcXcXcXcXcXcXcXcXBXcXcXBXBXBXBXBXBXBXBXAXAXAXAXAXAXAXAXAXAXAXCXCXCXCXCXCXCXSXSXSXSXSXSXSXSXSXSXSXGXGXGXGXGXGXGXGXGXGXGXGXGXGXGXGXGXHXHXHXGXGXGXGXGXGXGXGXGXGXGXHXHXGXGXGXGXGXGXGXHXHXHXHXHXGXGXHXHXHXHXHXHXHXHXHXHXHXHXHXHXHXHXHXHXHXHXHXHXHXHXHXHXHXHXHXHXHXGXHXHXGXGXGXGXHXHXHXHXGXGXGXGXKXKXGXGXKXKXKXKXGXGXHXGXKXKXKXKXKXKXGXGXKXKXKXKXGXGXKXKXGXGXGXGXKXKXKXKXKXKXKXKXKXHXHXHXKXKXKXKXGXGXKXKXGX",
"i.i.i.d.d.d.d.d.s.g.g.g.g.g.g.j.g.g.g.g.s.d.d.d.d.s.g.s.s.s.g.g.s.h.j.j.x.x.z.z.c.n.n.n.n.V.V.B.B.P.U.Q.W.!.8X8X8XwXuXuXuXiXpXpXdXdXdXdXsXdXdXpXiXiXuXrX9XuXuXuXdXpXdXdXdXdXsXfXcXcXcXBXBXBXAXAXAXAXVXVXVXbXbXxXxXkXjXaX9X5XI.n.b.b.x.x.z.b.m.V.Z.qX9XtX9X9X9X9X9X9XqX4X4XY.C.N.b.h.[ L f u = = . . . . . . . . . . . . . . . . . . . . . . . . . . . . . . . . @ # # # # # $ @ # # # # = = = = @ $ $ @ @ @ @ # @ $ $ $ $ @ @ . . . . . . . . . . . . . . . . . . . . . . . . . . . . . . . . . . . . . . @ @ @ $ $ $ $ $ $ $ $ $ $ $ $ $ $ $ $ $ $ $ $ $ @ $ $ $ $ $ $ # $ $ $ # # # @ @ @ . . @ @ @ @ @ @ @ @ @ @ @ @ @ @ @ @ . . . . . . . . . . o o o . . . . . . @ # # # # $ $ $ $ $ 5 5 5 5 5 5 5 5 5 5 5 5 5 5 5 $ $ $ $ $ @ @ @ @ @ @ @ $ $ # % # % % % @ $ $ $ # # # # $ $ % % @ ; 9 9 * 9 * ; 7 % * 7 7 * 9 s E s ; g Q Q C Q ` 8.S.X. . .` (  .( X.` ^ c x Z c c Z Z x x x l e e l v x A ^ D D / / %.-.:.<.2.2.,.,.q.q.w.q.0.r.r.r. Xr.0.q.q.0.r.r. Xr. X X X X X Xy.r.y.y.r.r.r.r.q.q.q.t.q.q.q.q.q.2.q.2.2.:.:.:.q.w.0.q.2.,.;.2.2.<.2.2.2.:.,.,.2.w.,.,.q.,.,.,.q.q.,.:.w.,.,.w.:.q.,.,.,.,.,.,.2.,.w.w.q.:.:.w.w.w.<.<.9.-.-.-.1.-.-.-.' / / / / ' ' Z c 4 x x w d x e x Z Z Z Z c X.1.Z Z A Z ( ^ ' ' ( Q Z Z Z C C W ! ` `  . . .X...! E ! _ X.~ g s d 9 0 s 0 9 s B B i i i i i i i i i i 0 0 0 9 0 0 0 0 q 6 0 0 0 0 0 V N N N P I I ] ] ] | { } h.k.c.c.M.V.P.P.P.P.P.R.R.W.8X8XuXuXuXuXhXhXdXdXfXfXgXgXgXgXzXzXcXcXcXcXcXcXcXcXNXBXBXBXBXBXBXBXBXAXAXAXAXAXAXAXAXAXAXCXCXCXCXCXCXCXDXCXDXCXSXFXSXFXSXSXSXSXSXSXGXGXGXGXGXGXGXGXGXGXGXGXKXGXGXGXGXGXHXHXHXGXGXGXGXGXGXGXGXGXGXGXHXHXHXGXGXGXGXGXGXHXHXHXHXHXGXGXHXHXHXHXHXHXGXGXGXGXGXGXGXGXHXHXHXHXHXHXHXHXGXGXGXGXGXGXGXGXGXGXGXGXGXGXGXGXHXHXHXHXGXGXGXGXKXKXKXGXKXKXKXKXKXGXKXKXKXKXKXKXKXKXKXGXKXKXKXKXHXKXKXKXGXGXGXGXKXKXKXKXKXKXKXKXKXHXHXHXKXKXKXKXGXKXKXKXGX",
"i.i.d.d.d.g.s.s.s.s.s.g.g.g.j.j.s.s.s.d.d.d.u.u.d.d.d.d.d.s.s.s.j.j.j.j.x.x.z.z.b.c.n.n.V.B.B.B.P.P.R.W.!.8X8X8XwXuXuXiXiXpXpXdXdXdXdXdXdXdXdXpXuXuXuXuXuXuXuXpXdXdXfXfXfXfXgXgXcXcXcXBXBXAXAXAXAXAXAXAXVXVXbXcXxXkXjXaX9X4XY.I.B.m.b.b.M.B.I.Y.6X9XtXtXyXyXyX9X9X9X9XqX4X4XC.N.z.u.] P p > = . . . . . . . . . @ @ . . . . . . . . . . . . . . . . . . . . . . @ @ @ @ @ @ # # @ @ $ @ @ $ $ $ # @ @ @ @ @ @ # $ @ @ @ . @ . . . . . . . . . . . . . . . . . . . . . . . . . . . . . . . . . . . . . @ . @ @ @ @ @ $ $ $ $ $ $ $ $ $ $ $ 5 $ $ $ $ $ @ $ $ $ @ $ = % $ # # # = # # @ @ @ @ @ @ . . @ @ @ @ # @ # @ . @ . @ o o # # . . . . . . o X X X . . . . . . . @ @ # # % $ $ $ $ $ $ $ 5 5 5 5 5 5 5 5 5 5 5 $ $ $ $ $ $ $ $ @ @ @ @ $ $ $ @ @ @ @ $ # # @ $ $ @ @ # * * @ 8 # @ 9 d w 9 w s 7 9 w % # % 7 % 7 C g # d Q g g C !  .....E ..X.! (  .Q Z C x Z ^ Z A D D v l v x l e l v A Z ^ / D / %.:.:.:.2.w.q.q.q.q.q.q.2.q.r.r.r.r.r.r.r.r.r.r.r.r. Xr.r.r. X X X Xy.r.r.y.y.y.r.t.0.r.t.t.t.q.0.t.0.q.2.q.w.2.w.w.q.q.'.q.2.2.:.:.2.,.w.2.,.w.,.,.w.2.2.:.,.q.q.q.q.,.,.w.,.:.,.,.,.w.q.w.w.,.,.,.,.,.2.w.w.2.2.2.2.:.:.w.w.:.:.<.:.:.-.<.-./ ^ -.' D / Z l x x x d e c Z Q ^ Z x c ( Z 4 4 x e x x ^ W ^ ( ` ` ( ^ ` ! ( E E ! ` ! ! ..S...! ~ ! _ ` E g s a s s i 0 s B s B i i i i i s s i i i 0 0 0 0 0 0 0 0 0 0 0 0 0 0 0 s V B P P L ] ] ] ] { } d.h.k.c.c.n.P.P.P.P.P.P.E.E.~.~.wXuXuXdXdXuXhXhXgXgXgXgXgXzXzXzXzXcXcXcXcXcXNXNXNXBXBXBXBXAXAXAXAXAXAXAXAXAXAXAXAXAXAXAXAXCXDXDXDXDXDXDXSXDXSXSXSXSXGXSXSXGXGXGXGXGXGXGXGXGXGXGXGXGXGXGXGXGXGXGXGXGXGXGXGXGXKXGXGXGXHXHXGXGXHXHXHXHXHXHXHXHXHXHXGXHXHXHXHXHXHXHXHXHXHXHXHXHXHXHXHXHXHXHXHXHXHXHXHXHXHXHXHXHXHXHXHXHXHXHXGXGXHXHXHXHXHXHXHXKXHXHXHXHXHXHXHXHXKXKXHXHXHXGXGXGXKXKXKXKXKXKXHXHXKXKXKXKXKXKXKXKXKXKXKXKXKXKXKXKXKXKXKXKXKXKXKXKXKXKXKXKXKXKXKXKXGXKXKXGXGX",
"i.d.d.d.d.g.g.g.s.s.s.g.g.g.j.j.s.s.s.d.d.d.d.d.d.d.d.s.s.s.s.g.j.j.j.j.x.x.z.z.z.z.n.n.n.B.B.B.P.R.Q.!.!.8X8X8X9XuXuXiXiXiXdXdXdXdXdXdXdXdXdXpXpXuXuXuXuXuXpXpXdXdXfXfXfXfXgXzXcXcXcXBXBXAXAXAXAXAXAXAXVXNXbXbXxXzXjXaX9X6X4XY.Y.I.C.B.I.T.4X6X9X9XiXaXaXaXaXyXiXiX9X0XqX4XC.N.k.u.Y J p > . . . . . . . . . . @ @ . . . . . . . . . . . . . . . . . . . . . . @ @ @ @ @ @ # # @ @ @ @ @ @ $ $ # # @ @ @ @ @ @ @ @ . . . @ . . . . . . . . . . . . . . . . . . . . . . . . . . . . . . . . . . . . . . . @ @ @ @ $ $ # $ $ $ $ $ $ $ $ $ $ $ $ $ $ $ $ $ $ $ $ $ $ $ = = = # # & & # @ @ @ @ @ . . @ @ # @ @ @ . . . . . . . . o . . o o o o . o o o X . . X . o . @ @ @ # # # $ $ $ $ $ $ $ $ 5 5 5 5 5 5 5 5 5 5 % $ $ $ = = $ $ $ @ @ @ @ $ @ @ # # % % * * % % * % # $ # # % @ # g s d d & ; ; # * ; ; 7 ; # 9 s Q w w d d g Q C `  .~ ! X... .! Q E c C W ^ Z A Z D Z v x l x x v D / / D / ) ) / -.:.:.2.q.q.q.q.q.0.t.t.r.r.r.[.r.r.r.r.r.r.t.t.r.r.r.r.r.r.r.y. X X X Xr.r.y.y.y.y.r.r. X[.r.t.q.q.0.0.0.w.q.q.q.q.q.w.q.D.q.q.q.:.;.2.;.2.,.,.q.w.,.2.2.2.,.2.q.,.,.w.w.,.q.,.,.,.,.,.2.,.,.,.,.,.,.,.,.,.2.w.2.2.,.:.:.<.9.<.:.:.9.<.<.:.:.-./ -.:.^ D ' Z e c v e x Q W d x e 4 Z Z e 4 e d e x l x v v Z ^ ( ( ( ( ! 1.S. .! E W  .! X.X.....` `  . .! B s s B B s s s s s N N i i i i s i i i i i i 0 0 0 0 0 0 0 0 0 0 0 0 0 s N B N P L I ] ] ] } } } h.h.x.c.V.V.B.P.P.P.P.R.E.E.~.wXuXuXuXhXhXdXhXgXgXgXgXgXcXzXcXcXcXcXcXNXNXNXNXBXBXBXAXAXAXAXAXAXAXAXCXCXAXAXAXAXCXCXCXCXDXDXDXDXDXDXDXSXSXGXSXSXGXGXGXSXSXFXFXGXGXGXGXGXGXGXGXGXGXGXGXGXGXGXGXGXGXGXGXGXGXKXGXGXGXGXHXGXGXGXGXGXGXHXHXHXHXHXHXGXHXHXHXHXHXHXHXHXHXHXHXHXHXHXHXHXHXHXHXHXHXHXHXHXHXHXHXHXHXHXHXHXHXHXHXGXGXHXHXHXHXHXHXHXKXHXHXHXHXHXHXHXHXKXKXHXHXGXGXKXGXKXGXKXKXKXKXHXGXKXKXKXKXKXKXKXKXKXKXKXKXKXKXKXKXKXKXKXKXKXKXKXKXKXKXKXKXKXKXKXKXKXKXGXGXGX",
"i.d.d.d.d.g.s.g.s.s.g.f.j.j.g.g.s.s.s.d.d.d.d.d.d.d.d.d.s.s.s.s.j.j.j.j.x.z.z.b.z.z.c.n.n.B.B.B.R.R.R.!.!.8X8XrX9XuXuXiXiXpXdXdXsXdXdXdXdXdXdXdXpXuXuXiXpXpXdXdXdXdXfXfXfXgXzXzXcXcXbXBXAXAXAXAXAXAXAXAXVXVXbXbXxXzXjXaXtX9XqX6X4XW.T.T.W.6X9X9XtXaXsXjXjXjXjXaXiXiX9X9X0X4XC.N.j.i.Y J p > = = . . . . . . . . @ . . . @ @ . . . . . . . . . . . . . . . . . . @ @ @ @ @ # # # # # @ @ @ @ $ $ # # @ @ @ @ @ @ @ @ . . . . . . . . . . . . . . . . . . . . . . . . . . . . . . . . . . . . . . . . . . @ @ @ @ @ @ $ $ $ $ $ $ $ 5 $ $ $ $ $ $ $ $ $ $ = = = = $ $ $ $ = = # # & & # # @ @ @ @ . @ @ @ @ @ @ . . . . . . . . . . . . . o o o o o o . X . . o o o # @ @ $ # $ # $ $ $ $ $ $ 5 5 5 5 6 6 6 5 5 5 5 5 % $ $ $ = = $ $ @ @ @ @ @ @ # % % * * % % % # $ % % % % % ; * @ C E d w # . 8 @ # * # 7 7 @ # d s h ; h d B C B ! ` E X. .~ `  . .Q Q ` ` ^ W Z Z A v l x x l l l D / D A / ' / %.<.2.<.2.w.q.q.q.q.0.r.r.r.r.r.r.r.r.r.t.r.r.t.t.t.r.r.r.r.r.y.y.y. X,X,X Xr.r.r.r.r.r.r.r.r.r.t.q.w.w.q.q.q.2.2.w.q.2.2.;.q.0.q.q.q.2.2.2.2.2.,.,.w.2.,.,.2.w.w.q.q.,.,.,.w.w.w.,.,.,.,.,.w.,.,.,.;.,.,.,.w.w.w.w.w.w.,.:.<.<.q.2.<.<.9.<.:.:.-.-.-.1.-.D / -.^ v v c c ^ ^ e x c W ^ c e e x A x e x e v ^ Z x x x c Z W g ! (.S.1. .` Q ! ` ! X.S... .X._ ` ~ g g g B B s s B s N B p i i i N i i i s s V i 0 0 0 0 0 0 0 0 0 0 0 0 i s B N K L L ] ] ] | | } } d.h.c.c.V.V.P.P.P.P.P.R.E.~.wXuXuXuXhXhXfXfXgXgXgXzXcXcXcXcXcXNXNXNXNXNXNXBXBXBXAXAXAXAXAXAXAXCXCXCXCXCXCXCXDXDXDXDXDXDXDXDXDXDXSXSXGXGXGXGXGXGXGXGXGXGXGXGXGXGXGXGXGXGXGXGXGXGXGXGXGXGXGXGXGXGXGXGXGXGXKXGXGXGXGXGXGXGXGXGXGXGXGXGXGXGXGXGXGXHXHXHXHXHXHXHXHXHXHXHXHXHXHXHXHXHXHXHXHXHXHXHXHXHXHXHXHXHXHXHXHXHXHXHXGXGXGXHXHXHXHXHXKXKXHXHXHXHXHXHXHXHXKXKXKXHXKXKXKXKXGXGXHXHXKXHXHXGXKXKXKXKXKXKXKXKXKXKXKXKXKXKXKXKXKXKXKXGXGXKXKXKXKXKXKXKXKXKXKXKXKXKXGXGXGX",
"i.d.d.d.g.g.f.g.s.g.f.f.j.j.g.s.g.s.s.s.d.d.d.d.d.d.d.d.d.d.s.s.j.j.j.j.x.z.z.z.z.b.n.n.B.B.P.I.R.R.R.!.!.8X8XuXuXuXuXiXpXdXdXdXsXdXdXdXdXdXdXdXpXpXpXpXdXdXdXfXfXfXfXfXgXgXzXcXcXcXBXBXAXAXAXCXAXAXAXAXAXVXVXbXxXxXkXsXaXtX9X9X9X7X6X6X0X9XiXiXaXjXkXkXjXjXjXjXaXaX9X9X0X4XC.b.f.} U J p > & & . . . . . . . . @ @ @ @ @ @ . . . . . . . . . . . . . . . . . @ @ @ @ @ # # # @ # # $ @ @ @ @ @ # # $ @ @ @ @ @ @ @ . . . . . . . . . . . . . . . . . . . . . . . . . . . . . . . . . . . . . . . . @ . @ @ @ $ @ @ $ $ $ $ $ $ $ $ $ $ $ $ $ $ $ $ $ $ $ * % = $ $ # % = = = # = = # # # @ @ @ @ @ @ @ @ @ . . . . . . . . . . o o . . o o o . o o . . . . o o . . . @ @ @ # # $ $ $ $ $ 5 5 5 5 5 6 6 6 6 5 5 5 5 $ $ $ $ $ = @ @ @ @ @ @ @ @ % % # # $ @ . . @ @ @ $ $ # ; 8 $ 8 ~ 9 s ; . w w # ; ; # % @ @ 7 s 9 w 9 d d B B ~ E ~ ....g  ... . .Q ( 8.' Z Z v v x x x x l x D D A A D D / / -.<.w.2.w.q.q.q.q.q.0.t.r.t.0.q.t.t.0.r.r.t.r.r.t.q.t.r.y. X Xy.y.r.r.r.y.y.r.r.r.r.t.t.t.t.t.q.q.q.q.q.q.q.q.q.q.2.q.q.2.w.,.0.0.q.w.q.q.2.w.q.q.,.,.,.,.;.;.,.w.w.q.q.,.,.w.w.,.2.,.,.2.2.w.q.w.,.:.;.,.,.,.q.q.w.w.w.w.2.:.<.q.q.w.<.9.q.<.:.:.-.<.<.:./ / ' / / D v Z ^ ^ x Q W Q Z e e e e A e e l e v D v v x x x x x c Q W ....X.8.(.8. .X. .X.....X. .!  .! ~ B s s B B B B s N L N N N N N N N N N N V i i 0 0 0 0 0 0 0 0 0 0 0 i i B N K P L I ] ] ] ] | } } h.x.c.n.V.P.P.P.P.P.R.E.~.~.wXwXuXhXhXfXfXgXgXgXcXcXcXcXNXNXNXNXNXBXBXBXBXBXAXAXAXAXAXAXAXCXCXCXCXCXCXCXCXDXDXDXDXDXDXDXDXDXDXSXSXGXGXGXGXGXGXGXGXGXGXGXGXGXGXGXGXGXGXGXGXGXGXGXGXGXGXGXGXGXGXGXGXGXGXKXGXGXGXGXGXGXGXGXGXGXGXGXGXGXGXGXGXGXGXHXHXHXHXHXHXHXHXHXHXHXHXHXHXHXHXHXHXHXHXHXHXHXHXHXHXHXHXHXHXHXHXHXHXGXGXGXGXHXHXHXHXKXKXKXKXGXGXGXKXKXKXKXKXHXHXKXKXKXKXGXHXHXHXKXKXGXGXKXKXKXKXKXKXKXKXKXKXKXKXKXKXKXKXKXKXGXGXGXGXKXKXKXKXKXKXKXKXKXKXKXKXKXGXGX",
"i.d.d.d.d.g.f.j.s.g.f.j.j.j.g.s.g.g.s.s.d.d.d.d.d.d.d.d.d.s.s.s.j.j.j.j.x.x.z.z.z.c.n.n.B.P.U.U.R.Q.R.!.!.8X8XrXuXuXuXiXpXdXdXdXsXdXdXdXdXdXdXdXdXpXpXdXdXdXdXfXfXfXgXgXzXzXcXcXcXBXBXBXAXAXAXAXAXAXAXAXAXVXVXbXxXxXxXzXsXaXiXiXiXiXuXuXiXpXsXsXjXzXzXzXkXkXjXjXjXaXiX9X9X4XC.b.u.[ L J u > = = . . . . . . . . = = @ = = = @ @ . . . . . . . . . . . . . . . @ @ @ @ @ # # # @ # # $ @ @ @ @ @ # # $ @ @ @ @ @ @ @ . . . . . . . . . . . . . . . . . . . . . . . . . . . . . . . . . . . . . . . . . . . @ @ $ @ @ $ $ $ $ $ $ $ $ $ $ $ $ $ $ $ $ $ = % % = % # % * * * * * * & & & # # # # @ # @ @ . @ . . . . . . . . . . . o o X X o o . . o . . . . . o o . . . @ @ $ # % $ $ $ $ $ 5 5 5 5 5 5 5 5 5 % $ % $ $ $ $ $ $ @ @ @ @ . . . @ @ @ @ . . . . @ @ # $ @ @ @ @ @ # 8 B 9 # s # 9 B 9 # # # # $ . 7 B * 9 s 9 s C s E ! ~ .. .E  ... .Q ( X.' ` W c v l l v A x l l D ) D v D D / -.:.<.w.2.2.q.0.r.0.0.t.r.r.r.r.r.r.r.r.r.r.r.r. X[.r.r.r.y.y.y.y. Xy.r.r.r.r.t.r.r.r.r.r.t.t.q.q.q.q.q.q.q.q.q.q.q.0.q.t.t.2.w.2.q.q.w.q.q.q.2.2.q.q.,.,.,.>.;.;.,.,.,.w.w.,.,.w.,.,.,.,.2.2.2.q.q.w.,.:.,.,.,.,.w.w.2.2.w.w.2.:.2.q.w.q.<.q.9.w.w.<.<.9.9.:.-.-.-.:.1.' ) -.' v ^ ^ c e e 3 4 e x e e x e e v v l e l x x x c Z c ( X. .(  .` X.1.8.S.S...8.S...X.X. ._ ! B d B B B s s N ~ N N N N N N N N N N N i i i i 0 0 0 0 0 q 9 q 0 i i B N K P L ~ _ ] ] ] | | } d.h.k.c.n.V.P.P.P.R.R.E.E.~.~.wXuXhXhXfXfXfXgXzXcXcXcXNXNXNXNXNXBXBXBXBXBXAXAXAXAXAXAXAXAXCXCXCXDXDXDXDXDXDXDXDXDXDXDXDXSXSXSXGXGXGXGXGXGXGXGXGXGXGXGXGXGXGXGXGXGXGXGXGXGXGXGXGXGXGXGXKXKXKXKXKXKXKXKXKXKXKXGXGXGXKXGXGXHXHXHXGXGXGXGXGXGXGXGXGXHXHXHXGXGXGXGXGXGXGXHXHXHXHXHXHXHXHXHXHXHXHXHXHXHXHXHXHXHXHXHXHXHXHXHXKXKXKXHXHXGXHXKXKXKXGXHXHXHXKXKXKXKXKXKXKXKXKXHXKXHXHXHXGXGXGXGXKXKXKXKXKXKXKXKXKXKXKXKXKXKXKXKXKXKXGXGXGXGXKXKXKXKXKXKXKXKXKXKXKXKXKXGXGX",
"i.d.d.d.g.g.j.j.f.f.j.j.j.j.g.s.g.g.s.s.d.d.d.d.d.d.d.d.s.s.s.s.h.j.j.j.x.x.z.z.z.c.n.n.n.B.U.U.Q.Q.W.!.7X8XrXrXuXuXuXpXdXdXdXdXfXsXsXdXdXdXdXpXdXdXpXdXdXdXdXfXfXgXgXgXzXcXcXcXBXBXBXBXAXAXAXAXAXAXAXAXAXVXVXVXcXcXxXxXzXkXaXaXdXsXsXsXaXsXkXzXzXxXxXzXzXzXzXjXjXjXaX9X9X4XC.z.u.[ L G u > = . . . . . = = = = & & = & & & & = . . . . . @ @ @ @ . . . . . @ @ @ @ @ @ @ # # # # # $ @ @ @ @ @ $ $ @ @ @ @ @ @ @ @ . . . . . . . . . . . . . . . . . . . . . . . . . . . . . . . . . . . . . . . . . @ . @ @ @ @ @ $ $ $ $ $ $ $ $ $ $ $ % % $ = $ $ $ % % % = % * * * * * ; ; * & & & # # # # # @ @ . . . . . . . . . . . . . o o X X X X . . . . . . . . o o # # # # @ $ $ $ $ $ $ $ $ $ 5 5 5 5 5 5 5 5 5 $ $ $ $ $ $ $ @ @ @ @ @ . . . @ @ @ @ . . . @ @ # $ # # $ @ $ @ @ s B ; w 9 8 ; s 8 # . . $ @ % s s % 9 w h C E g Q ` ....! ` S. .E Q X.1.' Z x x x v v x l l v A D v l D / / %.w.w.w.w.w.q.0.r.r.r.t.0.t.0.0.r.'.r. Xr.r.r. X X X X X X Xy.r.r.y. Xy.y. Xy.r.r.y.r.r.r.r.t.t.t.q.t.q.q.q.w.w.q.w.3.q.q.q.q.,.2.q.w.2.2.2.2.3.,.,.,.,.2.,.,.,.,.,.,.,.,.,.w.,.,.,.,.,.2.2.q.w.,.q.w.w.,.,.,.,.w.q.,.2.2.2.q.q.w.2.w.0.q.q.2.0.q.q.9.2.9.<.9.:.:.-.%.-.-.-.-./ A v ^ x W x 3 d e x x e e x x e e x v x v v A A Z Z Z ^ ` ( Q ( ^ Q ( ` ..S.....S.S.X..... .! E B B K B s s B K K N N N N N N N N N N i i i i i i i 0 0 9 q 8 0 i i N N N P L L ~ _ ] ] ] | | } h.j.z.c.n.V.P.P.P.R.E.E.E.~.8XuXhXhXdXhXfXgXzXzXcXcXNXNXNXNXBXBXBXBXBXAXAXAXAXAXAXCXAXAXCXCXDXDXDXDXDXDXDXDXDXDXDXDXSXSXSXGXSXGXGXGXGXGXGXGXGXGXGXGXGXGXGXGXGXGXGXGXGXGXGXGXGXGXGXGXKXKXKXKXKXKXGXKXKXKXKXGXGXGXGXKXKXKXKXKXGXGXKXKXGXGXGXGXGXGXGXGXGXGXGXGXHXGXHXHXHXHXHXHXHXHXHXHXHXHXHXHXHXHXHXHXHXHXHXHXHXHXGXHXKXKXKXKXGXGXHXKXKXKXGXGXHXHXKXKXKXKXKXKXKXKXHXHXKXKXHXHXGXGXGXGXKXKXKXKXKXKXKXKXKXKXKXKXKXKXKXKXKXKXKXGXGXKXKXKXKXKXKXKXKXKXKXKXKXKXKXGXGX",
"i.d.d.d.d.g.f.j.f.f.j.j.j.j.j.g.g.g.s.d.d.d.d.d.d.d.d.d.s.s.g.g.h.j.j.j.x.x.z.z.z.b.n.n.n.P.U.Q.Q.R.!.!.7X8XrXrXuXuXiXpXdXdXdXdXfXfXfXfXsXdXdXpXdXpXpXpXdXdXfXfXfXgXgXzXzXcXcXcXBXBXBXBXAXAXAXAXAXAXAXAXAXVXNXbXvXvXcXxXzXzXzXzXsXgXgXgXsXgXzXzXzXcXxXcXxXxXzXzXjXjXaX9XqXY.N.z.u.[ L G u > @ . . . . = = = & = & & & & * * * & @ @ . . @ @ @ @ @ @ @ @ @ @ @ @ @ @ @ @ @ @ # # $ $ $ $ @ @ $ $ @ @ @ @ @ @ @ @ @ @ @ @ . . . . @ . . . . . . . . . . . . . . . . . . . . . . . . . . . . . . . . . . @ @ @ @ @ @ @ $ $ $ $ $ $ $ $ $ $ % % % $ % % $ $ % % * * % * * * * * ; ; ; * & & & # # # @ @ @ @ . . . . . . . X . . . . . . . . o o X . . . . . . . . . # # # @ @ $ $ $ $ $ $ $ % 5 5 5 6 5 5 5 5 5 5 5 $ $ $ $ $ $ @ @ @ @ @ . . @ @ @ # @ @ . . . @ @ . # # @ # ; 8 ; 9 9 s s ; 9 . w ; $ @ $ @ # 9 0 $ 9 s s C ` C Q  .! .. ...8.X. .X.1.X.^ Z c c v A v v l l A v l v A D / -.<.9.q.q.w.w.0.r.r.0.0.r.t.t.t.r.r.r.[.r.r.r.r.r. X X X X X X X Xy.y.y.y.y.y.y.y.r.r.r.t.t.t.t.t.t.t.t.t.t.t.t.t.t.t.q.q.q.t.q.0.q.w.t.w.,.2.2.2.2.,.>.,.,.,.3.,.,.,.,.,.,.,.w.q.,.2.2.w.w.q.q.q.3.,.w.q.w.2.,.2.q.q.q.2.2.2.2.q.0.q.w.q.q.q.q.q.0.q.q.q.w.w.<.<.:.:.-.-.:.-.-.:.) D -.^ Z v c d e x e e e e e x e 4 v x x v Z D A v x A x W C c Z Q x d g E ! ! ` .... .X...X.! E B B ~ B s s N N ~ J N N N N N N N N N N N V V i i V i 0 0 q 0 0 0 0 V N N K P L L _ ] ] ] ] { } d.h.k.z.c.n.m.V.P.P.R.W.E.!.~.uXuXdXdXhXgXgXgXzXcXNXNXNXNXBXBXBXBXBXAXAXAXAXAXAXAXCXCXCXCXCXDXDXDXDXDXDXDXDXDXDXDXDXHXHXHXHXGXGXGXGXGXGXGXGXGXGXGXGXGXGXGXGXGXGXGXGXGXGXGXGXGXGXGXGXGXKXKXKXKXGXGXGXKXKXKXHXHXHXKXKXKXKXKXKXHXHXHXGXHXHXHXHXHXHXHXHXHXHXHXHXHXHXHXHXHXHXHXHXHXHXHXHXHXHXHXHXHXHXHXHXHXHXHXHXHXHXGXGXKXKXKXGXGXGXKXKXKXKXKXGXHXHXKXKXKXKXKXKXGXGXGXHXKXKXKXKXGXKXGXGXKXKXKXKXKXKXKXKXKXKXKXKXKXKXKXKXKXKXKXKXKXKXKXKXKXKXKXKXKXKXKXKXKXKXKXGXGX",
"i.d.d.d.d.g.f.f.j.j.j.f.j.j.j.j.g.g.s.d.d.d.d.d.d.d.d.d.s.s.s.g.h.j.j.j.x.x.z.z.z.n.n.V.B.P.U.Q.Q.R.!.!.8X8XrXrXiXuXiXpXdXsXdXdXfXfXfXfXdXdXdXpXpXiXpXdXdXdXfXfXgXgXgXzXzXcXcXcXBXBXBXBXBXAXAXAXAXAXAXAXVXVXNXNXNXbXcXcXcXxXcXcXzXzXzXzXzXzXzXcXcXcXvXxXxXxXxXxXjXjXaX9X4XI.b.k.i.] P f u = . . . . @ = = & & & & & & > * * * & & & = @ @ @ @ @ @ @ @ @ @ @ @ @ @ @ @ @ @ @ # = @ @ $ $ $ $ $ $ @ @ @ @ @ @ @ @ @ @ @ @ . . . . @ . . . . . . . . . . . . . . . @ . . . . . . . . . . . . . . . . . . . @ @ @ $ @ @ $ $ $ $ $ $ % % % $ $ % % $ % % $ $ # % * * * % # % * * ; & * ; * & & & # # @ @ . @ . . . o . . . . . . . . . . . . o o o o X . . . . . o . . . @ @ @ $ # # # $ = % % 5 5 5 5 5 5 5 5 5 5 $ $ $ % % = $ $ @ @ @ @ . . @ @ @ @ @ @ @ . @ @ @ @ # $ . $ 9 i w 9 s d ; ; # ; 9 # . @ * . * s * 9 s s s d ! C ` !  .X.` 8.X. .X.S.1.Z x Z W ^ A v v v D D v l v A D / :.9.0.0.q.q.q.0.0.0.r.r.r.[.r.r.r. X X X Xy.r.r.r.r. X X X X X[. X Xy.y.y.y.y. Xy.r.r.r.t.t.t.t.t.t.t.t.t.t.t.r.r.t.t.t.q.q.q.q.q.0.t.q.r.0.2.q.3.,.w.,.,.w.3.,.,.,.,.,.,.,.,.,.q.0.w.3.w.q.q.q.q.q.,.,.q.q.w.2.2.w.q.q.w.q.q.w.2.q.0.q.w.q.q.0.w.0.q.0.q.q.q.q.0.<.<.2.q.-.:.:.-.' -.1.1.^ D Z x c Z e x x x e x e e x x Z x x x x x x x x Z ^ e c e c C Z Q C C W ! X.X. .!  .X. .~ E g _ E s s B N _ P N N J P K J N N N N N N i i i V i 0 0 0 0 q q 0 V N N K P L L L L ] ] | } } } u.h.k.c.c.c.n.V.P.R.W.!.!.~.8XuXhXhXhXgXgXzXzXcXNXNXNXBXBXBXBXAXAXAXAXAXAXAXAXAXAXCXCXCXCXDXDXDXDXDXDXDXDXDXSXSXSXHXHXHXGXGXGXGXGXGXGXGXGXGXGXGXGXGXGXGXGXGXGXGXGXGXGXGXGXGXGXGXGXGXKXKXKXKXKXGXGXKXGXGXHXHXHXHXKXKXKXKXKXHXHXGXGXHXHXHXHXHXHXGXGXHXHXHXHXHXHXHXHXHXHXHXHXHXHXHXHXHXHXHXHXHXHXHXHXHXHXHXHXHXHXGXGXKXKXKXGXGXGXKXKXKXKXKXKXHXHXKXKXKXKXGXGXGXHXHXHXKXKXKXKXKXKXGXGXKXKXKXKXKXKXKXKXKXKXKXKXKXKXKXKXKXKXKXKXKXKXKXKXKXKXKXKXKXKXKXKXKXKXKXGXGX",
"d.d.d.g.g.f.f.f.f.f.j.j.j.j.j.x.g.s.s.d.d.d.d.d.d.d.d.d.d.s.s.j.j.j.j.j.x.x.z.b.n.n.n.n.V.B.U.Q.Q.W.!.7X8X8XuXuXpXpXdXdXdXdXfXfXfXfXfXfXfXdXpXpXpXpXpXdXdXfXfXfXgXgXzXzXcXcXcXcXBXBXBXAXAXAXAXAXAXAXAXAXVXVXVXVXNXNXNXvXcXcXcXcXcXcXcXcXcXcXvXvXNXNXvXvXvXvXcXzXzXjXaX9X6XY.b.u.i.] P p y = = = = . . = & > > * & * > > > > > * > > & & = & @ @ @ @ @ @ $ $ $ $ @ @ @ @ @ # # # # # @ @ @ @ @ @ @ @ @ @ @ @ @ @ @ @ @ @ @ @ @ . . . . . . . . . . . . . . . . . @ . . . . . . . . . . . . . . @ . . . @ @ @ $ @ % % $ $ $ $ $ $ $ % 5 % % $ % % * * * * * * * * * * * * ; ; * * ; ; ; ; & # # # @ @ . . . . . . X . . . . . . o . o o o o . . . . . . o o o . . o . # # # @ $ % % % % % % % % 5 6 6 5 5 % 5 5 $ % % % $ $ $ @ @ . . . @ @ . . . @ @ . @ @ @ . . @ @ @ . 8 i ; * ; s s # 9 8 . 8 * . * @ @ s @ 7 w ; h s C Q !  .!  . ...X.` 1.S.1.C A Z ^ D D v v A v v v v v D / %.<.2.9.0.D.'.r.r.t.0.r.r.r.r.[.[.[.[.[.r.[. Xr. X Xr.y. X Xy.y.y.y.y.y.r.y.y.y.y.y.y.r.r.r.t.r.t.t.t.t.t.t.q.t.t.t.t.t.t.q.q.t.q.q.t.q.q.q.t.t.q.q.w.2.,.3.3.,.,.,.3.w.,.,.,.3.3.q.w.r.q.q.q.0.t.q.q.t.,.,.w.q.q.w.w.q.q.q.q.0.0.q.q.q.r.0.w.0.q.w.0.0.0.q.0.0.q.0.q.2.2.9.<.9.2.:.2.:.:.<.-./ D Z ^ ^ x e x e e e e x x x x x x e x e e l x x Z x d x A Z Z Q Q Q E c E `  .X.`  ..... .E B K K B f f N _ L P J P J N J N N N N N i i i N N V i 0 0 0 0 0 i i N N B B K L ] _ ] ] | | } } u.s.k.c.c.c.c.n.P.R.R.W.~.~.uXuXdXdXhXgXgXgXzXcXNXNXBXAXAXAXAXAXAXAXAXAXAXCXAXAXAXCXCXCXCXDXDXDXDXSXSXDXDXDXHXGXGXHXHXGXGXGXGXGXGXGXGXGXGXGXGXGXGXGXGXGXGXGXGXGXGXGXGXGXGXGXGXKXKXKXKXKXGXGXGXKXKXHXHXGXHXHXHXHXHXHXKXKXKXGXGXHXHXHXKXKXGXHXHXHXHXHXHXHXKXKXKXGXHXHXHXHXHXHXHXHXHXHXHXHXHXHXHXHXHXHXHXHXHXHXHXHXHXKXGXGXHXHXHXKXKXKXKXGXGXHXKXKXKXHXHXHXGXGXGXHXHXKXKXKXKXKXKXKXKXGXKXKXKXKXKXKXKXKXKXKXKXKXKXKXKXKXKXKXKXKXKXKXKXKXKXKXKXKXKXKXKXHXHXHXKXKX",
"d.d.d.g.g.f.f.f.j.j.j.j.j.j.j.j.g.s.s.d.d.d.d.d.d.d.d.d.s.s.g.j.j.j.j.j.x.x.z.b.n.n.n.V.V.P.U.Q.R.!.!.7X8X8XuXuXpXdXdXdXdXdXfXfXfXfXfXfXfXsXdXpXpXpXpXdXfXfXfXfXgXgXzXzXcXcXcXcXBXBXBXAXAXAXAXAXAXAXAXAXVXVXVXVXNXNXNXNXNXcXcXcXcXcXcXcXvXvXNXNXVXVXNXNXNXvXvXcXzXjXdX9X4XI.b.u.} ] P p u > = = = = = & > > > > * * > > > > > * > > & & & & # @ @ @ @ @ $ $ $ @ @ @ @ @ @ @ # # @ @ @ @ @ @ @ @ @ @ @ @ @ @ @ @ @ @ @ @ @ @ . . . . . . . . . . . . . . . . . . @ . . . . . . . . . . . . . . @ . . . @ @ $ $ @ % % % $ $ $ $ $ % % % % % % % % * * * * * * ; 7 ; * ; ; > ; ; * ; ; ; & # # # # @ . . . . . . . . X . . . . . o o o o o o o . . . . . o o o . . . . @ & # @ # % # # $ % % % % 5 6 5 5 $ 5 5 5 5 % % % $ = $ @ @ . . @ @ @ @ @ @ @ @ . . . @ @ . . @ @ * 9 7 * # % B s ; 7 7 # ; * @ @ @ B * % 0 8 9 d h C Q ` ` ` X. . .....X.( x c Z Z ^ A l v v v v A A D D D / :.9.q.0.D.'.'.r.r.r.0.r.r.r.r. X X X X X[.[.y. X X Xr.r. X X Xy.y. Xy.y.y.y.y.y.y.y.r.t.t.r.t.r.r.t.t.t.t.t.t.t.t.t.t.t.q.t.t.q.q.q.t.t.t.t.r.q.q.t.t.q.q.3.,.,.,.,.,.3.,.,.,.w.w.q.q.r.t.0.0.0.0.w.q.t.q.,.3.q.q.q.q.q.q.q.q.0.0.q.q.0.r.0.q.0.q.q.0.'.0.0.0.0.0.0.0.2.<.9.0.w.:.:.9.<.<.:./ -./ D ^ ' ^ v x e x x c c Z Z Q ' ' x e e e e e x x x e x x c Z W W Q W C E ! !  .X. . .X... .E B B ~ B N f ~ L L P J J N J N N N N N N i i N N V V i 0 0 0 0 0 i V B N B P L L _ ] ] | | | } u.s.h.k.c.c.c.n.V.P.R.E.!.~.8XuXdXhXfXgXgXgXcXcXNXNXBXAXAXAXAXAXAXAXAXAXCXCXCXAXAXCXCXCXCXDXDXDXDXDXDXDXDXDXHXGXGXGXGXGXGXGXGXGXGXGXGXGXGXGXGXGXGXGXGXGXGXGXGXGXGXGXGXGXGXGXGXKXKXKXKXGXGXGXGXKXKXHXHXGXHXGXHXKXHXGXKXKXKXHXGXHXHXHXKXKXKXHXHXHXHXHXHXHXKXKXKXGXGXHXHXHXHXHXHXHXHXHXHXHXHXHXHXHXHXHXHXHXHXHXHXHXHXKXKXHXHXHXHXKXKXKXKXKXGXHXKXKXKXHXHXGXHXGXHXHXHXKXKXKXKXKXKXKXKXGXKXKXKXKXKXKXKXKXKXKXKXKXKXKXKXKXKXKXKXKXKXKXKXKXKXKXKXKXKXKXKXKXHXHXKXKX",
"d.d.d.g.f.f.j.j.j.j.j.j.j.f.j.j.j.g.s.s.d.d.d.d.d.d.d.s.s.s.g.j.j.j.j.j.x.x.z.b.n.n.V.V.B.P.U.Q.W.!.7X7X8X8XrXuXpXpXdXsXsXfXfXfXfXfXfXfXfXsXsXpXpXpXpXdXsXfXfXfXgXgXzXcXcXcXcXcXBXBXBXAXAXAXAXAXAXAXAXAXBXVXVXVXVXVXVXNXNXNXNXNXNXNXNXNXVXVXVXVXAXVXVXVXVXNXNXcXzXjXiX9XT.I.b.u.{ Y P p u y > > = = = & > > > > > > * * > > > > > > > > * = & & @ @ @ @ @ @ @ @ # # # # @ @ @ @ @ @ @ @ $ $ $ $ $ @ @ @ @ @ @ @ @ @ @ @ . . . . . . . . . @ @ @ . . @ @ @ @ @ @ @ . . . . . . . . . . . . . . @ @ @ @ @ $ # $ $ $ $ % % $ $ $ $ % % $ $ $ $ % % % % % * * * 7 8 8 ; > > > > > ; ; * * & # # # # o . . . . . . . O X . . . . . o o X X X . . . . . . . X o o o . . . . # # @ # & # # $ % % * 6 6 5 % $ $ 5 5 5 % % % $ $ = $ $ @ @ @ @ @ @ @ @ @ @ . . . . @ @ @ @ # $ 9 9 % ; # s C 7 7 7 7 ; @ * % $ w w . 7 7 9 s w d ! X.X.`  . .( ` X.` W c A ^ ( ^ ) ^ x l v D v v A D / <.<.q.0.'.D.r.'.`.'.r.r.r.r.'. X X X X X X X X X X X X Xr.r.y. X Xy. X X X Xy.y.y.y.y.r.t.t.t.r.r.r.r.r.t.t.t.t.t.t.t.r.r.t.q.q.q.q.t.r.r.e.t.t.t.q.q.q.q.t.t.q.3.3.,.,.w.q.q.q.q.3.q.w.q.r.[.r.r.0.q.w.q.t.q.,.3.q.q.q.q.0.q.q.q.0.0.q.q.0.t.r.r.'.0.q.0.'.'.0.0.0.'.D.9.9.9.9.0.9.:.<.9.w.<.:.-./ / / ) / ' / v x x x x e 3 e e e c Z c x e e e e e e e e e e e e h c C E Q ! Q !  ... .X.S...! _ E X.~ K K ~ _ L _ N K J N N N N N N N N N N N V V i i 0 0 i i i i N N N P P P ~ ] _ ] ] | { } u.s.h.k.x.z.c.c.P.P.R.!.~.8XuXdXhXgXgXgXzXcXcXNXNXBXAXAXAXAXAXAXAXAXAXCXCXCXCXCXDXDXDXDXDXDXDXDXHXDXDXDXHXHXGXGXGXGXGXGXGXGXGXGXGXGXGXGXGXGXGXGXGXGXGXGXGXGXGXGXGXGXGXGXGXGXKXKXKXKXKXKXKXKXKXKXHXKXKXKXKXKXKXKXKXKXKXKXKXKXKXKXKXKXKXKXKXKXKXHXHXHXHXHXKXKXKXGXHXHXHXHXHXHXHXHXHXHXHXHXHXHXHXHXHXHXHXHXHXHXHXHXKXKXKXKXGXGXKXKXKXKXGXGXHXHXKXKXKXKXGXGXKXHXKXKXKXKXKXKXKXKXKXKXGXKXKXKXKXKXKXKXKXKXKXKXKXKXKXKXKXKXKXKXKXKXKXKXKXKXKXKXKXKXKXKXKXKXKXKXKX",
"d.d.d.g.f.f.j.j.j.x.x.j.j.f.f.j.j.j.s.s.s.d.d.d.d.d.d.s.s.s.s.s.j.j.j.j.x.x.z.b.n.n.V.V.B.P.U.Q.W.!.7X7X8X8XrXuXpXdXdXfXfXfXfXfXfXfXfXgXfXfXsXpXpXpXsXsXfXfXfXfXgXzXzXcXcXcXcXcXBXBXBXAXAXAXAXAXAXAXAXBXBXVXVXVXVXVXVXVXVXVXBXNXNXBXBXVXVXAXAXAXAXAXVXVXVXNXvXcXzXsXiX0XR.m.c.u.} Y P f p u u 9 > > * * * > * > * > * > > & > > > > > > * = & & # # # # $ @ @ @ # # # # $ # $ $ @ @ @ @ $ $ $ $ $ $ @ @ @ @ @ @ @ @ . @ . . . . . . . . @ @ @ @ @ @ @ @ @ @ @ @ . . . . . . . . . . . . . . . . @ @ @ @ # # # # @ $ $ $ $ $ $ $ % $ $ $ $ % % % % % % * * * 7 8 ; ; ; > > > > ; ; * * & & # # # # o . . . . . . o X X . . . . o . . . . . . . . . . . X o o o . . . . # # @ # # % % % % % * 6 6 5 % % 5 5 5 % % % $ $ $ = $ $ @ @ @ @ @ @ @ @ @ @ . . . . @ @ @ % # ; 9 7 # 7 ; C C # 7 7 7 7 % 7 8 w s # @ s 9 9 s d Q ..X. . .( ` ` ( ( Z C W ( ^ ^ ^ A A x x D v v A D -.:.:.0.D.'.'.0.0.'.`.'.'.r.r.'. X X X X X X X X X Xy.r.y. Xy.y.y.y.y.y. X X X Xy.[.[.y.y.r.t.t.t.r.y.r.y.y.r.t.t.t.t.t.t.r.t.t.q.q.q.t.r.r.r.r.r.t.q.t.t.q.q.q.q.q.q.q.q.q.q.t.t.t.q.q.t.q.t.t.[.t.q.q.0.q.q.q.w.,.q.0.q.q.q.0.q.q.q.0.q.0.0.t.0.0.r.r.0.q.0.|.|.r.r.0.|.0.9.q.0.0.q.9.<.9.9.<.<.:.:.-.-.-.' / -.-./ Z v e e 3 e e e w 3 e d h e e e 3 3 3 e e w w e d x C C W Q ! ! C Q  .X........._ d  .E K ~ _ ] ~ | B K N N N N N N N N N N N N i i i 0 i i i i i i N N N K P P ~ _ _ _ ] ] | } } u.d.h.j.k.z.z.c.P.R.W.!.8XuXuXdXgXgXcXcXcXNXNXNXBXAXAXAXAXAXAXAXAXCXCXCXCXCXCXDXDXDXDXDXDXDXDXDXDXDXDXHXHXGXGXHXGXGXGXGXGXGXGXGXGXGXGXGXGXGXGXGXGXGXGXGXGXGXGXGXGXGXGXGXGXKXKXKXKXKXKXKXKXKXKXKXKXKXKXKXKXKXKXKXKXKXKXKXKXKXKXKXKXKXKXKXKXKXHXHXHXKXHXKXKXGXHXHXHXHXHXHXHXHXHXHXHXHXHXHXHXHXHXHXHXHXHXHXHXHXHXKXKXKXKXGXGXKXKXKXKXGXGXGXGXKXKXKXGXGXGXKXKXKXKXKXKXKXKXKXKXKXKXGXKXKXKXKXKXKXKXKXKXKXKXKXKXKXKXKXKXKXKXKXKXKXKXKXKXKXKXKXKXKXKXKXKXKXKXKX",
"d.d.d.d.f.f.j.j.j.x.x.j.j.j.j.j.j.g.g.s.s.s.d.d.d.d.d.s.s.s.s.s.j.j.j.j.x.x.z.z.z.n.n.V.B.P.U.Q.W.!.7X7X8XrXrXuXpXdXfXfXfXfXfXfXfXfXgXgXfXfXsXpXpXdXsXsXsXfXfXfXgXzXzXcXcXcXcXNXBXBXBXAXAXAXAXAXAXBXAXBXBXBXBXBXAXVXVXVXVXVXVXVXBXBXBXAXAXAXAXAXCXAXAXBXVXNXcXzXzXdXiX0XT.m.c.h.} ] P f p u u u > > > > > > > > > > > > > > > > > > * > * = & & # # # # # @ @ @ @ @ @ # # = # # # = $ $ $ $ @ @ @ @ @ @ @ @ @ @ @ @ @ @ . . . . @ @ . . . . @ @ . @ @ @ @ @ @ . . . . . @ . . . . . . . . . . @ @ @ @ @ # # # $ @ $ $ $ $ $ $ $ 5 $ $ $ $ % % $ % % % % * * * 6 ; * > > > > > > > > & & # # # @ # # o . . . . . o X X . X . . o . . . . . X o o o o X o o o o . . . . # # @ @ # % % % % % % * 6 6 5 5 5 5 % % % % $ $ $ $ $ $ $ @ @ @ @ @ . @ @ @ . . . . @ # # % % 9 7 # 7 7 7 B s * 7 7 7 9 0 8 w s # * @ s i ; w g X.(.8. .` ( ` ` Q W W W ^ A Z ^ Z l A A A v A D / / -.<.9.D.0.0.0.'.'.`. X X X X`. X X X XOX X X X X Xy.y.r.y. X X X Xy.y.y. X[.[.[.[. X Xy.y.r.r.t.r.y.y.r.y.y.r.t.t.t.t.t.t.q.q.q.q.t.t.0.r.r.r.r.r.r.q.t.t.t.t.t.t.t.t.0.q.q.q.t.t.t.t.0.t.q.t.t.].r.t.q.0.0.0.q.q.q.q.0.q.0.0.q.q.q.w.q.0.0.r.r.0.0.r.0.0.0.r.|.|.'.'.'.|.0.q.D.D.0.0.0.9.0.w.<.w.<.2.w.:.-.-.-.-.' ) ) A e e e c c x x e - 3 c d 3 3 e e 3 3 3 e h d C C c d c Z Q ! E E Q ` X.X...S.` g _ K f K ~ _ P } P J N N N N N N N N N N N N i i i i i i i i i V V N B B P P P ~ _ _ ] ] | { } } d.h.h.h.k.k.c.n.P.R.!.~.uXuXhXgXgXcXcXcXNXNXNXBXAXAXAXAXAXAXCXCXCXCXCXCXCXCXDXDXDXDXDXDXDXDXDXDXDXHXDXDXGXGXHXHXHXHXHXHXGXGXGXGXGXGXGXGXGXGXGXGXGXGXGXGXGXGXKXKXKXKXKXKXKXKXKXKXKXKXKXKXKXKXKXKXKXKXKXKXKXKXKXKXKXKXKXKXKXKXHXKXKXKXKXKXKXKXHXHXHXHXKXKXHXHXHXHXHXHXHXHXHXHXHXHXHXHXHXHXHXHXHXHXHXHXHXHXHXHXHXHXHXKXKXKXKXKXKXKXKXHXGXGXKXKXKXKXHXHXHXHXKXKXKXKXKXKXKXKXKXKXGXKXKXKXKXKXKXKXKXKXKXKXKXKXKXKXKXKXKXKXKXKXKXKXKXKXKXKXKXKXKXKXKXKXKXKXKX",
"d.d.d.d.g.f.j.j.j.j.x.j.j.j.j.j.j.g.g.s.s.s.s.d.d.d.s.s.s.g.g.g.j.j.j.j.j.x.x.z.z.n.n.V.B.P.U.Q.W.!.7X7X8XrXuXpXdXdXfXfXfXfXfXfXfXfXfXfXfXfXsXsXsXsXsXsXfXfXfXfXgXzXzXcXcXcXNXNXNXBXBXBXAXAXAXAXAXBXBXBXBXBXBXBXAXAXAXAXAXAXBXAXBXBXAXCXCXCXCXAXCXCXAXAXVXNXvXcXzXdX9X9XR.K.M.k.u.] P f f p u u u 9 9 9 > > > > > > > > > > > > > > > > * = & & # # # # # @ @ @ @ @ @ # = = = = = = $ $ $ $ @ @ @ @ $ $ @ @ @ @ @ @ @ @ @ @ @ . @ @ . . . . @ . . @ @ @ @ @ @ . . . @ @ @ @ . . . . . . . . . @ @ @ @ @ @ $ $ $ $ $ $ $ $ $ $ $ $ $ $ $ $ % % % % % % * * * * 6 8 8 > > 9 > > > > > & & # # @ @ # # o . . . . . . X . . X X o o o o o . o o o o o . X X o o o . # . . # # # $ # % % % % $ % % % 6 6 5 5 % % % % % $ $ $ $ $ $ $ @ @ @ . . . . @ @ . . . . @ # $ # % w % # 7 7 7 0 0 9 % 7 7 7 7 9 B w # @ w C ; w B Q 8.(.8.` ( 1.` ^ Q ^ ^ Z Z Z Z A x A / D A A D v D -.<.w.D.0.0.0.'.`.`.`.`. X X X X XOXOXOXOX X X X X X X X X X X X X X Xy.y. X[.y.[.y. X Xy.r.r.r.r.r.r.y.r.y.y.r.t.t.t.t.q.q.q.q.t.t.t.q.t.e.r.r.r.'.r.0.t.t.t.t.t.t.t.t.t.0.0.q.0.t.t.t.q.q.q.r.r.].]._.t.0.q.q.t.t.q.q.0.0.0.0.t.0.q.q.0.0.r.'.r.0.0.0.0.0.r.'.|.|.'.'.oX'.D.'.D.0.0.|.'.D.D.9.q.0.q.w.:.-.%.-.-./ ) D D ^ W x x e 3 3 - 3 3 3 d c d e w 3 3 3 3 e d d h d e e h c C W ! Q Q !  . .X.X..._ X.~ f N P _ K | P N N K N N N N N N N N B N N N i i i i 0 i i V B N B N B P K P ~ _ _ ] ] ] { } d.d.d.d.h.k.c.c.P.R.W.~.uXuXhXhXgXcXcXcXNXNXNXBXAXAXAXAXAXAXCXAXAXAXAXCXCXCXDXDXDXDXDXDXDXDXDXDXDXDXDXDXHXGXHXHXHXHXHXHXGXGXGXGXGXGXGXGXGXGXGXGXGXGXGXGXGXGXKXKXKXKXGXGXKXKXKXKXKXKXKXKXKXKXKXKXKXKXKXKXKXKXKXKXKXKXKXKXKXKXHXKXKXKXKXKXKXHXHXHXHXHXKXKXHXHXHXHXHXHXHXHXHXHXHXHXHXHXHXHXHXHXHXHXHXHXHXHXHXHXHXHXGXKXKXKXKXKXKXKXHXHXGXHXKXKXKXKXHXHXHXHXKXKXKXKXKXKXKXKXKXKXGXKXKXKXKXKXKXKXKXKXKXKXKXKXKXKXKXKXKXKXKXKXKXKXKXKXKXKXKXKXKXKXKXKXKXKXKX",
"d.d.d.d.g.f.j.j.x.j.x.x.j.j.j.x.j.g.s.s.s.s.s.s.d.d.s.s.s.g.j.j.j.j.j.j.j.x.x.z.z.n.n.V.B.P.U.Q.W.!.7X8XrXrXuXpXdXdXfXfXfXfXfXgXfXfXfXfXfXfXfXfXsXfXfXfXfXfXfXfXgXgXcXcXcXcXNXNXNXBXBXBXAXAXAXAXAXBXBXBXVXBXBXAXAXAXAXAXAXAXCXCXAXCXCXCXZXZXCXCXDXCXCXAXBXNXcXcXzXdX9X9XT.P.M.z.u.] P J f f i u i i u 9 9 > > > & > > > > > > > > > * > > * = # # # # # # @ $ @ # # # # # = = # = = = = $ $ $ $ # $ $ $ @ @ @ @ @ @ @ @ @ @ @ . @ @ @ . . @ . . . @ @ @ @ @ @ @ @ @ @ @ @ @ . . . . @ . . . . @ @ @ @ @ @ # $ $ $ $ $ $ $ $ $ $ $ $ $ $ $ $ $ $ % % % % * * 6 8 8 8 > > > > > > > > * & # # @ @ . . . . . . . . . . . . . . O O o o o o o o o o o . . . . o o . & . . & & & # # % % % % % % * 6 6 5 % $ % % % % % $ $ $ $ $ $ $ $ @ @ @ @ . @ @ @ @ . @ @ $ # # @ 7 7 % * 9 7 7 w e 9 7 7 7 % 7 d g w s ; ~ C w Q X.S.S. .( Q ` 8.^ W ( ^ W Z Z ' x l A / D v v v v / <.<.9.0.0.D.D.'.`. X`.`.`. X X X X X X X X X X X X X X X X Xy.y.y. X X Xy.y.y. Xy.[.y.y.[.y.y.y.y.r.r.r.y.r.y.y.r.t.t.t.t.q.q.e.r.r.e.t.q.r.r.r.r.r.r.r.q.r.r.t.t.t.t.r.r.t.r.t.0.0.t.e.t.r.q.t.t.t.0.r.t.r.e.q.0.t.r.t.q.t.0.t.t.t.r.e.t.t.r.r.r.r.0.0.0.0.r.'.'.|.|.'.'.XX|.'.|.D.0.D.OXD.D.0.q.0.q.q.<.-.:.:.:.-./ / / D -.1.^ Z x 3 3 3 - 1 3 3 d c h 3 + - 3 3 w e d e d d e d c c c ! ( ( (  .X. .`  .X. ._ f N ~ _ K _ L N N K N N N N N N N N N N N V V i i i 0 0 0 i V V B N N N K P ~ ~ _ ] ] ] | } } } } } d.h.k.c.n.P.R.!.8XuXdXdXgXzXcXcXNXNXNXBXBXAXAXAXAXAXAXAXAXAXAXAXCXCXDXDXDXDXDXDXDXDXDXDXDXDXHXHXGXGXHXHXHXHXHXHXHXGXGXHXHXGXGXGXGXKXGXGXGXGXGXGXGXGXGXKXKXKXGXGXGXGXKXKXKXKXKXKXKXKXKXKXKXKXKXKXKXKXKXKXKXKXKXKXKXKXHXKXKXKXKXKXKXHXHXHXKXKXKXHXHXHXHXHXHXHXHXHXHXHXHXHXHXHXHXHXHXHXHXHXHXHXHXHXHXHXGXGXHXHXKXKXGXKXHXHXHXHXHXHXHXHXKXKXKXHXGXGXGXKXKXKXKXKXKXKXKXKXGXKXKXKXKXKXKXKXKXKXKXKXKXKXKXKXKXKXKXKXKXKXKXKXKXKXKXKXKXKXKXKXKXKXKXKXKX",
"d.d.d.d.g.f.f.j.x.x.x.x.j.j.j.j.j.g.s.s.s.s.s.s.d.d.d.s.s.s.g.j.j.j.j.j.j.x.x.z.z.n.n.V.B.I.U.Q.!.!.7X8XrXrXiXpXdXdXfXfXfXfXfXfXzXzXfXfXfXfXfXfXfXfXfXfXfXfXfXfXgXgXzXcXcXcXcXNXNXBXBXBXAXAXAXAXBXBXBXBXVXBXAXAXAXAXAXAXAXAXCXCXCXCXZXDXSXSXZXDXCXCXCXBXVXNXcXzXgXdX9X9XT.I.M.c.u.[ L K J f f i i u i u 9 > > > > > > * ; ; > > > > = * * > = # & # # # @ $ $ @ = # # # # # # # # = = = $ $ $ $ # # $ $ @ @ @ @ @ @ @ @ @ @ @ @ @ @ @ . . @ @ @ @ @ @ # @ @ @ @ @ @ @ @ @ @ @ . . . @ . . . . @ @ @ @ @ # # # $ $ $ $ $ $ $ $ $ $ $ 5 % $ $ $ % % % % % * 6 6 8 ; * * * > > ; * * * * & # # # @ . . . . . . X . . . . . . X . . . . . o . X . . . . . . . . X . @ . . & & & & & = % % % * * 6 8 6 5 % % % % % % % $ $ $ $ $ $ $ $ $ @ @ @ @ @ @ @ @ @ @ @ # # # # 9 * % 7 7 9 7 9 d 9 e 7 % % 0 d . 7 d B E 9 C S...X.X.(  .( X.` W ` ` Z Z ^ ' v e ^ / v v A l D ' -.<.0.D.0.'.'.'.'.|. X X X X X X X X X X X X X X X X X Xy.y.y.r.r.y. X Xy.y. X X X X[.y.y.y.[.y.y.y.r.r.r.r.r.y.y.r.t.t.t.t.r.r.r.e.t.t.t.r.r.r.r.r.r.r.r.e.r.t.t.t.r.e.t.q.t.r.r.0.0.t.r.r.q.3.q.0.0.q.r.r.r.r.r.e.q.q.r.t.t.0.t.t.r.r.r.r.r.r.r.r.r.r.0.0.0.'.'.'.|.|.'.'. X.X|.'.D..XOX'.0.0.0.0.D.2.w.2.:.9.9.:.-.-.%.%./ 1.' v Z Z d e 3 h a a h 3 3 g W e 3 w 3 , 3 e e d e e d c c Z c Q ( ( `  .X.X.` .. ._ B B ~ _ K ~ P N N K N N N N N N N N B N V V i i i 0 0 0 0 0 s V N B N N B K P ~ _ _ ] ] ] ] | { } } } } k.z.c.P.R.!.8XrXdXdXgXgXzXcXNXNXNXBXAXAXAXAXAXAXAXAXAXAXAXAXAXCXAXDXDXDXDXDXDXDXDXDXDXDXHXHXGXGXHXHXHXHXHXHXHXHXGXGXHXGXGXGXKXKXGXGXGXGXGXGXGXGXGXKXKXKXGXGXGXGXKXKXKXKXKXKXKXKXKXKXKXKXKXKXKXKXKXKXKXKXKXKXKXKXHXKXKXKXKXKXKXHXHXKXKXKXKXHXHXHXHXHXHXHXHXHXHXHXHXHXHXHXHXHXHXHXHXHXHXHXHXHXHXHXGXGXGXKXKXKXGXGXGXHXHXHXHXHXHXGXKXKXKXKXGXGXKXKXKXKXKXKXKXKXKXKXGXKXKXKXKXKXKXKXKXKXKXKXKXKXKXKXKXKXKXKXKXKXKXKXKXKXKXKXKXKXKXKXKXKXKXKXKX",
"d.d.d.d.d.g.j.j.j.j.j.j.j.j.j.j.j.j.g.g.g.s.s.s.d.d.s.s.s.s.s.g.j.j.j.j.j.x.z.z.b.n.n.V.Z.I.U.W.!.7X8XrXtXiXpXdXfXfXfXfXkXkXgXgXzXkXkXkXkXkXfXfXfXfXfXfXfXfXfXgXzXzXcXcXcXcXcXcXNXBXBXVXAXAXAXAXAXAXBXBXAXAXAXAXAXAXCXCXCXCXCXCXCXCXCXCXDXDXDXDXDXDXAXBXNXcXzXgXgXdXuX8X!.I.M.c.u.[ L P J G f f f s s u u 9 > = = > * > > > > 8 > * * * > > & & & & @ @ @ @ @ @ @ $ $ $ # = = = = = = $ @ $ @ @ @ @ @ @ @ @ @ @ @ @ @ @ @ @ @ @ @ @ @ @ @ @ @ @ @ @ @ @ @ @ @ @ @ @ @ @ @ @ @ @ @ @ @ @ @ @ @ . . . @ @ @ $ $ $ % = = $ $ $ = $ $ $ % % 5 5 % % $ % * * 6 * * * ; ; ; ; * * * * * * * # # # . . . . . . . . X X O X . . . . X . . . . o . . . . . . . . . . # o # @ @ # # # & & # % * ; 8 8 ; * * 5 6 6 * % % * % $ $ $ @ @ @ $ $ @ @ . . . . . @ . . @ $ @ $ $ # 0 7 7 9 7 9 7 9 7 w s 0 % 0 0 7 % 7 d C # B 8.`  .8. .X. .Q X.^ ^ ^ Z W Z Z x A / D x v A v D / -.9.9.9.0.'.'.'.'.`.`.[.[. XOX X X X X X X X[. X X X X[.r.r.r.r.y. X X X X[.[.[. X X X[.y.[.[.[.[.y.r.y.y.r.r.r.r.r.r.e.t.t.r.t.t.t.r.t.r.r.r.r.r._._._._.r.t.r.r.r.r.r.t.t.t.t.r.e.0.t.q.q.t.t.r.r.t.0.e.r.r.r.r.r.e.e.r.r.e.r.r.r.r.'.'._.r.r._.'._.r.r.r.r.r.r.r.r.r.'.'.'.|.|.'.0.'.oXOX|.0.'.'.0.q.q.q.w.w.0.q.:.:.-.-.<.-.%./ Z v v Z x e e d h w 3 3 w d c c w 3 3 e W c c x c C C C E C Q ! (  . . .X. . .X. .E E E ~ B K B K K N K P N N N B B B N B V s i 0 i i i 0 0 0 0 V V V V N N B P P L L L I ] ] | } { } } } d.j.c.B.R.!.7XrXiXdXfXgXgXcXcXcXNXBXBXBXAXAXAXAXAXAXAXAXAXAXCXCXCXCXCXDXDXDXDXDXDXDXSXSXHXHXGXGXHXHXHXGXGXGXGXGXHXHXHXHXHXHXHXHXGXGXGXGXGXGXGXGXKXKXKXKXKXKXKXKXKXKXKXKXKXKXKXKXKXKXKXKXKXKXKXKXKXKXKXKXKXKXKXKXKXKXHXHXHXHXKXKXKXGXGXHXHXHXGXHXGXHXGXGXGXGXGXGXGXGXHXHXHXHXGXGXGXGXGXGXHXHXHXHXKXKXGXHXHXHXGXGXHXGXGXHXHXHXKXGXKXKXKXKXGXGXHXHXGXHXHXHXKXKXKXKXKXKXGXGXKXKXKXKXKXKXKXKXKXKXKXKXKXKXKXKXKXKXKXKXKXKXKXKXKXKXKXKXKXKXKXKXKX",
"d.d.d.g.g.g.j.j.x.x.j.j.j.j.j.j.g.g.g.s.s.s.s.s.d.s.s.s.s.s.g.j.j.j.j.k.x.x.z.n.b.n.n.V.Z.I.U.W.!.7X8XrXtXiXpXsXfXfXfXkXkXkXzXzXzXkXkXkXkXkXfXfXfXfXfXfXfXfXgXgXzXcXcXcXcXcXcXcXNXBXBXVXAXAXAXAXAXBXBXBXAXAXAXAXAXAXCXCXCXCXCXCXCXCXCXCXDXDXDXDXDXDXAXVXVXvXcXzXgXdXuX8XT.I.M.z.u.[ U L P J G G f f f f p u < > > > > * * * ; * * * * * > > & & & & & & @ $ @ @ @ $ $ $ # = = = = = $ $ $ $ $ $ @ @ @ @ @ @ @ @ @ @ @ @ @ @ @ @ @ @ @ @ @ @ @ @ @ @ @ @ @ @ @ @ @ @ @ @ @ @ @ @ @ @ @ @ @ @ @ . . . @ @ @ @ $ $ # # $ $ @ $ $ $ $ $ % % % % % % $ $ * * * * * * ; ; ; ; * * * * * * & & # @ . . . . . . . . . . . . . . . X . . . . & & o . . . . . # # # # # o @ @ @ @ # # & & # * * ; ; ; * * % * 6 * % % % % % % # $ @ @ @ @ @ @ @ @ @ @ . . @ . . . @ # % * 6 0 7 * 7 7 7 7 7 7 w w e e B 7 7 9 % C s g .. .X.X.` ` ( ! X.Q ` ^ Q Z W A A D ' v l v v l A -.:.<.9.0.D.D.'.'.'.'.`. X X X XOX X X X X XOX X X X X X Xr.r.r.r. X X X[. X X X X X X X X[.y.[.[.[.[.[.[.r.r.r.r.r.r.r.r.r.t.r.r.t.t.t.r.r.r.r.r.t.r._._.r.r.t.e.t.e.t.r.e.t.t.t.0.r.e.t.r.t.0.r.t.r.r.t.0.0.t.t.r.r.r.r.r._.r.r.e.e.r._._._._.r.r.r.r.0.0.r.r.r.'.r.r.r.r.'.'.r.r.'.'.'. X+XOXOX'.|.|.D.0.0.q.q.9.0.9.:.:.:.:.<.-.%./ ) D v A v x e x x 3 - 3 3 a d c d d h e d d e e e e d c c C W W W ( ` `  ...X. . .! B K ~ E ~ K K K B K N N N B N B B N B V s s i i i 0 0 0 0 0 V V V V N N B N P P P L L L ] ] | | } } } } h.z.n.P.R.!.8XiXdXsXgXgXcXcXcXBXBXBXBXAXAXAXAXAXAXAXAXAXAXAXCXCXCXCXDXDXDXDXDXDXDXDXSXHXHXGXGXDXHXHXGXGXGXGXGXHXHXHXHXHXHXHXHXGXGXGXGXGXGXGXGXKXKXKXKXKXKXKXKXKXKXKXKXKXKXKXKXKXKXKXKXKXKXKXKXKXKXKXKXKXKXKXKXKXKXGXHXHXHXKXKXKXGXGXHXGXGXHXGXGXGXGXGXGXGXGXGXGXGXHXHXHXHXGXGXGXGXHXHXGXGXHXHXKXKXGXHXHXHXGXGXGXGXGXGXKXKXKXKXKXKXKXKXGXGXGXHXGXHXHXHXKXKXKXKXKXGXGXGXHXKXKXKXKXKXKXKXKXKXKXKXKXKXKXKXKXKXKXKXKXKXKXKXKXKXKXKXKXKXKXKXKX",
"d.d.d.g.f.f.j.j.x.x.x.x.x.j.j.j.j.g.g.s.s.s.s.s.s.s.s.s.s.g.j.j.j.j.k.x.z.z.n.n.n.n.n.V.I.U.U.W.!.7XrXtXuXiXaXsXfXfXkXkXkXzXzXzXzXzXkXkXkXkXkXfXfXfXfXfXfXgXzXzXzXzXcXcXcXcXbXbXNXBXBXBXAXAXAXAXAXAXAXAXAXAXAXAXAXAXCXCXCXCXZXZXCXCXDXDXDXDXDXDXDXCXAXVXVXcXcXzXgXdXuX8XT.I.M.z.u.[ Y U L P J J f f f f f u 9 > > > > > > * * * * * > * > = & & & & = = = $ @ @ # # # # $ $ $ $ @ @ @ @ @ $ $ $ @ @ @ @ $ @ @ @ @ @ @ @ @ @ @ @ @ @ @ @ @ @ @ @ @ @ @ @ @ @ @ @ @ @ @ @ @ @ @ @ @ @ @ @ @ @ @ @ @ @ @ @ @ @ @ $ $ $ $ $ @ $ $ $ $ $ $ % % % % % $ % % % % % * * * * * * * * = * * & & # # @ . . . . . . . . . . .   . . X . . . . . o o o o o o o o # # # # # # @ # # # # # # & * * ; ; * * * * * * * * % % % % % % # $ @ @ @ @ @ @ @ . @ @ . . @ . . . @ # * ; 8 9 0 7 % 7 7 7 9 9 9 7 e d B 7 0 e 9 C C ` X.! .. .` ( ( ! ( ` ^ W ( W x Z ' ^ x l A D D / <.9.9.0.0.D.'.|.|.|.`.`.`. XOXOXOX X XOXOXOX XOX X X X X X Xy.[.[.[. X X X X X X X X X X X[.y.y.r.r.r.[.].[.r.r.r._.[._.r.r.r.t.t.t.t.t.t.t._._.r.r.t.r.t.t.r.e.t.e.0.t.t.t.t.t.t.t.q.t.t.r.r.r.e.r.r.r.r.r.e.e.0.0.r.r.r.r._._.r.r.0.e.r._.'.'._._.'._.r.0.0.r.r.r.r.r.0.0.r.'.r.0.'.'.0.'.OX+X|. X'.'.'.'.'.'.0.q.0.q.w.:.:.w.2.:.-.-.-./ / D A A A x e e w + + - + - 3 w e e w e 3 3 3 3 h d c d C C C W (  .X.X.....X. . .g B ~ E E B B K B K B N N N N N B B N N V s i i i 0 0 0 0 0 i V V V V V N N B N P P P P L I ] ] ] } } } h.x.c.P.R.!.8XuXiXdXgXgXzXcXcXBXBXBXBXBXAXAXAXAXAXAXAXAXAXAXAXCXCXCXCXDXDXDXDXDXDXDXSXSXGXHXGXHXHXGXGXGXGXGXGXGXGXGXGXHXHXHXHXHXHXGXGXGXGXGXGXKXKXKXKXKXKXKXKXKXKXKXKXKXKXKXKXGXGXGXGXKXKXKXKXKXKXKXKXKXKXKXKXKXKXKXKXHXGXGXKXGXGXGXHXGXGXGXGXGXGXGXGXGXGXGXGXGXGXGXGXHXGXGXGXHXHXHXHXGXGXGXGXKXKXKXHXHXKXKXKXHXGXKXKXKXKXKXKXKXKXKXKXGXGXHXKXGXGXHXHXKXKXGXGXKXKXHXGXHXHXKXKXKXKXKXKXKXKXKXKXKXKXKXGXGXKXKXKXGXKXKXKXKXKXKXGXKXKXKXKXKX",
"d.d.g.g.f.f.j.j.j.j.j.x.x.x.j.j.j.j.g.s.s.s.s.s.s.s.s.s.g.g.j.j.j.j.x.z.z.z.n.n.n.n.V.V.I.U.U.W.!.7XrXtXiXpXaXfXkXkXkXkXzXzXzXzXzXzXkXkXzXkXkXfXfXfXfXfXfXgXzXzXzXzXcXcXcXcXbXbXvXNXBXBXVXAXVXAXAXAXAXAXAXAXAXAXAXCXCXZXZXZXDXDXCXCXDXSXDXDXDXDXDXCXAXVXVXNXcXzXgXdXuX8XW.I.M.z.u.} ] Y U L P J P K J f f p u u 8 > > > > * * * * * * > * = & & & & = = = = @ @ = # # $ @ $ $ $ @ @ @ @ @ $ $ $ @ @ @ @ $ @ @ @ @ @ @ @ @ @ @ @ @ @ @ @ @ @ @ @ @ @ @ @ @ @ @ @ @ @ @ @ @ @ @ @ @ @ @ @ . @ @ @ $ @ @ @ @ @ @ $ $ $ # $ $ $ $ $ $ $ $ % % % % % $ % % % = = % * * * * * * * = = & & & # # @ @ . . . . . . . . . .   . . . X X X . . . o o o o o o o & # o o # # # # # # # # # # * * * * * * * * * * * * % % % % % = # $ @ @ @ @ @ . . . . . . . @ . . . @ @ # % % 7 s 9 5 9 7 7 w 9 9 w e 0 e s w 7 w Q ..` Q X.X.X.! ` X.(  .' ^ Z ^ Z Z ' 1.v Z A / -./ / <.8.9.D.D.'.OXOX|.|. X X XOXOXOX X X X XOXOXOX X X X X X X X X X X X X X X X X X X X X[.y.y.y.r.r.r.r.[.].[.r.r.r.r.r.r.r.r.r.t.t.t.r.t.t.r.r.r.r.t.r.e.e.e.e.t.e.t.r.r.r.t.t.t.t.t.q.t.r.r.r.r.r.r._._._.r.e.e.0.0.r.r.r.r.r.r.r.e.t.e.r._._._.r._.'._.r.0.0.r.r.r.0.0.0.r.r.'.'.0.|.|.0.0.OX X'.'.'.D.D.'.'.'.0.0.D.q.2.<.w.9.q.:.-.:.:./ -./ ^ D Z Z e 3 d 3 + - + O - , , 3 w h d d e 3 w d d d c C C C W ! ` ` X.X...X. .B B ~ ~ K B B B B K K N N N N K B B N N s i i i 0 0 0 0 0 0 0 s i V V V V V N B N B B K P P I ] ] | } } h.j.c.P.Q.!.8XuXiXdXgXgXzXcXNXBXBXBXBXBXBXAXAXAXAXAXAXAXAXAXAXCXCXCXCXDXDXDXDXDXDXDXSXSXGXHXHXHXGXGXGXGXGXGXGXGXGXGXGXGXGXGXGXHXHXGXGXGXGXGXGXKXKXKXKXKXKXKXKXKXKXKXKXKXKXKXKXGXGXGXGXKXKXKXKXKXKXKXKXKXKXKXKXKXKXKXKXGXGXGXKXGXGXGXGXGXGXGXGXHXHXGXGXHXHXHXHXGXGXGXGXHXHXGXGXHXHXHXHXGXGXGXGXKXKXKXHXHXKXKXKXGXKXKXKXKXKXKXKXHXHXHXKXKXGXKXKXGXGXKXKXKXKXGXGXKXKXHXHXHXHXKXKXKXKXKXKXKXKXKXKXKXKXKXKXKXKXKXKXGXGXKXKXKXKXGXGXKXKXKXKXKX",
"d.d.g.f.j.j.j.j.j.j.j.x.x.j.j.j.j.j.g.s.s.s.s.s.d.s.s.g.g.j.j.j.j.k.x.z.z.z.z.n.n.V.V.B.U.U.U.W.7X7XrXtXiXpXaXfXkXkXkXzXzXzXzXzXxXzXzXkXzXzXkXfXfXfXfXfXfXfXzXzXzXzXzXcXcXcXcXbXvXvXBXBXBXVXVXVXAXAXAXAXAXAXAXAXAXCXZXZXDXDXDXDXCXDXSXSXSXDXDXDXDXDXAXBXVXNXcXzXgXaXuX8XW.I.M.x.h.} [ ] Y L L L L P P J f p p u 9 9 > > * * * * * * * > * & & * & & & = = # @ @ = = # # $ $ $ $ $ @ @ @ $ $ $ $ = = = = $ $ @ @ @ @ @ @ @ @ @ @ @ @ @ @ @ @ @ @ @ @ @ @ @ @ @ @ @ @ @ @ @ @ @ @ @ @ @ @ @ @ @ @ @ @ @ . @ @ @ $ $ $ $ $ $ $ $ $ $ $ % % % % % % % % % % $ $ % % * * * * * * * * * % & # # @ @ @ . . . o . . . . . . . . . . . X X . o . . . . o o o @ @ @ # o # # # & & & # # & # % * * * * ; 8 * * * * % % % % = # $ @ $ @ @ @ . . . . . . . . . . . . @ # # % $ % 0 0 7 9 7 9 w 7 9 B B 0 0 B w 7 d X...C ` X. .( `  .` 1.1.^ ^ ^ Z D ' ' Z v / D D / / / :.9.0.D.'.|.OXOX`.OX X XOXOXOX X X X X XOXOX X X X X X X X X X X X X[. X X X X X[.[. X[.y.r.r.r.y.y.[.[.[.[.[.r.r.r.e.r.r.r.r.r.r._._.r.r.r.t.t.t.r.r.t.e.e.e.e.t.r.r.r.r.e.t.e.e.e.t.e.r.r.e.e.r.r._._.r.r.e.t.0.0.r.r.r.e.e.r.r.e.r.r._.r.r.r.r._.r._.r.r.0.r.r.r.0.r.'.'.'.'.'.'.'.'.q.0. X X'.|.'.'.'.'.'.'.'.'.D.q.9.9.q.q.w.:.:.<.:./ -.-./ ) / D c d e e w - + + 1 3 3 3 3 3 w h h h e d d h d c C C C Q ( ( ( ` ....` ` ~ ! E B B B B B B K N B B N N N N N s i 0 0 0 0 0 0 0 0 0 0 0 V V V 0 0 0 V V N B N N N P L I I ] | } d.h.k.V.P.W.8XwXuXdXgXgXgXcXNXNXNXBXBXBXBXBXBXAXAXAXAXAXAXAXAXCXCXCXDXDXDXDXDXDXDXDXDXSXSXSXSXHXFXFXGXGXGXGXGXGXGXGXGXGXGXGXGXHXHXGXGXGXGXGXGXGXGXKXKXKXKXKXKXGXGXGXKXKXKXKXKXGXGXHXHXGXGXGXGXGXGXHXHXGXGXGXGXGXGXGXGXHXHXGXGXGXGXGXHXHXHXGXGXGXGXHXHXGXGXGXGXHXHXHXGXGXGXGXGXHXGXGXGXHXHXGXGXKXKXKXHXHXKXKXKXKXKXKXKXGXGXGXGXHXHXHXHXKXKXKXKXKXKXKXKXHXGXGXGXKXKXKXKXGXGXGXKXKXKXKXKXKXKXKXKXKXKXKXKXKXKXKXKXGXGXKXKXKXKXGXGXKXKXKXKXKX",
"g.g.g.f.j.j.j.j.j.j.j.j.j.j.j.j.j.j.g.s.s.s.s.s.d.s.s.g.g.j.j.j.k.x.x.z.z.z.n.n.n.B.B.B.U.U.W.W.7X8XrXuXiXpXsXfXkXkXkXzXzXzXzXzXxXzXzXzXzXzXkXkXfXfXfXfXfXfXfXzXzXzXzXcXcXcXcXcXcXvXBXBXBXVXVXVXVXAXAXAXAXAXAXAXAXCXZXZXZXZXDXSXSXSXSXSXSXDXDXDXDXCXCXBXVXNXcXcXgXsXiX9X!.I.M.z.h.i.[ ] ] ] U L L L L P J f p u u 9 8 > > * > * > * * * * & & * & & & = = # # # = # # # @ @ $ $ = @ $ $ $ $ $ $ = = = = = = $ $ @ @ @ @ @ @ @ @ @ @ @ @ @ @ @ @ @ @ @ @ @ @ @ @ @ @ @ @ @ @ @ @ @ @ @ @ @ @ @ @ @ @ @ @ @ @ @ $ @ $ $ $ $ $ $ $ $ $ % % % % % % % % % $ = = % $ % % = = = = * * * % # # @ @ @ @ . . . . . . . . . X X . X . . X X . . o . . . . . o @ @ o o o o . . . # # # & & # % * * * * ; ; * % % % % % % $ # # # $ $ @ $ @ @ . . . @ @ @ . . . . # % * % % % * 7 0 0 0 9 0 9 9 0 B B s 9 e s d Q ..` E `  .X.! X.` ( 1.^ ^ ^ ' ' ' D v l D l D D D -.9.0.D.D.'.|.|.OX|.`.OX X XOXOXOX X X XOXOX X X X X X X X X X X X X X X X[.y.r.y.y. X X X[.y.r.r.y.[.[. X X[.[.[.[._.r.e.r._._.r.r._.[.r.t.e.t.t.t.e.r._.r.r.t.e.e.e.r.r.r.e.t.t.r.r.r.e.r.r.r.e.r.[.r.[._.r.r.r.e.e.e.r.r.r.e.e.r.r.r._._._.r.r.r.r._.r._._.r.r.r.r.r.r.r.'.r.r.r.'.'.'.r.q.0.|.|.'.`.'.'.'.D.r.r.D.'.0.9.0.D.q.w.9.9.<.:.<.:.<.-.-./ / / W x w 3 w 3 1 + + - 3 3 - + O - 3 w h d c c c Z W E c W (  . .` 8...` .._ ! E g K ~ K B B B K N B N N N N N i i 0 0 0 0 0 0 0 0 0 0 0 V s 0 0 0 0 0 V V V B B N N P P L _ | } d.h.x.n.P.Q.!.9XuXdXfXgXgXcXNXcXNXNXBXBXBXBXBXAXAXAXAXAXAXBXAXCXCXCXDXDXDXDXDXDXDXDXDXSXSXGXGXHXFXFXGXGXGXGXGXGXGXGXGXGXGXGXGXHXHXGXGXGXGXGXGXGXGXKXKXKXKXKXKXGXGXKXKXKXKXKXKXGXGXHXHXGXGXGXGXHXGXHXHXGXGXGXGXHXHXHXHXHXHXHXHXGXGXGXHXHXHXHXGXGXGXGXHXHXGXGXGXHXHXGXGXGXGXGXHXGXGXGXGXHXHXGXGXKXKXKXHXHXKXHXKXHXHXHXHXHXHXHXHXHXHXHXHXHXKXKXKXHXHXHXHXHXHXHXHXKXKXHXKXGXGXKXKXKXKXKXKXKXKXKXKXKXKXKXKXKXKXKXKXGXKXKXKXKXKXKXGXGXGXKXKXKX",
"g.g.f.f.x.x.j.j.x.x.x.j.j.j.j.j.j.j.j.s.s.s.s.s.s.s.g.j.j.j.j.x.x.x.x.z.z.n.n.n.n.B.B.I.Q.W.Q.7X7XrXrXuXpXpXsXfXkXzXzXzXxXxXzXzXxXxXzXzXzXzXkXkXfXfXfXfXfXgXgXzXzXzXcXcXcXcXcXcXcXbXbXBXVXBXVXVXBXVXAXAXVXVXAXAXAXCXZXZXZXZXDXSXSXSXSXSXDXDXDXDXDXCXCXBXVXNXcXcXgXsXiX9X6XR.n.z.h.u.} [ [ ] ] ] L L L L P J p p u i u 9 8 > * * * * * * & * > > * * * * = = = % # # # @ @ @ = = = = $ $ $ $ $ $ $ $ $ $ $ $ $ $ $ $ $ $ $ @ @ @ @ @ @ @ @ @ @ @ @ @ @ @ @ @ @ @ @ @ @ @ @ @ @ @ @ @ @ . @ @ @ @ @ @ @ @ @ @ $ $ @ @ $ = $ $ $ $ $ $ % % % % % % % % $ $ % % $ $ % % % % % % = = # # # @ @ @ . . . . . . . . . . . . . . X X . . . . = . . . . . . . . @ @ @ . o . . o # & # # & # & * * * * * * * % % % % % % % % % % # # # @ @ @ @ . . @ @ @ @ . . . # * * % % * * % w B s 0 0 0 s s s B B 9 7 s C ` ` ! X.` X.X.1.! ` ` W W ' 1.' / ^ x A A v A / -.:.<.9.0.D.'.'.|.OX|.|.OX X X X X X X X X XOX X X X X X X X X X X X X X X].[.y.y.r.r.y.[. X X[.y.y.y.y.y.[. X[.[.r.[.[.r.r.r.[.[.[.r.r.r.r.t.t.t.t.t.t.t.r._.r.r.e.e.e.t.t.t.e.e.t.e.r.r.r.r.r.r.r.r.[.[.r._._._._._.r.t.r.r.r.r.e.r.r.r.r._._._.r.r.r.r._.r._._.r.r._._._.r.r.r.r.0.r.r.r.'.r.0.0.|.|.'.'.'.`.'.'.'.'.'.0.0.0.D.D.0.9.9.9.9.<.w.<.<.:.-.-./ ' ^ c x 3 1 a h 3 - + 3 3 - 3 3 3 3 - 3 w d c c W Q W c c W W  . ... . ... ._ ! ~ ` ` ~ ~ K B B B N N N B N V i 0 0 0 0 0 0 0 0 0 s 0 0 0 0 0 0 0 0 0 0 V V V N B B N N P I ] } d.h.x.c.B.R.!.8XuXdXdXfXgXzXcXcXcXNXBXBXBXBXBXBXBXBXBXAXAXAXAXAXAXCXCXDXDXDXDXSXSXDXDXDXDXSXSXSXGXGXGXGXGXGXGXGXGXHXHXGXGXGXGXHXGXGXGXGXGXGXGXGXGXGXGXKXKXKXKXGXGXGXGXKXKXGXKXGXKXKXKXGXGXGXKXGXGXGXGXGXGXGXGXGXGXGXHXHXGXGXGXGXHXGXHXHXHXHXGXGXGXHXHXGXHXGXGXHXHXGXGXGXGXHXHXGXGXGXGXHXHXHXGXGXGXGXHXGXGXGXGXGXGXHXHXGXGXGXGXGXGXGXGXGXGXGXGXGXHXGXHXHXHXHXHXGXGXGXGXGXGXGXGXKXKXKXKXKXKXKXKXKXKXKXKXKXKXKXKXKXKXKXKXKXKXKXKXGXGXGXKXKX",
"f.f.f.j.x.x.j.j.j.j.j.j.j.j.x.x.j.j.j.g.s.s.s.s.s.s.g.j.j.j.x.x.x.x.z.z.z.n.n.V.V.B.P.I.W.W.W.7X7XrXtXiXpXdXfXkXzXzXzXzXxXxXzXzXxXxXzXzXzXzXkXkXfXfXfXfXfXgXzXzXzXzXcXcXcXcXcXcXcXcXBXBXBXVXVXVXBXVXAXAXBXVXAXAXAXAXZXZXCXCXDXSXSXSXSXSXDXDXDXDXDXCXCXBXVXNXcXcXzXsXiX9X7XR.m.z.h.s.u.} } } [ ] [ ] ] L P J N f p p p u 9 > > > > * & = & > > > > * > * * * * * # # @ @ @ @ = = = = $ $ $ $ $ $ $ $ $ $ $ $ $ $ $ $ $ $ $ $ $ $ @ @ @ @ @ @ @ @ @ @ @ @ @ @ @ @ @ @ @ @ @ @ @ @ @ @ @ . @ @ @ @ . . @ @ @ $ $ $ $ $ = = % % % % $ $ $ $ % % % % % $ $ $ % % $ @ # # # % % % # # # # @ @ . . . . # @ . . . . . . . . . . X . . . o = & = . . . . . . @ @ @ # # # & & & & & & & # # ; * ; * * * % * * % % * * * % % % % % # @ @ @ @ . . . @ @ @ . . . . # # # # % % % @ w C B s w 0 s s s B B 0 s d Q ` `  .` X.! 8.X.Q ` Q ( ( ' 1.-.D A x A A A / / -.:.w.0.D.'.|.'.'.OX|.|.OX X X X X X X X X X X X X X X X X X X X X X X X X[.r.y.y.y.[.[.[.[.[.[.y.y.y.y.y.[.].[.r.r.r.r.r.r.r.r.r.r.r.r.r.r.r.r.t.t.t.r.r.r.r.t.t.r.r.t.t.t.0.t.e.e.r._.r.r.r.e.r.r.r.[. Xr.r.r.r._.[._.r.r.r.r.t.r.r._._._.r.r.r._._._._._.r.r.r.e.r._._.r.r.r.r.r.r.'.r.r.0.r.'.'. X X|.'.`.`.`.'.`.|.'.0.|.|.'.D.D.D.9.9.9.9.0.2.<.:.<.-.-.) / ' A e h w d d 3 + - - + 3 3 1 3 3 w w 3 3 e c Q Q W W ( ! Q  .X.!  .X.X. . ._  .` ~ _ ~ K B B B N N N V i i 0 0 0 0 0 0 0 0 s V 0 0 0 0 0 0 q 0 0 0 0 V V V B B N N N I ] } d.h.k.c.n.P.W.8XrXdXdXhXgXgXcXcXcXNXBXBXBXBXBXBXBXBXBXAXAXAXAXAXAXCXCXDXDXDXDXSXSXDXDXDXDXSXSXSXGXGXGXGXGXGXGXGXGXHXHXGXGXGXGXGXGXGXGXGXGXGXGXKXKXGXGXKXKXKXKXGXGXGXKXKXKXGXGXKXKXKXKXGXGXKXKXGXGXGXGXGXGXGXGXGXGXGXHXHXHXGXGXGXGXGXHXHXHXHXHXHXHXHXHXHXHXHXHXHXHXHXHXGXGXGXGXGXGXGXGXHXHXHXHXGXGXGXGXGXGXGXGXHXGXGXHXGXGXGXGXGXGXGXGXGXGXHXHXGXHXHXHXHXHXHXHXGXGXGXGXGXGXGXGXKXKXKXKXKXKXKXKXKXKXKXKXKXKXKXKXKXKXKXKXKXKXKXKXGXGXKXKXKX",
"g.f.f.j.j.x.x.x.x.x.x.j.j.j.j.j.j.j.j.j.g.s.s.g.j.j.s.g.j.j.j.j.x.z.z.z.z.n.n.V.Z.Z.I.U.U.W.W.!.rXrXtXiXdXsXkXlXlXlXzXxXcXxXxXxXcXxXxXzXzXlXkXkXfXfXfXkXkXkXgXgXzXcXcXcXcXcXcXvXvXBXBXVXVXVXVXVXVXVXVXAXAXAXAXAXAXAXCXCXCXCXDXDXSXSXDXDXDXDXDXCXCXCXCXVXVXNXcXzXzXaXiX9X!.R.P.z.h.h.h.h.s.u.} [ { { ] ] L P J f f f i u u 9 > = = & * * > > > > 9 8 > 8 8 > * = = = = # # = = = = = $ $ $ $ $ $ $ $ $ $ $ $ $ $ $ $ $ $ $ $ $ $ $ @ @ @ @ @ @ @ $ @ @ @ @ @ @ @ @ @ @ @ @ @ @ # $ @ @ @ @ @ @ @ @ @ @ @ @ @ @ $ @ @ @ = $ $ = $ $ $ $ $ $ % % % $ $ $ $ $ $ $ $ $ $ # # # $ $ @ @ @ @ @ @ @ @ @ . . . . . . . . . . . . o o X X . . . . . . # # . . . . @ . . . . o & & # # # & # # # & * * * * * % % % % * * % # # # # # @ @ @ @ @ @ @ @ @ . . . & & @ @ % * * * # 9 9 w B B B s s s s s B B B Q Q ` X. .Q ` .. .( ^ Q ` Q X.1.' D A A A A A D D ' :.<.9.0.D.|.|.OX|.OXOXOX X X X X XOXOX X X X X X XOXOX X X].[. X X X X X X Xy.y.r.r.[. X X[.r.y.[.[.[.y.y.[.r._.[._.r.r.r.r._._._._._._.r.r.r.r.r.r.r.r.r.r.r.t.r._.r.t.r.t.t.t.e.e.r._._.r.r._.y.r.r.r.r.r.r.r.r.r.r.r.t.t.r.r.r._.[.[._.[.r.r._._._._.r.e.e.e.r.r.r.r.r._.'.r.r.'._._.'.'.r.0._.`.|. X|.|.`.`.`.`. X|.`.'.|.|.|.|.D.D.D.0.9.D.0.9.w.9.2.-.-.-.^ ' ^ x e w w w 3 3 3 3 3 3 3 3 3 3 3 3 w e 3 x c Q ! Q W ( ! ( !  .! ! X. . .! E E E K ~ ~ B B N N N V V V i i i 0 0 0 0 0 s s 0 0 0 0 0 0 q q 0 q 0 0 V V V V V B N N N _ ] d.h.h.z.V.U.Q.!.8XuXdXdXgXgXzXcXcXcXcXNXBXBXBXBXBXBXBXAXAXAXAXAXAXAXCXCXCXDXDXDXDXSXSXSXSXSXSXFXFXGXGXGXGXGXGXGXGXGXGXGXGXGXGXGXGXGXGXGXGXGXGXGXGXGXGXGXGXGXGXKXKXKXKXKXKXGXGXKXKXKXKXGXGXGXGXGXGXGXGXGXGXGXGXGXGXHXHXGXGXGXGXGXGXGXGXGXGXGXGXGXGXGXGXGXGXGXGXGXGXGXGXGXGXGXGXGXGXGXGXGXGXGXGXGXGXGXHXGXGXGXGXGXHXHXHXHXHXHXHXGXGXHXHXHXHXHXHXHXHXHXHXHXGXGXGXGXGXGXGXGXGXGXGXGXGXGXGXGXGXGXGXGXGXGXGXKXKXKXGXGXGXGXGXKXKXKXGXGXGXGXGXGX",
"f.f.j.j.j.j.j.j.x.x.x.x.j.j.j.j.j.j.j.j.j.g.g.g.j.j.g.g.j.j.j.x.x.z.z.z.n.n.n.B.B.I.U.U.W.W.7X7XrXtXiXpXaXfXkXlXlXlXxXxXcXcXxXxXcXxXxXzXzXlXkXkXfXfXfXkXkXkXfXfXzXcXcXcXcXcXcXcXvXbXBXBXBXVXVXVXVXVXVXAXAXAXAXAXAXAXCXCXDXDXDXDXSXSXDXDXDXDXDXCXDXDXCXBXVXNXcXzXzXaXiX9X!.R.P.c.k.k.k.k.h.h.u.} } } { ] L P J J f f p u u 9 > > > > > 9 9 9 u 9 u 9 9 8 8 > * & * = = = = = = = = = $ $ $ $ $ $ $ $ $ $ $ $ $ $ $ $ $ $ $ $ $ $ @ @ @ @ @ @ @ @ $ @ @ @ @ @ @ @ @ @ @ @ @ @ @ # @ @ @ @ @ @ @ @ @ @ @ @ @ @ @ $ @ $ $ = $ $ = = $ $ $ $ $ $ $ $ $ $ $ $ $ $ $ $ $ = # # $ $ $ $ @ @ @ @ @ @ @ @ @ @ . . . . . . . . . . X X X . . . . . . . @ @ . . . . @ . . . # & & & & & & & # # # # & * * * * % % % * * * % % % # # # @ @ @ @ @ @ @ . . . . & & @ @ @ # % % ; * 7 9 7 0 B Q B B s w s ~ _ ~ ! ` X.` Q ! ' ..^ Z C ` X.` X.' A D D A A A D / / -.:.9.0.D.|.OXOXOXOXOX|.|. X|. X X XOXOX X X X X X XOXOX X X X]. X X X X X X X[. X X[. X X Xy.y.y.[.y.[.y.r.r._.[.[.[._.r.r.r.r.r.r._._._.r.r.r.t.r.r.r.r.r.r.r.t.r.r._.r.t.r.e.r.r.r.[.[.[._._.[.[.r.r.r._.r.r.r._._.r.r.r.r._.r.r.r.r.e.e.r.r._._._._._.r.r.e.e.e.r.r.r._._.r.r.r.r.r.r.r.r.r.'.'.`.|.|.|.|. X`.`. X|.|.|.'. X|.|..X|.|.'.D.D.0.0.0.0.9.<.:.:.1.' 1.' c e 3 3 3 3 3 1 3 3 3 - - - 1 3 3 w w e x c C W W W ! ! ( !  .( !  .X. .` Q E E E ~ K B B B V s s s V s s i 0 0 0 0 0 s s s s 0 0 0 0 q q q q 0 0 V V V V V V N N N I ] } h.h.c.n.P.Q.!.8XuXiXdXgXzXzXcXcXcXcXNXBXBXBXBXBXBXBXBXAXAXBXAXAXAXCXCXCXDXDXDXDXSXSXDXSXSXSXSXFXGXGXGXGXGXGXGXGXGXGXGXGXGXGXGXGXGXGXGXGXGXGXGXGXGXGXGXGXGXGXKXGXKXKXKXKXGXGXGXGXGXGXGXGXGXGXGXGXGXGXGXGXGXGXHXHXGXHXHXHXHXHXGXGXGXGXGXGXGXGXGXGXGXGXGXGXGXGXGXGXGXGXGXGXGXGXGXGXGXGXGXGXGXGXGXGXHXHXGXGXGXGXHXHXHXHXHXHXHXHXGXGXHXHXHXHXHXHXHXHXHXHXGXGXGXGXGXGXGXGXGXGXGXGXGXGXGXGXGXGXGXGXGXGXKXKXKXKXKXGXGXGXGXGXKXKXKXGXKXGXGXGXGX",
"j.j.j.j.j.j.j.j.j.j.j.j.x.j.j.j.j.j.j.j.j.g.g.g.j.g.j.j.j.j.j.x.x.z.z.z.n.n.V.B.B.Z.U.Q.W.7X7XrXrXrXyXpXaXsXkXlXzXzXxXcXcXcXcXcXcXxXxXzXzXzXlXlXfXkXfXfXkXkXkXkXzXzXcXcXcXcXcXcXvXvXbXBXBXBXBXVXVXVXVXVXVXAXVXVXAXAXCXCXDXDXDXDXSXSXDXDXDXDXDXCXDXDXCXBXVXNXcXzXzXaXiX9X!.R.K.c.l.z.z.c.z.k.h.s.u.u.} ] U L P P J N f p u u > > > > 9 u u u u u u u u 9 9 8 * * * * = = # @ = = $ $ $ $ $ $ $ $ $ $ $ $ $ $ $ $ $ $ $ $ $ $ $ $ @ @ $ $ @ @ @ @ $ $ $ $ $ @ @ @ $ @ @ @ @ @ @ @ @ @ @ @ @ @ @ @ @ @ @ @ @ @ @ @ @ @ @ = $ $ $ = $ $ $ $ $ $ % % $ $ $ $ $ $ $ $ $ $ $ @ $ $ $ # $ $ @ @ @ @ @ @ @ @ @ @ . . . . . . . . X X . . . . . . . . . @ . . @ @ @ @ . . . # & & # # & & # # # # % % * * * * % % * * * % * = # # @ @ @ @ . . @ @ . . . @ * @ . . @ # # # # * 9 s 9 7 s B ! C C C C E Q C `  .` Q Q  .X.( Q C Z G.1.( ` ` Z D A A D D ^ / / :.9.9.D..X|.OXOX X XOX|. X|.|.OXOXOXOXOX X X X X X XOXOXOX X X X]. X X X].[. X X X X[.]. X[.[.].[.[.y.[.y.r.r.[.[.].[._._._._.r.r.r._._._._._.r.r.r.r.r.r.r.r._.r.r.r._._.t.e.r.r.r.r.[.[.[.[.[.[.[.r.r.r.r.r._._._._._._._.[._._.r.r.e.0.0.t.r._._.r.r.r.r.r.e.e.r.r.r.r._._.r.r.r.r.r.r.r.r.'.'.`.|.'.'.|. X X X X X X X|.|.|.|.|.|.|..X|.D.D.D.D.D.0.9.w.<.<.1.-.1.1.Z x e 4 - 3 3 - 3 3 + O + + - 3 3 w e e e d x Z Q Q Q ! ( !  . .!  ...X. ._ ~ E E B K B B B s s s s s s s s 0 0 0 0 0 0 s 0 0 0 0 0 0 0 0 0 0 0 V V V V V V V V V N P ] } d.h.c.c.P.Q.!.8XuXiXdXgXzXcXcXcXcXcXcXcXNXBXBXBXBXBXVXVXBXAXAXAXAXCXCXCXCXDXDXDXDXSXSXSXSXSXSXFXFXFXGXGXGXGXGXGXGXGXGXGXGXGXGXGXGXGXGXGXGXGXGXGXGXGXGXGXGXGXGXGXGXGXGXGXGXGXHXGXGXGXGXGXGXGXGXGXGXGXGXGXGXGXHXHXHXHXHXHXHXHXGXGXGXGXGXGXGXGXGXGXGXGXGXGXGXGXGXGXGXGXGXGXGXGXGXGXGXGXGXGXGXGXHXHXHXHXHXGXGXHXHXHXHXHXHXHXHXHXGXHXHXHXHXHXHXHXHXHXGXGXGXGXGXGXGXGXGXGXGXGXGXGXGXGXGXGXGXGXGXGXKXKXKXKXKXKXKXKXKXKXGXGXKXKXKXKXGXGXGXGXGX",
"j.j.j.j.j.j.j.j.j.j.j.j.j.j.j.j.j.j.j.j.j.g.s.g.g.j.j.j.j.j.x.x.z.z.z.n.n.V.B.B.I.I.U.W.W.7XrXrXrXrXyXdXsXfXlXlXzXzXxXxXcXcXcXcXcXxXxXxXzXlXlXlXkXkXfXkXkXkXkXkXzXzXzXcXcXzXcXcXvXvXvXvXBXBXVXVXVXVXVXVXVXVXVXVXAXAXCXCXDXDXDXSXSXSXDXDXDXDXDXDXDXDXCXVXVXNXcXcXzXaXiX9X!.R.P.M.c.c.c.c.c.z.j.h.u.u.} [ Y U L P P J f f p u 8 > > 9 u u u p u u i u u u u 9 9 > > * = = # # $ $ $ $ $ $ $ $ $ $ $ $ $ $ $ $ $ $ $ $ $ $ $ $ $ $ @ @ $ $ $ @ @ @ @ $ $ $ $ @ $ $ $ @ @ @ @ @ @ @ @ @ @ @ @ @ @ @ @ @ @ @ @ @ @ @ @ @ $ $ $ $ $ $ $ $ $ $ $ $ = $ $ $ $ $ $ $ $ $ $ $ $ $ $ $ $ # # $ @ @ @ @ @ . @ @ @ . . . . . . . . . . X X . . . . . . . . . . . @ @ @ @ . . . . # # # # # & # # # # # % % * * * % % % % % % = % # @ @ @ @ @ @ @ @ @ . @ @ & * @ . . @ @ $ % ; 7 ; 9 9 7 s d B B ` ` C B Q `  .Q Z Q ` X.` W Z ` S.S.Z Q ` ( ^ D A D / D D D -.8.9.D.|.|.|.OXOX X X X X X XOXOXOXOXOX X X XOXOXOXOXOXOXOX X X X X X X X X X X X X[._.r.[. X X X[.[.[.[.].[.r.[.[.[.[._._._.[.r._._._._.[.[.[.r.r.r.r.r.r.r.r.[._.r._._._.r.t.r.r.r.r.r.[.[._.[.[.[.r.r.r.r.r._._._.r._._._.[._.r.t.t.t.t.e.e.r.r.r.e.e.e.r.r.e.e.r.r.r.r._._.r.r.r.r.r.r.r.'.'.'.`.|.|.'.|. X XOXOXOX X X X|.|.|.'.'.'.|.'.D.D.D.D.0.9.0.9.9.<.<.1.1.8.^ W A d 4 3 3 - 1 3 + + + - - 3 3 3 e d c x x c ` Q C (  .!  . . . .X.X. . .! ~ E f E B B s s s s s s s s 0 0 0 0 0 0 0 0 0 0 0 0 0 0 0 0 0 0 0 V V V V V V V V V N P ] { } h.c.c.B.Q.!.8XrXiXdXsXzXcXcXcXcXBXNXBXBXBXBXBXBXVXVXVXBXBXAXAXAXAXCXCXCXDXDXDXDXSXSXSXSXSXSXFXFXFXSXSXGXGXGXGXGXGXGXGXGXGXGXGXGXGXGXGXGXGXGXGXGXGXGXGXGXGXGXGXGXGXGXGXGXGXGXGXGXGXGXGXGXGXHXHXGXGXGXGXGXGXGXGXHXHXHXHXHXHXGXGXGXGXGXGXGXGXGXGXGXGXGXGXGXGXGXGXGXGXGXGXGXGXGXGXGXGXGXGXGXGXHXHXHXHXGXGXGXHXHXHXHXHXHXHXHXHXGXHXHXHXHXHXHXHXGXGXGXGXGXGXGXGXHXGXHXHXHXHXHXGXGXGXGXGXGXGXGXGXKXKXKXKXKXKXKXKXKXKXKXKXKXKXKXKXGXGXGXGXGX",
"j.j.j.j.x.x.x.x.j.j.j.j.x.x.j.j.j.j.j.j.j.s.s.s.g.j.j.j.j.j.x.x.z.z.z.n.n.V.B.Z.U.U.W.Q.W.7X7XrXrXtXpXaXfXkXlXlXxXxXcXxXxXxXcXcXcXxXxXxXzXzXzXkXkXkXkXfXfXkXkXkXzXzXzXzXzXzXcXcXvXvXvXBXVXVXVXVXVXVXVXVXVXVXVXVXAXAXCXCXDXDXDXDXDXDXDXDXDXDXDXDXDXDXCXBXVXNXcXzXzXaXiX9XE.R.P.M.M.M.M.n.M.c.j.h.h.u.} [ ] ] ~ L P K J f p u u 8 u u u s f f s p p p i u i u u 9 > * * = # @ @ @ @ @ $ $ $ $ $ $ $ $ $ $ $ $ $ $ $ $ $ $ $ $ @ $ @ $ $ $ @ @ $ $ @ @ $ $ $ $ $ = $ @ @ @ @ @ @ @ @ @ @ $ @ @ @ @ @ @ @ @ @ @ @ @ $ @ $ $ $ $ $ $ @ @ @ @ @ @ @ @ $ @ @ @ @ @ $ $ @ @ $ $ $ $ $ @ $ $ $ $ @ @ @ @ @ @ @ . . . . . . . . . . X X . . . . . . . . . @ @ @ @ @ . . . . . @ # @ # # & # # # # # # # # * % # # # # # # # # $ @ @ @ @ @ # @ . . @ & & & @ . . @ @ . @ # * 6 * 9 s s B B s B Q Q C Q `  .Q C Q ` ` ^ ( ` 1.' S...Z ` ' ^ D D ^ / ) D D / <.9.D.D.|.oX|.OX X XOXOX XOXOXOXOXOX X X X XOXOXOXOXOXOXOX X X X X X X X[. X X X X X]._.r.]. X X].].[.[.].].[.[.[.[.[.[._._._.[.r.r._._.[._._.[._._.r.r.r.r.r._.[.[.[._._._.r.r._._.r.r.r.r.[.[.[.[.[._.r.r.r.r._.r.t.t.r._._.r.r.t.r.r.r.t.r.r._._.r.e.e.e.e.r.r.r.r.r.e.r.r.r.r.r.r.r.r.r.r.r.r.r.'.|. X|.|. X X XOXOX X XOX XoXOX'.'.'.|.'.D.'.D.D.0.0.D.0.9.9.<.<.1.9./ ) D x e 4 3 - - 3 + + - - 1 - - 3 e x Z x c C 1. .Q ! `  . . . .!  .X.X.X._ ! ~ B K E B s s s s 0 0 s 0 0 0 0 0 0 0 0 0 0 0 0 0 0 0 0 0 0 V V V V V V V V V V B N P I [ } h.z.c.V.Q.!.8XrXuXpXsXgXzXcXcXNXBXBXBXBXBXBXBXBXVXVXVXAXAXAXAXAXAXCXCXCXCXDXDXDXDXSXSXSXSXSXFXFXFXFXFXGXGXGXGXGXGXGXGXGXGXGXGXGXGXGXGXGXGXGXGXGXGXGXGXGXGXGXGXGXGXGXGXGXGXGXGXGXGXGXGXGXGXGXGXGXGXGXGXGXGXGXGXGXGXGXGXGXGXGXGXGXGXGXGXGXGXGXGXGXGXGXGXGXGXGXGXGXGXGXGXGXGXGXGXGXGXGXGXGXGXGXGXGXGXGXGXGXGXFXFXHXGXGXGXGXGXGXGXGXGXGXFXFXFXGXGXGXGXGXGXGXGXGXGXGXGXGXGXGXGXGXGXGXGXGXGXGXGXGXGXGXGXGXGXGXGXGXGXGXGXGXGXGXGXGXGXGXGXGX",
"j.j.j.j.x.x.x.x.j.j.x.x.x.x.x.x.j.j.j.j.j.g.s.g.g.j.j.j.j.x.x.x.z.z.z.n.n.V.B.I.U.W.W.W.!.7X7XrXrXyXpXfXfXkXlXxXxXxXxXxXvXxXcXcXxXxXxXxXzXzXzXkXkXkXfXfXfXkXkXkXzXzXzXzXzXzXcXcXcXcXvXvXNXVXVXVXVXVXVXVXVXVXVXVXAXAXAXCXCXDXDXDXDXDXDXDXDXDXDXDXDXDXCXBXVXNXcXzXgXdXiX9XE.R.P.K.K.K.M.M.M.c.k.h.h.u.} [ [ [ ] L L P J f f i u u u s f f f f f f f f p p u u 9 > * * * = # @ @ @ @ @ $ $ $ $ $ $ $ $ $ $ $ $ $ $ @ @ $ $ $ $ @ @ @ @ $ $ $ $ $ $ @ @ $ $ $ $ $ = @ @ @ @ @ @ @ @ @ @ @ @ $ $ $ @ @ @ @ @ @ @ @ @ $ @ $ $ $ $ $ $ @ @ @ @ @ @ @ @ $ @ @ @ @ $ $ $ @ @ @ $ $ $ @ @ $ $ @ @ @ @ @ @ @ @ @ . . . . . . . . . . . . . . . . . . . . . @ @ @ @ @ . . . . . # # # # # & # # # # # # # # % % # # # # # @ $ $ @ @ @ @ @ @ @ @ . . @ & = @ . . @ @ @ . @ # % 7 9 s s B B B B B B C ! ` ` ` W (  . .` Q ( ..8.W ' X.' ` ^ ^ ^ / ^ Z A D / 1.9.D.|.|.oXOXOXOX X XOXOXOXOXOXOX X X X X X XOXOXOXOXOXOX X X X X XOX X X X X X X]. X].].]. X X X[.].[.[.].].[.[.[.[.[.[._._.[.[.r.r._._._._._._._._.r.r.r.r._._.[.[.[.[._._._.r.[.[.r.t.r.r.[.[.[.].].[.r.r.r._.[._.r.r._._._.r.r.t.r.r._.r.r.r.[.[._.r.e.e.e.e.r.r.r.r.r.r.r.r.r.r.r.r._.r.'.'.r.r.'.`. X`.|.|. X XOX XOX X X XOXOX|.'.'.|.'.'.|.D.0.D.D.0.9.0.9.8.w.<.9.-./ ^ v e 4 - + - 3 3 - - - 3 3 3 3 e 3 c x C Q S. .( ~ ( X. .` ( !  . ...v._ ! ! E B E B s s s s 0 0 0 0 0 0 0 0 0 0 0 0 0 0 0 0 0 0 0 0 0 0 V V V V V V V V N B N P I ] } h.z.c.B.U.W.7XrXiXiXsXgXzXcXcXNXBXBXvXBXBXNXBXBXVXVXAXAXAXAXAXAXAXCXCXCXCXCXCXDXDXSXSXSXSXSXFXFXFXFXFXGXGXGXGXGXGXGXGXGXGXGXGXGXGXGXGXGXGXGXGXGXGXGXGXGXGXGXGXGXGXGXGXGXGXGXGXGXGXGXGXGXGXGXGXGXGXGXGXGXGXGXGXGXGXGXGXGXGXGXGXGXGXGXGXGXGXHXFXFXFXGXGXHXHXGXGXGXGXHXHXHXGXGXGXGXGXGXGXGXGXGXGXGXGXGXGXGXGXFXFXHXHXGXGXGXGXGXGXGXGXFXFXFXFXGXGXGXGXGXGXGXGXGXGXGXGXGXGXGXGXGXGXGXGXGXGXGXGXGXGXGXGXGXGXGXGXGXGXGXGXGXGXGXGXGXGXGXGXGX",
"x.x.x.j.x.x.x.x.j.x.x.x.x.x.x.x.j.j.j.j.j.g.g.g.g.g.j.j.x.x.x.x.z.z.n.n.n.V.B.I.Q.W.W.W.!.7XrXrXtXyXaXfXkXkXlXxXxXxXxXxXvXvXcXcXxXxXxXxXzXzXzXzXkXkXkXkXfXkXzXzXzXzXzXzXzXzXcXcXcXcXcXvXvXvXNXNXbXbXNXNXVXVXVXVXAXAXAXCXCXCXDXDXZXZXDXDXDXDXDXDXCXDXCXBXVXNXcXzXgXdXwX8XE.R.P.K.K.K.m.M.M.b.z.j.u.u.} } | | ] ] L L P J f p p i s f f f f J f f G f f s p u u 9 > * * = = @ @ @ @ @ $ $ $ $ $ $ $ $ $ $ $ $ $ $ $ $ $ $ $ $ $ $ $ $ $ $ $ $ $ $ $ $ $ $ $ $ $ $ @ $ @ @ $ @ @ @ @ @ @ @ @ @ $ = @ @ @ @ @ @ @ @ @ @ $ $ $ $ $ $ $ = = = = $ $ $ $ $ @ @ @ @ $ $ @ @ @ @ @ @ @ @ @ @ @ @ @ @ @ @ @ @ @ @ . . . . . . . . . . . . . . . . . . . . . @ @ @ @ . . . . @ @ # @ @ @ # @ @ $ $ # # # # % % # # # # # $ # # # $ @ @ @ @ @ @ . @ @ @ @ @ . @ @ @ @ # * ; 7 7 0 9 w B C C d C Q ` ` ! !  .` X.` ^ ^ ( ^ ` C Q 1.' ^ Q ( ` ' / A x A ^ -.9.9.J.oX|.OXOXOXoX X X X XOXOXOX X X X X X XOXOXOXOXOXOX X X X XOX X X X X X X X].].].].]. X X X].[.[.].].].].[.[.[.[.[._._._._.[.r.r._._._.r.r.r.r.r.r.r.r.r.r._._.[.[._._._.r.r.r.r.r.e.t.r.r.[.[. X].[.r.r._._.[.[.[.[.[.[.[.[._.r.r.r._.r.r.t._.[._.r.e.e.e.e.r.r.r.r.r._._._._.r.r._.'._.'._.0.r.'.`.`.'.`.|.|.|.|.OXOXOX X XOX XOX|.`.|.'.'.|.D.D.'.'.0.9.0.9.8.9.<.9.<.-./ Z x e 3 - , 3 3 3 , - , 3 3 3 e w x c c ( X.E ~ ! ! X.X. . .!  . ..... .! ! ! B E B s s s 0 0 0 0 0 0 0 0 0 0 0 0 0 q 0 0 0 0 0 0 0 0 0 V V V V V V V V B N N P I ] } d.x.c.B.U.W.7XrXiXpXsXgXgXcXcXcXNXvXcXcXcXNXNXBXBXVXVXAXAXAXAXAXAXCXCXCXCXCXCXDXDXDXSXSXSXSXSXFXFXFXFXFXFXFXGXGXGXGXGXGXGXFXFXGXGXGXGXGXGXGXGXGXGXGXGXGXGXGXGXGXGXGXGXGXGXGXGXGXGXGXGXGXGXGXGXGXGXGXGXGXGXGXGXGXGXGXGXGXGXGXGXGXGXGXGXGXGXFXHXFXFXHXFXHXHXGXGXGXHXHXHXGXGXGXGXGXGXGXGXGXGXGXGXGXGXGXGXGXGXGXGXGXHXFXFXFXFXGXGXGXHXHXHXFXFXGXGXGXGXGXGXGXGXGXGXGXGXGXGXGXGXGXGXGXGXGXGXGXGXGXGXGXGXGXGXGXGXGXGXGXGXGXGXGXGXGXGXGXGXGX",
"x.x.x.x.x.x.x.x.j.j.j.j.j.j.j.j.j.j.j.j.j.j.j.j.j.g.j.j.x.x.x.x.z.z.n.n.n.V.B.I.U.W.Q.W.7X7XrXyXyXyXaXfXkXkXxXxXxXxXxXxXvXvXxXxXcXxXxXxXzXzXzXzXkXkXkXfXfXkXzXzXkXzXxXzXxXcXcXcXcXcXvXvXvXvXbXbXvXvXbXbXVXVXVXBXAXAXAXCXCXCXCXCXZXZXZXDXDXDXDXDXCXCXCXVXNXNXcXzXgXdX9X8XE.R.R.K.K.M.M.M.M.b.z.k.u.u.u.} } | | | U L P J J f f f f f J K K K K J J G f f f s u u > * * = = $ @ @ @ $ $ $ $ $ $ $ $ $ $ $ $ $ $ $ $ $ $ $ $ $ $ $ @ $ $ $ $ $ $ $ $ = $ $ $ $ $ @ $ $ $ $ = @ @ @ $ @ @ @ @ @ @ @ $ $ @ @ @ $ $ @ @ @ @ $ $ $ $ $ @ @ @ @ @ @ @ @ @ @ @ @ @ @ @ @ @ @ @ @ @ @ @ @ @ @ @ @ @ @ @ @ # @ = @ . . . . . . . . . . . . . . . . . . . . . @ @ @ @ . . . . @ @ @ @ @ @ @ @ @ $ $ $ # # # * % # # # # # @ # # # # # @ @ . . @ @ @ @ . @ @ . @ @ @ $ ; 9 9 8 7 s s d ~ C B C ` ` ( ` ` Q Q 1.X.Q C ^ ^ Z Z Q X.' ` ( ` 1.1.^ Z v A ) / 1.9.0..XXXoXOXOX|. X X X X XOXOXOX X X XOXOXOX,XOXOXOXOX X X X XOX,X X XOX,X,X X X X].].[.[. X X X].].].].].].[.[.].[.[._.r.r.r.r._._._._._._._.r.r.r.r.r.t.t.t.r.r.[.[._.r._._.r.r.t.r.t.t.t.t.r.r.[.[.].[.r.r.r._.r.r.[._.r.r._.[.[._.r.r._.r.r.t.r._._._.r.r._.r.r.r.r.r._._._._.r.r.r.r._.r._.'.r.r._.'.'.'.`. X'.'.|. XOXOXOX X|. XOXOXOX X|.|.OX|.|.'.D.D.D.G.D.9.9.w.9.<.-./ ^ Z x e 3 - , 3 w - + + 3 3 3 3 e x c e Q W c ( ! ~  .X. . .(  . .X.X... .~ ! ~ B B B B B 0 0 0 0 0 7 7 0 0 0 9 q q q q 0 0 0 0 0 0 0 V V V V V V V V V N N N P I ] } d.x.n.B.U.T.7XrXuXpXsXzXzXzXcXcXcXcXcXcXcXNXNXNXBXBXVXVXAXAXAXAXAXCXCXCXCXCXCXCXDXDXSXSXSXSXSXFXFXFXFXFXFXFXFXGXFXGXFXGXGXHXHXHXFXGXGXGXGXGXGXGXGXGXGXGXGXGXGXGXGXGXGXGXGXGXGXGXGXGXGXGXGXGXGXGXGXGXGXGXGXGXGXGXGXGXGXGXGXGXGXGXGXGXGXGXGXFXFXHXHXHXHXFXFXFXFXGXHXHXHXGXGXGXGXGXGXGXGXGXHXGXGXGXGXGXGXGXGXGXGXGXHXFXFXHXHXGXGXGXHXGXGXGXFXGXGXGXGXGXGXGXGXGXGXGXGXGXGXGXGXGXGXGXGXGXGXGXGXGXGXGXGXGXGXGXGXGXGXGXGXGXGXGXGXGXGXGXGXGX",
"x.x.x.x.x.x.x.x.j.j.j.j.j.j.j.f.j.j.j.g.g.g.g.j.j.j.j.j.j.j.x.z.z.b.b.n.V.V.Z.Z.U.Q.Q.!.7XrXrXtXyXpXaXkXkXlXzXxXvXvXvXxXxXxXxXvXxXcXcXxXzXzXzXlXkXkXkXkXkXkXzXzXlXlXxXxXxXxXxXxXxXcXvXvXbXvXvXvXbXbXbXVXVXVXVXVXVXAXAXAXCXCXCXCXZXZXZXZXSXZXSXZXCXCXAXVXNXvXcXkXsXdXwX0XT.R.P.K.K.M.M.M.M.z.k.h.h.u.u.u.u.} { [ ] U L P J f f J J J K P K K P P K K G f f f f s 9 8 * & @ $ $ $ $ $ $ $ $ $ $ $ $ $ $ 5 $ $ $ $ $ $ $ $ $ $ $ $ $ $ @ @ @ $ @ @ @ $ $ $ $ $ $ $ $ $ @ $ $ @ @ $ $ $ @ @ $ $ $ $ $ $ $ $ $ $ $ $ $ $ @ @ @ $ $ = @ @ @ @ @ $ # # @ @ @ @ @ @ @ @ @ @ @ @ . . . @ @ @ . @ @ $ # @ @ @ @ . . . . . . . . . . X X . @ . . . . . . . . @ . . . . @ @ . . . . . @ @ @ # # @ @ @ @ @ # * * = % # # @ @ # # # # $ @ . . . @ # # $ $ @ @ . @ % * 8 7 ; # ; w w d E C B C ` ` ` Q ` ` Q ( X.( ` Q ( Q ^ W ^ ` ` ` Q 1.G.Q Z Z D ^ / 1.9.G.D.OXOX|. X X|.OXOX X X XOXOXOXOXOXOX XOXOXOX XOXOX X X X XOXOX XOXOX,XOXOX XOX X X X X X].].].].].].]._._.].].].]._.r.r._._._._.[.].[.r.t.r.r.t.t.r.r.r.e.e.r.[.[.r.r.[.[.r.r.e.r.r.r.e.t.t.t._.[.].[.r.r.r.[.r.r._._._.r.r._.[._._.r.r.r.r.r.r.r.r.r.r.r.r._._.r._._._._._._._.r.r.r.r.r.r.r.r.r.r.'.'.`.`.`.|.OX X X X XOXOX X X XOX XOX X X|.|.|..X.XF.D.D.D.D.0.0.9.9.9.<.-.%.) v e e - - 3 , 1 + O - + + 3 3 h x d Q x c W Q Q  . .X. .X. . . . .X..._ ! ! B B B B B s 0 q q 7 7 7 0 0 0 0 0 7 q 0 q 0 V 0 0 0 0 V V V V V V V B B N N N P I ] } d.j.V.Z.P.Q.7XrXuXpXfXzXzXzXcXvXvXvXvXNXNXNXNXNXVXVXVXVXAXAXAXAXAXAXCXCXCXCXCXCXCXCXDXDXSXSXSXSXSXFXFXFXFXFXFXFXFXFXFXGXGXFXFXFXFXGXGXGXGXGXGXGXGXGXGXGXGXGXGXGXGXGXGXGXGXGXGXGXGXGXGXGXGXGXGXGXGXGXGXGXGXGXGXGXFXGXGXGXGXGXFXFXFXGXGXFXFXFXFXFXFXFXFXFXFXFXFXGXFXGXFXGXFXGXFXGXFXGXFXGXFXFXFXFXFXFXFXFXFXFXFXFXFXFXFXFXFXFXFXFXFXFXFXFXFXGXGXFXFXFXFXGXGXGXGXGXGXGXGXGXGXGXGXGXGXGXGXGXGXGXGXGXGXGXGXGXGXGXGXGXGXGXGXGXGXGXGXGXGXGX",
"x.x.x.x.x.x.x.x.x.j.j.j.j.j.j.j.j.j.j.g.g.g.g.j.j.j.j.j.j.x.z.z.b.b.b.n.V.V.Z.U.Q.W.!.7XrXrXtXyXpXpXaXkXkXzXxXcXvXvXxXxXxXxXxXvXxXcXcXxXzXzXzXlXkXkXkXkXkXkXlXzXlXxXxXxXxXxXxXxXxXxXvXvXbXbXvXvXvXvXbXbXNXNXNXNXVXVXAXAXAXCXCXCXZXZXZXZXZXZXZXCXAXAXAXVXNXvXcXkXdXwXwX0XT.R.K.K.M.M.M.M.M.c.k.k.h.h.u.u.u.u.} } [ ] L L J J J P P P P P P P P L P K K G f f f s u 9 > = $ $ $ $ $ $ $ $ $ $ $ $ $ $ $ 5 $ $ $ $ $ $ $ $ $ $ $ $ $ $ $ $ $ $ $ @ $ $ $ $ $ $ $ $ $ $ $ $ $ @ @ $ $ $ $ $ $ $ $ $ $ $ $ $ $ $ $ $ $ $ $ $ $ $ $ $ $ $ $ $ $ @ @ @ @ @ @ @ @ @ @ @ @ @ @ @ @ @ @ @ @ @ @ @ @ @ @ $ @ @ @ @ . . . . . . . . X X . . . . . . . . . . @ @ @ . @ @ @ . . . . . . @ @ @ @ @ @ @ $ $ @ @ # # # # # # @ @ @ $ # # # $ # # . # * # @ . @ @ * ; 8 ; # @ # 8 * s s h g E Q Q ` ` ( ` ! W ! Q Z ( ( ` Q ^ W ( Q ' ` ( 8.S.( c Z D ^ ) -.<.9.G.'.OXOX X X X XOXOX X XOXOXOXOXOXOX X X X X X X X X X X XOXOXOXOXOXOXOXOXOXOX X X X X X X].]. X X]. X].].].].].[.[._.r.r._._._._.r._.r.t.e.e.r._.r.r.r.r.e.r.r.[.[.[.[.[.[.[.[.[._.r.r.r.r.r._.[.].].[._.r.r.[.r.r._._._.r.r._._._._.r.r.t.r.r.r.r.r.e.r.r.r.r.r._._._._._._._._._.r.r.r.r.'.r.r.r.r.'.'.`.`. X X X X X XOXOXOXOXOXOXOX X X X X|.OXoXoXoX|.'.|.|.D.0.0.9.9.9.2.:./ ) A x e e 3 3 a w 1 + O O + 3 3 3 e x c c W C Q Q ! `  .(  ...X. .X._  . .` _ E B B B B s 0 q q 7 7 7 7 7 7 7 q 7 q q 7 0 0 0 V V V V V V V V V V B N N N N P I ] } h.x.n.Z.U.Q.7XrXtXpXsXzXzXcXcXcXvXvXvXNXNXNXNXNXVXVXVXVXAXAXAXAXAXAXCXCXCXAXCXCXCXDXDXSXSXSXSXSXSXFXFXFXFXFXFXFXFXFXFXFXFXFXFXGXFXGXGXFXGXFXFXFXFXGXGXFXFXGXGXGXGXGXGXGXGXGXGXGXGXGXGXGXGXGXGXGXGXGXGXGXGXGXGXGXGXGXGXGXGXFXFXFXFXGXGXFXFXFXFXFXFXFXFXFXFXFXFXFXFXFXFXFXFXFXFXFXFXFXFXFXFXFXFXFXFXFXFXFXFXFXFXFXFXFXFXFXFXFXFXFXFXFXFXFXFXGXGXFXFXFXFXGXGXGXGXGXGXFXFXFXFXGXGXGXGXFXGXGXGXGXGXGXGXGXGXGXGXGXGXGXGXGXGXGXGXGXGXGXGXGX",
"x.x.x.x.z.x.x.x.x.x.x.x.x.x.j.j.j.j.j.g.g.g.g.g.j.j.j.j.j.x.z.b.b.b.n.n.V.B.Z.U.Q.Q.!.5XrXrXtXyXpXaXsXkXlXzXxXcXvXvXvXxXxXvXvXvXvXxXcXcXxXzXzXlXkXkXkXkXkXkXlXzXlXxXxXxXxXxXxXxXxXxXxXvXbXbXbXvXvXvXvXbXbXbXbXNXVXVXVXAXAXAXCXCXCXCXCXCXZXZXCXCXAXAXAXNXNXvXzXgXsXiX9X0XT.R.P.K.m.M.M.M.M.c.z.k.k.k.k.h.h.u.u.u.{ ] U L P P P L L L L L P P L L L P K K K f f i u 9 > = & = $ $ $ $ $ $ $ $ $ $ $ $ $ $ $ $ $ $ $ $ $ $ $ $ $ $ $ $ $ $ $ $ $ $ $ $ $ $ $ $ $ $ $ $ $ $ $ @ @ $ $ $ $ $ $ $ $ $ $ $ $ $ $ $ $ @ $ $ $ $ $ $ @ @ $ $ $ $ @ @ @ @ @ @ @ @ @ @ @ @ $ @ @ @ @ @ @ @ @ @ @ @ @ @ @ @ @ @ @ @ @ @ . . . . . . . . . . . . . . . . . . @ @ @ @ @ . . . . . . . @ @ @ @ . . @ @ $ # @ @ @ $ $ $ # # # # # # # # @ . . . # % # @ . @ * ; ; ; % @ @ * ; ; w d g g E ` ` ! ` Q Q ` ( W ! W Z Q ` ( ( Q ^ W  ...Z G.G.c ^ A A D ) -.1.9.D.D.oXOXOXOXOXOX XOXOXOXOXOXOXOXOXOXOX X X X X X X X[. X XOX X X X XOXOXOXOXOXOXOX X X X X X X X X X X X X].].].]._.[._._._.[._._._.r.[.[.r.e.e.r.[._._.r.r.r.r.r.[. X[.[.[.[.[.[.[._.r.r._.r.r.r.[.].[._._.[._.r.r._._._._._._._._._.r.r.r.r.r.r.r.r.r.r.r.r.r.r.r._._._._._._._.r._.r.r.r.r.'._.r.r._.'._.'.`.`.`. X XOXOXOXOXOXOXOX X X X X X X XOXoXoX|.|.'.D.D.D.D.0.0.9.9.<.:.%./ ) v x e 3 3 3 h g d h e e 3 - e c W x x Z C Q Q Q `  .( ( ..S. .X.Q ` ..X._ ~ C B B B s 0 0 q 7 7 7 7 7 6 7 7 7 q 7 7 0 0 0 0 0 V V V V V V B B B B N N P P I ] d.h.j.n.Z.Q.Q.!.rXtXiXsXzXzXzXcXcXvXvXvXNXNXNXNXNXVXVXVXVXAXAXAXAXAXAXCXCXCXCXAXCXCXDXSXSXSXSXSXSXSXSXFXFXFXFXFXFXFXFXFXFXFXFXFXFXFXFXFXFXFXFXFXFXFXGXFXFXFXFXGXGXFXFXFXFXFXGXGXGXFXFXFXFXFXGXGXFXFXGXFXFXGXFXFXFXFXGXGXFXFXFXFXFXFXFXFXFXFXFXFXFXFXFXFXFXFXFXFXFXFXFXFXFXFXFXFXFXFXFXFXFXFXFXFXFXFXFXFXFXFXFXFXFXFXFXFXFXFXFXFXFXFXFXFXFXFXFXFXFXFXFXGXGXGXFXGXFXFXFXFXFXFXFXFXFXFXFXFXGXGXGXGXGXGXGXGXGXGXGXGXGXGXGXGXGXGXGXGXGXGXGX",
"x.x.x.x.x.x.x.x.x.x.x.x.x.x.j.j.j.j.j.g.g.g.g.g.j.j.j.j.j.x.z.b.b.n.n.n.V.B.I.U.Q.Q.W.7X7XrXtXyXpXaXfXkXlXzXxXcXvXvXvXxXxXvXvXvXvXxXcXcXxXzXzXkXkXkXkXkXkXkXlXlXlXxXxXxXxXxXxXxXxXxXcXvXbXbXbXvXcXcXcXcXvXbXbXbXVXVXVXVXAXAXAXAXCXCXCXCXCXCXAXAXAXAXVXNXNXcXzXgXsXiX9X6XE.R.P.K.m.M.M.M.b.c.z.k.l.l.z.k.h.h.u.u.} [ U L P P L L P L L L L L L L L P P K K K f f i 9 > = & = $ @ $ $ $ $ $ $ $ $ $ $ $ $ $ $ $ $ $ $ $ $ $ $ $ $ $ $ $ $ $ $ $ $ = $ $ $ $ $ $ $ $ $ $ $ $ @ @ $ $ $ $ $ $ $ $ $ $ $ $ $ $ $ $ @ $ $ $ $ $ $ @ @ $ $ $ @ @ @ @ @ @ @ @ @ @ @ @ @ @ @ @ @ @ @ @ @ @ @ @ @ . . @ @ @ @ @ @ @ @ . . . . . . . . . . . . . . . . . . @ @ @ @ @ @ . . . . . . @ @ @ . . @ @ @ @ @ @ @ @ @ @ @ @ $ $ $ # # # # @ . . . * # . . # ; ; ; # . . @ ; 9 1 9 C B E ! ` ` ` Q C d E Q Q Q W Q ` ` C W ( ` Q X.X.^ S.1.W Z Z ^ v ^ ' 1.<.9.F.oXXXXXoXOXOXOXOXOXOXOXOXOX+XOXOXOXOXOXOXOXOX X X X[. X XOX X X XOX XOXOXOXOXOX X X X X X X X X X X X X X X X X].[.[._._.[.[.[._._._.]. X].r.e.r._.[.[.r.r.y.[.[.[.[.[.[.[.r.r.r.r._.t.t.r.r.t.t.r.]._.r.r.[.r.r._.[._._._._._._.r._.r.r._._._._._.r.r.r.r.r.r.r.r._._._._._._.r.r.'.r.r.r.r._._.r._.'._.`.`.`.'.'. X|. XOXOXOXOXOXOX|.|. X X X X X|.|.oX|.|.D.D.D.D.D.D.D.q.q.2.:.:.-./ D v x e 3 3 3 h h w d Z c h x c h x Z Z Q ^ ( W Q (  . ...S.X. .!  .....` ~ C B B V s 0 q q q 7 7 7 7 7 7 7 7 q 7 7 0 0 q 0 0 0 0 V V V V B B N N N N N P I ] } h.j.c.B.U.W.!.rXtXiXsXzXzXzXcXcXvXvXvXNXNXNXNXNXNXVXVXVXAXAXAXAXAXAXCXCXCXCXCXCXZXCXDXSXSXSXSXSXSXSXSXFXFXFXFXFXFXFXFXFXFXFXFXFXFXFXFXFXFXFXFXFXGXGXFXFXFXFXGXFXFXFXFXFXFXGXFXFXFXFXFXFXFXFXFXFXFXFXFXFXFXGXGXFXFXFXFXFXFXFXFXFXFXFXFXFXFXFXFXFXFXFXFXFXFXFXFXFXFXFXFXFXFXFXFXFXFXFXFXFXFXFXFXFXFXFXFXFXFXFXFXFXFXFXFXFXFXFXFXFXFXFXFXFXFXSXFXFXFXFXGXGXGXFXFXFXFXFXFXFXFXFXFXFXFXFXFXFXFXGXGXGXGXGXGXGXGXGXGXGXGXGXGXGXGXGXGXGXGXGX",
"z.z.x.x.x.x.x.x.x.x.x.x.x.x.j.j.j.j.j.g.g.s.s.g.g.g.j.j.j.x.z.z.b.n.n.V.V.Z.I.U.Q.W.7X7XrXrXyXyXpXaXfXkXlXzXxXcXvXvXvXvXvXvXvXvXvXxXcXcXxXxXlXlXkXkXkXkXkXkXlXlXlXlXxXxXxXxXxXxXxXxXxXcXcXvXvXvXcXcXcXcXvXbXbXbXNXNXVXVXVXAXAXAXCXCXCXCXCXCXAXAXAXAXVXNXvXcXzXsXpX9X6XR.I.P.K.K.m.m.M.c.c.c.l.z.M.c.c.z.k.h.h.u.} ] L P P L L L P P L L L L L L L L P K K K f f u 9 > = = = @ @ $ $ @ $ $ $ $ $ $ $ $ $ $ $ $ $ $ $ $ $ $ $ $ $ $ $ $ = $ $ $ = $ $ $ @ @ $ $ $ $ $ @ $ $ @ @ $ $ $ $ $ $ $ $ $ $ $ $ $ $ $ $ $ @ @ $ $ $ $ @ @ @ @ @ @ @ @ @ @ @ @ @ @ @ @ @ @ @ @ @ @ @ @ @ @ @ @ @ @ . . @ @ @ @ @ @ @ @ . . . . . . . . . . . . . . @ @ @ @ @ . @ @ . @ @ @ . . . . @ . . . @ @ @ @ @ @ @ @ @ @ @ @ @ @ @ @ # # # # @ @ # # . @ % ; ; ; # . . . @ 9 9 ; w B E E !  .( Q Q Q d C Q Q Q Q Q X.` E W ` ` ( X.1.Q 1.1.^ Z ^ ^ Z Z ) -.<.9.D..XXXXXoXOXOXOXOX,XOXOXOX XOXOXOXOX+XOX,X,X,XOX X XOX X XOXOXOXOXOXOX XOXOXOX X X X X X X X X X X X X X X X X X X X].[.[.[.].].[.[.[._.].].]._._._.[._._._.[.[.[.[._._.[.[.[._.r.r.r.r.t.r._._.r.t.r. Xr.r.r.r.r.r.[.[._._._._._.r.r._.r.r._._._._._.r.r.r.r._._._._._._.r.r._._._._.r.r.r.r.r.r._.'._._.`. X X[.`.'.`.|. X X X X XOXoX|.`. XOXoX X XOXOXOXoX|.|.'.D.0.0.0.0.0.0.9.<.<.-.-./ D v x e 3 - 3 - - d C c c Z c e x x ^ W Q  .( W Q X...S.S. .`  . . .7.X.E E C B s s 0 7 7 6 7 q 7 7 7 7 7 9 7 7 7 0 0 0 0 0 0 0 V V V V B B B N B B N P I ] } d.j.c.V.P.W.W.7XrXiXaXjXzXzXcXcXvXvXvXNXNXvXNXNXNXVXVXVXAXAXAXAXAXAXCXCXCXCXCXZXZXZXZXZXZXSXSXSXSXSXSXFXFXFXFXFXFXFXFXFXFXFXFXFXFXFXFXFXFXGXGXGXGXFXFXFXFXFXFXFXFXFXFXFXFXFXGXGXFXGXFXFXFXFXFXFXFXFXFXFXFXFXFXFXFXFXFXFXFXGXGXFXFXFXFXFXFXFXFXFXFXFXFXFXFXFXFXFXFXFXFXFXFXFXFXFXFXFXFXFXFXFXFXFXFXFXFXFXFXFXFXFXFXFXFXFXFXFXFXFXFXFXFXFXFXSXSXFXFXFXFXFXFXFXFXFXFXFXFXFXFXFXFXGXGXGXFXGXGXGXGXGXGXGXGXGXGXGXGXGXGXGXGXGXGXGXGXGXGXGX",
"z.z.x.x.x.x.x.x.x.x.x.x.x.j.j.j.j.j.j.g.s.s.s.s.j.j.j.j.j.x.x.z.b.n.n.V.V.Z.U.U.Q.W.7X7XrXrXyXyXpXaXkXkXlXzXxXcXvXvXvXvXvXvXvXxXxXcXcXcXxXxXlXlXlXkXkXkXkXkXkXkXlXlXxXxXxXxXxXxXcXcXxXxXxXxXcXcXxXxXxXcXcXvXbXbXNXNXNXVXVXVXAXAXCXCXAXCXAXAXAXAXAXAXVXNXcXcXgXsXiX9X6XR.P.K.K.m.m.m.M.c.c.c.M.b.b.c.z.z.z.k.h.u.} ] L L L L L L L L P P P L L L L L L P K J f f s 9 * = = = = $ $ $ $ @ $ $ $ $ $ $ $ $ $ $ $ $ $ $ $ $ $ $ $ $ $ $ $ $ $ $ $ $ $ $ $ $ $ $ $ $ $ $ @ $ $ @ @ $ $ $ $ $ $ $ $ $ $ $ $ $ $ $ $ $ @ @ @ @ $ $ @ @ @ @ @ @ @ @ @ @ @ @ @ @ @ @ @ @ @ @ @ @ @ @ @ . @ @ @ @ @ @ @ @ @ @ @ @ @ @ . . . . . . . . . . . . . . @ @ @ @ . . . @ . @ @ @ . . . . . . . . # @ @ @ @ @ @ @ @ @ @ @ @ @ @ @ @ @ # @ @ @ # # @ * 7 8 * @ . . . & ; ; 9 w C Q E E ! ! W E C g C ` Q Q ( ! ` X.( W X.( ` ( 1.Q ' ..Q Z ^ Z Z ^ ) ' -.<.G.{.oXoXOX|.OXOXOX+X,XOXOX X X XOXOX+X+X,X,X,XOX X X XOXOXOX X X XOXOXOX XOXOXOX X X X X X X X X X X X XOX X XOX X X X X].[.[.].].].[.[._.[.[._._.r._.[._._._.[.[.[.[._.r.[.[.[.[.[.[._.r.r.r._.[._.r.r.].[.r.r.r.r._.[.].[._._._._.r.r.r.r.r._.[._._.[._.r.r.r._.[.[.[.r.r.r.r.r.r._._.r.r.r.r.r.r.'.[._.[. X X X X X`.`. X X X|.`.|. X X X XOXOXOXoXOXOXOXOXOXoX|.|.|.D.D.D.D.0.q.q.w.2.:.:.:./ A v e 3 - 3 3 w c h a h c c Z x e 1.C C ` X.( !  ...8... ._  . .~ ..S.~ E E C B s s 7 q 6 7 7 7 7 7 7 6 7 q 7 0 0 0 0 0 0 0 0 0 i V V N B N N N B N P I ] { d.j.z.V.Z.Q.W.7XrXiXiXsXzXzXcXcXvXvXvXNXNXvXNXNXNXVXVXVXAXAXAXAXAXAXCXCXCXZXZXZXZXZXZXZXZXSXSXSXSXSXSXSXSXFXFXFXFXFXFXFXFXFXFXFXFXFXFXFXFXFXFXFXFXFXFXFXFXFXFXFXFXFXFXGXFXFXFXFXFXFXFXFXFXFXFXFXFXFXFXFXFXFXFXFXFXFXFXFXFXFXFXFXFXFXFXFXFXFXFXFXFXFXFXFXFXFXFXFXFXFXFXFXFXFXFXFXFXFXFXFXFXFXFXFXFXFXFXFXFXFXFXFXFXFXFXSXSXFXFXFXFXFXFXFXFXSXSXSXFXFXFXFXFXFXFXFXFXFXFXFXFXFXFXGXGXFXFXGXGXGXGXGXGXGXGXGXGXGXGXGXGXGXGXGXGXGXGXGXSXSX",
"x.x.x.x.x.x.x.x.x.x.x.j.x.j.j.f.j.j.j.g.s.s.s.s.j.j.j.j.x.x.z.b.n.n.V.V.V.Z.U.Q.Q.W.7X7XrXrXyXyXaXsXkXlXlXxXxXxXbXvXvXvXvXvXxXxXxXcXcXcXxXzXlXlXkXkXkXkXlXlXkXkXlXlXlXxXxXxXxXxXxXxXxXxXxXxXxXxXxXxXxXxXxXxXvXvXbXbXNXVXVXVXVXVXAXAXAXAXAXAXAXAXVXVXNXcXzXzXsXpXrX8X!.R.P.m.m.m.m.M.c.c.c.z.M.M.b.b.z.z.l.l.h.u.} ] L L L P P L L L L L L L L L L L L P P K N f s 9 = = = = @ $ $ @ $ @ @ $ $ $ $ $ $ $ $ $ $ $ $ $ $ $ $ $ $ $ $ $ $ $ $ $ $ $ $ $ $ $ $ $ $ $ $ $ $ $ $ $ $ $ $ $ $ $ $ $ $ $ $ $ $ $ $ $ $ $ $ $ $ $ $ $ @ @ @ @ @ @ @ @ @ @ @ @ @ @ @ @ @ @ @ @ @ @ @ @ @ . @ @ @ @ @ @ @ @ @ @ @ @ @ . . . . . . . . . . . . . . . @ @ @ . . . . . . @ @ @ @ @ . . . . . @ . . . . @ @ @ @ @ @ @ @ $ $ @ # # # @ @ . . @ # 7 7 ; # . . . # # 9 w w d W Q E E Q Q E C E C d ^ ` W Q ! ! ` Q ( 1.W c ( X.Q  ...` Q Z Z Z Z ^ ' -.<.9.D..XoXoXOX|.OX+XOXOXOX X X X XOXOXOXOX+X,X+XOXOXOX XOXOXOXOXOXOX X X XOXOXOXOXOX XOX X X X X X X X X X X X X X X X].].].].[.[.[.].].[.[.].[.[._.r.r.r._._._._._.[.[.[.[.r._.[.[.[.].[._.t.r._._._.[._.r.[.[._.r.r.r.[.[.].[._._.r.r.r.r._.r.r.[.[._._.[._.r.r._._._._._.r.r.r.r.e.r.r.r.r.r.r.r.r.r._._._._.[. X X X X[.`.|. X|.`.`.|.OX X XOXOXOXOXOXOXOXOXOXoXoX|.|..X|.'.|.D.0.q.q.w.2.;.:.:./ D A x e 4 3 + d W 3 a d e 3 d x Z 8.W C Q  . . . .X.X...X. . . .~ ..S.! E E E B s s q 7 6 7 q 7 7 7 7 6 7 7 7 0 0 0 0 0 0 0 0 0 i i s N N N N B B P P I I { u.h.x.V.Z.Q.W.7XrXrXiXsXzXzXcXcXvXvXvXNXNXvXNXNXVXVXVXVXVXAXAXAXAXAXCXCXCXCXZXZXZXZXZXZXZXSXSXSXSXSXSXSXSXFXFXFXFXFXFXFXFXFXFXFXFXFXFXFXFXFXFXFXFXFXFXFXFXGXGXFXFXFXFXGXGXGXGXGXFXFXFXFXFXFXFXFXFXFXFXFXFXFXFXFXFXFXFXFXFXFXFXFXFXFXFXFXFXFXFXFXFXFXFXFXFXSXSXSXSXSXSXSXSXFXFXFXFXFXFXFXFXFXFXFXFXFXFXFXFXFXFXSXSXSXSXSXSXSXSXSXSXSXSXSXSXSXSXSXSXSXFXFXFXFXFXFXFXFXFXFXFXFXFXFXFXFXFXFXFXFXFXFXFXFXFXFXFXFXFXFXFXGXFXGXFXFXFXFXFXFX",
"x.x.x.z.z.z.x.x.x.x.x.j.x.j.j.j.j.j.j.g.s.s.s.s.j.j.j.j.x.x.z.n.n.n.V.V.B.Z.U.Q.!.7X7XrXrXrXyXaXaXkXlXlXzXxXcXxXbXvXvXvXvXvXxXxXxXcXcXxXxXzXlXlXlXkXkXkXzXzXkXkXlXlXlXxXxXxXxXxXxXxXxXxXxXcXxXxXxXxXxXxXxXxXcXvXbXbXNXNXVXVXVXVXAXAXAXAXAXVXVXVXNXNXvXcXzXgXaXpX8X7XT.I.P.m.M.n.c.c.c.c.c.c.M.M.M.b.z.z.c.k.h.} [ U L L L J P L L L L L L L L L L L P P K K K f i 8 & = = = @ = $ $ $ @ @ @ $ $ $ $ $ $ $ $ $ $ $ $ $ $ $ $ $ $ $ $ $ $ $ $ = $ $ $ = = = $ $ $ $ $ $ $ $ $ $ $ $ $ $ $ $ $ $ $ $ $ $ $ $ $ $ $ $ $ $ $ $ $ @ @ @ @ @ @ @ @ @ @ @ @ @ @ @ @ @ @ @ @ @ @ @ @ @ . @ @ @ @ @ # $ @ @ @ @ @ @ . . . . . . . . . . . . . . . @ @ @ . . . . . . @ @ @ @ @ . . . . . @ . . . . @ @ @ @ @ @ @ # # # # # @ @ @ @ # # ; ; 9 ; @ . . # # . w w h C Q Q W C Q ! Q C d B W Q ` Q ( ( Q ` ! Q  .! E ( 1.` ( 1.` ( ( Z Z ^ Z D ' 1.9.D.F..XXX&X+XOXOX=X+XOXOXOX XOX+X,XOX XOX+X+XOXOX+X,XOXOXOXOXOXOXOX X X XOXOXOXOXOXOXOXOX X X X X X X X X X X].].].]._._.`.]._._.[.].[.[.[.[.[.[.].[._._._._._._._._._.[.[._.[.[.[.[.].[._.r.[.[.[._.[.[.r.[.].[.r.r.[.].[.].[.[._.r.r.r.r.[._._.[.[._._.[.r.e.e._._._.r.r.r.r.r.r.r.r.e.r.r.r.r.r.r._._._.r.r.'.[. X X[.[._.`.|. X`.`.|. XOXOXOXOXOXOXOXoXOXOXOXOXOXXXOXoX.X|.'.0.0.0.q.q.w.,.2.:.%./ / v l 4 e + W  .a g 3 3 e e e Z ^ Z ^ W ^ ` X.`  . ...X. . ...X.X.7. .E E ~ C s s 0 7 6 7 7 q 7 7 7 6 7 6 7 0 0 9 0 0 0 0 0 V V B B N N N N N P P P P I { u.d.j.n.Z.U.W.!.rXrXiXaXkXzXcXcXvXvXvXNXNXvXNXNXVXVXVXVXVXAXAXAXAXAXCXCXCXCXCXCXZXZXSXZXSXSXSXSXSXSXSXSXSXSXSXFXFXFXFXFXFXFXFXFXFXFXFXFXFXFXFXFXFXFXFXFXFXGXGXFXFXFXFXGXGXGXGXFXFXFXFXFXFXFXFXFXSXSXFXFXFXFXFXFXFXFXFXFXFXFXFXFXFXFXFXFXFXFXFXFXFXFXFXFXFXSXSXSXSXSXSXSXSXFXFXFXFXFXFXFXFXFXFXFXFXFXFXFXFXSXSXSXSXSXSXSXSXSXSXSXSXSXSXSXSXFXFXSXSXSXSXSXSXFXFXFXFXFXSXSXSXFXFXFXFXFXFXFXFXFXFXFXFXFXFXFXFXFXFXFXFXFXFXFXFXFXFXFXFXFX",
"j.x.x.z.z.x.x.x.x.x.x.x.x.x.j.j.j.j.s.s.g.j.j.g.j.j.j.x.x.x.z.z.n.n.V.V.B.Z.U.Q.W.!.7XrXrXyXyXpXsXkXkXlXzXxXcXxXvXvXvXvXvXxXxXxXcXcXcXcXcXcXzXlXkXkXkXkXlXlXlXlXkXlXlXlXlXlXxXxXxXlXlXxXxXxXxXxXxXxXlXlXxXxXxXxXvXbXbXbXvXNXVXAXVXVXVXVXVXVXVXNXvXcXcXzXzXdXiX9X8X!.R.P.m.M.c.c.c.c.c.c.c.l.c.M.b.b.c.z.z.k.h.} ] Y L L P J K P P L L L L L L L L L P P P K K f u 8 * * = # @ = @ @ @ @ @ @ @ $ $ $ $ $ 5 5 $ $ = $ $ $ % % % % $ $ = = = = = = = = $ $ $ $ $ $ $ $ $ $ $ $ $ $ $ $ $ $ $ $ $ $ $ $ $ $ $ $ $ $ $ @ @ $ $ $ $ $ @ @ @ @ @ @ @ @ @ @ @ @ @ @ @ @ @ @ @ @ @ @ @ @ @ @ @ @ @ @ @ @ @ @ . @ @ @ . . @ @ . . . . . . . . . . . . . . . . . . @ @ @ . @ . . . @ @ . . . @ @ @ @ @ @ @ $ @ @ # % # # # . @ # # # ; 9 w . # @ @ # # # w h w C C ! C C C  .W C g c C Q X.` Q ` ` ( ( Q `  .W X...( Q 8.Q ` ' Q Z ^ Z Z ' -.<.D..XXXXXXX&XOXOXOX+X+X+XOXOXOXOXOXOXOXOXOXOX,X,X+X+XOXOXOXOXOXOXOXOXOXOXOXOXOXOXOXOXOXOXOXOX X X X X`.`. X X X].]. X X].`._.].].]._.[._._.r.r.r._.[.].[.[._._.[.[.[.r.r._.[.[.[.].].]._._.[.[.[.[._._.[.[.[.].[.[. X].[.[.].[.[._.r.r._._._.[.[.[._._._._.[.r.e.e.e.e.r._._.[._.r.r.r.r.r.r.r.r.r.r.r._._._.'._.r._.`.[.[._.`.|.|.`.`.`.|.|.OXOX+XOXOXOXOXoX|. XoXoXoXoX|..X|.'.D.D.D.0.0.q.w.w.w.2.:.-./ D l e 3 3 g c h 3 3 e 3 3 e c c c ( ^ Q Q ` X.X. . .` v...X.! !  .X._ B B C B s 0 6 6 6 5 5 6 7 7 7 6 7 0 0 9 9 0 i 0 0 0 i V N N N N N N N P P P I I ] } d.j.n.V.Z.Q.W.7X9XtXaXkXcXcXcXcXcXvXvXNXNXNXNXVXVXVXVXVXAXAXAXAXAXAXCXCXZXZXZXZXCXZXZXZXZXSXSXSXSXSXSXSXFXFXFXFXFXFXFXFXFXFXFXFXFXFXFXFXFXFXFXFXFXFXFXFXFXFXFXFXFXFXFXFXFXFXFXFXFXFXFXFXFXFXFXFXFXFXFXFXFXFXFXFXFXFXFXFXSXSXSXSXSXSXSXSXSXSXSXSXSXSXSXSXSXSXSXSXSXSXSXSXSXSXSXSXSXSXSXSXFXFXFXSXSXFXFXFXFXSXSXSXSXSXSXFXSXSXSXSXSXSXSXSXSXSXSXSXSXSXSXSXFXFXFXFXFXFXFXFXFXFXFXFXFXFXFXFXFXFXFXFXFXFXFXFXFXFXFXFXFXFXFXFXFXFXFXFXFX",
"x.x.x.z.x.x.x.z.x.x.x.x.x.x.j.j.j.j.g.s.g.g.g.g.j.j.j.x.x.x.z.b.n.n.V.V.B.Z.U.Q.W.!.7XrXrXyXyXpXsXkXkXlXzXxXcXxXvXvXvXvXvXvXxXxXxXxXcXcXcXxXzXlXkXkXkXkXkXlXzXlXxXlXxXlXlXlXlXlXxXlXxXxXxXxXxXxXxXxXxXxXxXxXxXxXcXcXvXbXbXNXVXVXVXVXNXNXNXNXNXNXcXzXzXgXsXpX9X0X!.R.P.m.M.c.c.c.c.c.c.c.c.l.M.M.M.c.l.z.k.k.u.} ] U L P K J J K P L L L L ~ L L L P P K K K K f 9 * & & = @ @ = $ $ $ $ $ $ $ $ $ $ $ $ 5 5 5 $ % $ = = = % $ $ $ $ = = = = * = * = = = $ $ $ $ $ 5 5 $ $ $ $ $ $ $ $ $ $ $ $ $ $ $ $ $ $ $ $ $ $ $ @ @ $ $ @ @ @ @ @ @ @ @ @ @ @ @ @ @ @ @ @ @ @ @ @ @ @ @ @ @ @ @ @ @ @ @ @ @ @ @ @ @ @ @ @ . @ @ . . . . . . . . @ @ @ . @ @ . . . . @ @ @ . . . . . . @ . . . @ @ @ @ @ @ @ @ @ @ # $ @ @ # # . . # ; 9 ; # ; # # # # 9 h h w C C C Q W e Q ! g h h C ....^ ^ Q ^ Q W Q Q  .Q 1. .! ! 8.` ` ' ` Z Z ^ D D / 1.9.D..XXXXX+X&X+X+X+X+X+X+XOXOXOXOXOXOXOXOXOXOX+X+X+X+XOXOXOXOXOXOX X XOXOX+X,X XOXOXOXOXOXOXOX X X X`.`.`.].].].].].]. X`._._._._.[.].[.[._.r._._.[.[.[.[._._.[.[.[.[._._.[.].[.[.[.].[._.[.[.[.[.[._._._._._.[.[.[.].].[.[.].[.[._._._._._._.[.[.[.[._._._._.r.r.r.r.r._._._.r.r.r.r.r.r.e.e.r.r.r.r.r._._._._._._.'.[.[.`.'.|. X X X|. XOXOXOXOX+X+XOXOXOXOX XoX XoXoXoXoX|..X|.D.D.D.D.0.q.q.w.w.2.:.-.%.D v x e 3 3 h h h - 3 3 e x d e x A ( ` ( ^ X.1.X. . ..... . .! _ X.` E C E B s 7 7 7 q 7 7 7 7 7 9 7 9 9 9 9 9 0 0 0 0 i s V N B N N N N N P P P P I ] { d.j.z.V.Z.U.Q.!.7XrXaXjXzXzXcXcXcXvXvXNXNXNXNXVXVXVXVXVXVXVXVXVXAXAXCXCXZXZXZXZXCXZXZXZXZXSXSXSXSXSXSXFXFXFXFXFXFXFXFXFXFXFXFXFXFXFXFXFXFXFXFXFXFXFXFXFXFXFXFXFXFXFXFXFXFXFXFXFXFXFXFXFXFXFXFXFXFXFXFXFXFXFXFXFXFXFXFXFXSXSXSXSXSXSXSXSXSXSXSXSXSXSXSXSXSXSXSXSXSXSXSXSXSXSXSXSXSXSXSXSXFXFXSXSXSXSXFXFXFXSXSXSXSXSXSXFXSXSXSXSXSXSXSXSXSXSXSXSXSXSXSXSXFXFXFXFXFXFXFXFXFXFXFXFXFXFXFXFXFXFXFXFXFXFXFXFXFXFXFXFXFXFXFXFXFXFXFXFXFX",
"x.x.x.x.x.x.z.z.x.x.x.x.x.x.j.j.j.j.j.g.s.s.s.g.g.j.j.x.x.x.z.b.n.n.V.V.B.U.Q.W.!.5XrXrXrXyXpXaXaXkXkXlXzXxXcXxXbXbXbXbXvXvXvXvXvXvXxXcXcXzXlXkXkXkXkXkXkXkXzXzXlXxXxXxXxXlXlXlXlXxXxXxXxXxXxXxXxXxXlXlXzXzXxXxXxXcXvXvXvXbXNXNXNXNXNXNXNXNXcXcXzXzXgXsXdXuX8X6XR.P.K.c.c.c.c.c.c.c.l.c.c.c.M.M.c.c.c.l.l.h.u.} ] L P K K N J K P L L L L ~ L L L L P K K K f i 9 * & & # @ @ # $ = $ $ $ $ $ $ 5 $ $ $ $ $ 6 6 % $ = $ = = = = $ $ = = = = = * * * * = = $ $ $ $ $ $ $ $ $ $ $ $ $ $ $ $ $ $ $ $ $ $ $ $ $ $ $ $ $ $ $ $ @ @ @ @ @ @ @ @ @ @ @ @ @ @ @ @ @ @ @ . @ @ @ @ @ @ @ @ @ @ @ @ @ @ @ @ @ @ @ @ @ @ @ @ @ @ . . . . . @ @ @ @ @ @ @ @ . . . . @ @ . . . . . . . @ . . . @ @ @ @ @ @ @ @ # # @ @ @ # # ; . . 1 9 ; # # ; # & ; ; h d w h C W W C - Q X.` d C ` X.X. .` ` ^ Q C W ( ( ` ..X.W !  .8.Q  .X.^ Z Z ^ ^ ^ ' <.9.D..XXXXX+X&X+X+X&X&X+X+X+X+X+XOXOXOXOX+X+X+X,X,X,X,XOXOXOXOXOXOX XOXOX+X+X+X XOXOXOXOXOXOXOXOX X`.`.`.`.`.`.].].].].]._._._._._._.[.[._._._.[.[.[.[.[.[.[._.[.[._._._.[.[.[.[.[.[.[.[.[.[.[.[.[.[.[.[._.r._.[.[.[.].].[.[.[.[.[.[.[.[.[.[.[.[.[.[._._._._._.r.r.r.r.r.r.r.r.r.r._.r.r.r.r.e.r.r.r.r.r.r._._._.'._.[.[._.'.r.`. X X X X XOXOXOXOX+X+XOXOXOXOX X XOXoXoXoXoX|.oX|.'.D.'.D.D.0.0.q.w.2.:.:.-./ D A x 4 4 3 3 a e e e e d e x x A Z Q ` ` X...X. .X...8.X. .!  .X. .~ E C B B 9 7 7 7 7 7 7 7 7 9 0 9 7 7 9 0 0 0 0 0 i V V V V V N N B N P P P P I ] { d.j.z.n.V.U.W.!.7XrXiXsXkXlXzXcXcXcXbXNXbXNXNXVXVXVXVXVXVXVXVXVXAXAXAXCXCXCXZXCXCXZXZXZXSXSXSXSXSXSXFXFXFXFXFXFXFXFXFXFXFXFXFXFXFXFXFXFXFXFXFXFXFXFXFXFXFXFXFXFXFXFXFXFXFXFXFXFXFXFXFXFXFXFXFXFXFXFXFXFXFXFXFXFXFXFXFXFXSXSXSXSXSXSXSXSXSXSXSXSXSXSXSXSXFXFXFXFXFXFXFXFXSXSXSXSXSXSXSXSXFXSXSXSXSXSXSXFXSXSXSXSXSXSXSXSXSXSXSXSXSXSXSXSXSXSXSXSXSXSXSXSXSXSXSXFXFXFXFXFXFXFXFXFXFXFXFXFXFXFXFXFXFXFXFXFXFXFXFXFXFXFXFXFXFXFXFXFXFX",
"x.x.x.x.x.x.z.z.x.x.x.x.x.x.j.j.j.j.j.j.s.s.s.g.s.j.x.x.x.x.z.b.n.V.V.B.Z.U.Q.Q.!.5XrXrXrXyXpXaXsXkXlXzXxXcXxXxXbXbXbXbXbXbXbXbXbXvXxXcXcXzXlXkXkXkXkXkXkXkXkXkXlXlXxXxXxXxXxXxXlXxXxXxXlXlXlXxXlXkXkXkXkXkXkXzXxXxXxXvXvXvXvXvXNXNXvXvXvXcXcXzXzXzXsXaXiX9X7X!.P.P.M.c.c.c.c.c.c.l.l.c.c.c.c.M.c.c.l.k.h.p.} | ] P K f f f f K K P L L L ~ L L L P K K K K f u * = @ @ @ @ @ @ @ @ $ $ $ $ $ % 5 $ $ $ $ $ 6 6 $ = $ $ = % % = $ $ = = * = * * * * * * = = $ $ $ $ $ $ $ $ $ $ $ $ $ $ $ $ $ $ $ $ $ $ $ $ $ $ $ $ $ $ @ @ @ @ @ @ @ @ @ @ @ @ @ @ @ @ @ @ @ @ . @ @ @ @ @ @ @ @ @ @ @ @ @ @ @ @ @ @ @ @ @ @ @ @ @ @ @ . . @ @ @ @ @ @ @ @ . . @ @ @ . @ . . . # . . . @ @ @ @ @ @ @ @ @ @ @ @ . @ # @ @ # # @ . * 9 9 & . & ; ; # ; w w w w w C Q g C e C 8.C W ! X.X.` ` ` ( Q ^ Q Q ( X...X. .E ( ( ` C ` 8.X.^ W ^ W ^ ' -.9.D..XXXXX+XOX+XOX+X+X+X+X+X+X+X=X+XOX+X,X=X+X+X,X,X,X,X+X+X+XOX+XOXOXOXOXOX+XOX XOXOXOXOXOXOXOXOX X X`.`.`.`.`.].].]. X X`._._._._._.`._._._._._._.[.[.[.[.[.[.[.[._._._._._._.].[._.[.[.[.[.[.[._.[.].]._.r._.[.[.[.].].[.[.[.[._._._._.[.[.[._._._._._.r.r.r.e.r.r.r.r.r.r.r.r.r._._._.r.r.r.r.r.r.r.r.r._._._.[.].`._.'.r.r._.[. X|. X XOXOXOXOX+XOXOXOXoX|.OXOXOXOXoXoXoX|.oX|.|.|.|.'.D.D.0.q.q.2.:.:.-./ / D v 4 + + - - 3 3 3 4 3 e e x Z x c `  . .X.X.X.X......... .X. .X.` E B C C 0 7 7 7 7 6 7 7 9 9 0 9 7 7 9 0 0 0 0 0 i i V V V N N N B N B P P P I ] { u.g.z.V.V.Z.Q.!.7X9XiXaXkXkXzXcXcXcXvXbXbXNXNXVXVXVXVXVXVXVXVXVXAXAXCXCXCXCXCXCXCXZXZXZXSXZXZXSXSXFXFXFXFXFXFXFXFXFXFXFXFXFXFXFXFXFXFXFXFXFXFXFXFXFXFXFXFXFXFXFXFXFXFXFXFXFXFXFXFXFXFXFXFXFXFXFXFXFXFXFXFXFXFXFXFXFXFXFXSXSXSXSXSXSXSXSXSXSXSXSXSXSXSXSXFXFXFXFXFXFXFXFXSXSXSXSXSXSXSXSXSXSXSXSXSXSXSXSXSXSXSXSXSXSXSXSXSXSXSXSXSXSXSXSXSXSXSXSXSXSXSXSXSXSXSXFXFXFXFXFXFXFXFXFXFXFXFXFXFXFXFXFXFXFXFXFXFXFXFXFXFXFXFXFXFXFXFXFXFX",
"x.x.x.x.x.x.x.z.x.x.x.x.x.x.j.j.j.j.j.g.s.s.s.s.s.j.x.x.x.x.z.b.n.V.V.B.Z.U.Q.Q.W.5XrXrXrXyXpXaXfXkXlXlXxXcXxXvXbXbXbXbXbXbXbXbXvXxXxXcXcXxXzXlXkXkXkXkXkXkXkXkXlXlXxXxXxXlXlXlXlXxXxXxXlXlXlXlXkXlXjXjXjXjXjXkXzXzXxXxXvXvXvXvXvXvXcXcXxXzXzXzXsXaXiXuX9X7X!.R.P.m.c.c.l.l.l.l.l.l.l.l.c.c.c.M.l.l.l.h.h.p.} | ~ K f f f f f K K K P P P L L P P P K K K f u 8 > & = @ @ @ @ $ @ @ $ $ $ $ % % $ $ $ $ $ $ $ $ % $ $ $ = $ $ = $ $ * * * * * * * * * * = * = $ $ $ $ $ $ $ $ $ $ $ $ $ $ $ $ $ $ $ $ $ $ $ $ $ $ $ $ $ @ @ @ @ @ @ @ @ @ @ @ @ @ @ @ @ @ @ @ @ . @ @ @ @ @ @ @ @ @ @ @ @ @ @ @ # @ @ @ $ $ @ @ @ @ @ @ @ @ @ @ @ @ @ @ @ . . . @ @ @ . . . . . @ @ . . @ @ @ @ @ . @ @ @ @ @ @ . @ @ @ # # # . . w w # . # 9 ; & ; w h h w w g Q W d d C  .Q C Q X.` Q Q ` ` ^ ( ` ` ` ` X.X. .c Q X.W ` E 1.8.' ^ ^ ^ Z ^ -.<.9.F.oXXXXXXX+X=XOXOX+X+X&X&X&X=XOXOXOXOX,X=X=X+X+XOX+X+X,X:X:X:X,X+XOXOXOX+XOXOXOXOXOXOXOXOXOXOXOXOXOX X`.`.]. X].]. X X X].`._._._._._._._._._._._.[.[.[.[.[.[.r._.[.[._.r.r._.].[.[.[.[.[.[._._._.[.].]._._._.[.[.].].].[.[.[.[.r.r.r._.[.[.[._._._._._.r.r.r.r._._._._._._._._._._._._.r.r.r.r.r.r.r.r._._._._.].].[.'._._.'.`. X X X X XOXOXOXOXOXOXOXOXOXOXOXOX XOXoXOXXXoX.XoXoX.X|.D.D.D.D.q.q.9.2.<.:.%./ D D l 4 + + + + - 3 3 3 4 e e x c W Q Q ` ..X...X.X...S.....X. ...X.E s B C s 7 7 7 7 7 7 9 9 9 7 7 9 9 9 0 0 0 0 0 0 0 i V V B B N N N N B P P I I ] } d.x.z.V.Z.Q.!.7XrXiXaXkXkXxXxXcXcXvXbXbXVXNXVXVXVXbXbXAXAXAXAXAXAXCXZXCXCXCXCXCXZXZXZXSXZXSXSXSXFXFXFXFXFXFXFXFXFXFXFXFXFXFXFXFXFXFXFXFXFXFXFXFXFXFXFXFXFXFXFXFXFXFXFXFXFXFXFXFXFXFXFXFXFXFXFXFXFXFXFXFXFXFXFXFXFXFXFXFXFXFXFXFXFXFXFXFXFXFXFXFXFXFXFXFXFXFXFXFXFXFXFXFXFXFXFXFXFXFXFXFXFXFXFXFXFXFXFXFXFXFXFXFXFXFXFXFXFXFXFXFXFXFXFXSXSXSXFXFXFXFXFXSXSXFXFXFXFXFXFXFXFXFXFXFXFXFXFXFXFXFXFXFXFXFXFXFXFXFXFXFXFXFXFXFXFXFXFXFX",
"j.x.x.z.x.x.x.x.x.x.x.x.x.x.j.j.j.j.j.j.g.s.s.s.s.j.j.x.x.x.z.b.n.V.V.B.Z.U.Q.Q.!.5XrXrXrXyXpXaXfXkXlXzXxXcXxXvXvXbXbXbXbXbXbXbXvXxXcXcXcXcXzXzXkXkXkXkXkXkXkXkXlXxXxXxXlXlXkXkXlXlXxXlXlXkXkXkXjXjXjXjXjXjXjXjXkXzXzXcXzXzXzXcXcXcXcXzXzXgXsXsXdXpXuX9X7X!.R.P.M.c.l.k.k.k.k.k.l.k.k.l.c.c.c.c.l.k.k.h.p.} | _ P K f s s f f B K K K K P P P K K K K J f s u 8 = & & = @ @ @ # # = = $ $ $ % % $ $ $ $ $ $ = $ % % $ $ = = = = $ $ * 6 * * 8 8 * * * * * * * * $ $ $ $ $ $ $ $ $ $ $ $ $ $ $ $ $ $ $ $ $ $ $ $ $ $ $ $ $ @ @ @ @ @ @ @ @ @ @ @ @ @ @ @ @ @ @ @ @ @ @ @ @ @ @ @ @ @ @ @ @ @ @ @ # @ @ @ $ $ @ @ @ @ @ @ @ @ @ @ @ @ @ @ @ @ @ . @ @ @ @ @ . . . . . . . . . @ @ @ . @ . @ @ @ . # @ . @ @ @ @ @ 9 9 ; # # ; ; 1 & w w w w w d Q Q g d C ` C d ` 8...`  .8.X.` ' X.X.`  .X.` Q C ! ` Q ` ..8.1.X.^ Z Z W Z ^ 1.9.D..XXXoXXXXX+X=X+X+X&X=X=X=X=X+X+XOXOXOX+X=X,X+X=X:X,X,X,X,X,X,X+XOXOXOXOX+XOXOX+X+X+X+XOX+X+XOXOXOXOXOX X]. X X X].]. X X].`.`.].[._._._._._._._.[.[.[.[._._._.r._.[.[._._._._.[.[.[.[.[.[.[._._.r._.[.[.[._._.[.[.].].].[.[._._.r.r.r._._._._._._._._._.r.r.r._._._._._._._._._._.r.r._._._._.r.r.r.r.r._._._._._._.'.'.'.[.]. X X X X|. X XOXOXOXOXOXOXOX+XOXOXOX X XoXOXOXOX.XoXoXoX.X|.|.|.0.9.9.q.w.2.:.-.%./ ) A x e 3 3 , + - e e 3 e e x Z W C C ( X.........X.S.S...X. ...X.~ d B E s 9 7 9 9 9 9 9 7 7 7 7 9 9 9 7 0 0 0 0 0 0 i s V B B N N B N N N P I I ] { d.j.z.V.Z.Q.W.7X7XtXpXjXkXzXxXxXcXvXvXbXVXVXVXVXVXbXbXAXAXAXAXAXCXZXZXCXCXCXCXCXZXZXZXZXSXSXSXFXFXFXFXFXFXFXFXFXFXFXFXFXFXFXFXFXFXFXFXFXFXFXFXFXFXFXFXFXFXFXFXFXFXFXFXFXFXFXFXFXFXFXFXFXFXFXFXFXFXFXFXFXFXFXFXFXFXFXFXFXFXFXFXFXFXFXFXFXFXFXFXFXFXFXFXFXFXFXFXFXFXFXFXFXFXFXFXFXFXFXFXFXFXFXFXFXFXFXFXSXFXFXFXFXFXFXSXFXFXFXFXFXFXFXFXSXSXSXFXFXFXFXFXSXFXFXFXFXFXFXFXFXFXFXFXFXFXFXFXFXFXFXFXFXFXFXFXFXFXFXFXFXFXFXFXFXFXFXFXFX",
"x.x.x.z.x.x.x.x.x.x.x.x.x.x.j.j.j.j.j.j.j.g.g.s.s.j.j.x.x.z.z.z.V.V.V.Z.Z.Q.Q.W.!.7XrXrXtXyXaXaXfXkXlXzXxXxXxXvXvXvXbXbXbXbXbXbXvXvXxXcXcXcXzXzXkXkXkXkXkXkXkXkXlXxXxXxXlXlXkXkXlXlXlXlXlXlXkXjXjXjXjXjXjXjXjXjXkXkXzXzXzXzXzXzXzXzXgXgXsXaXdXpXpXiX9X7XT.U.B.M.c.l.h.h.h.h.h.h.l.h.k.l.l.c.l.l.l.l.h.u.} | ] ~ K f s s s s f B K K K K K K K K K K K f s i u 8 = & & @ @ @ @ @ # # = $ $ $ % % $ $ $ $ $ $ $ $ % $ = = = = = = = = * * * * 8 8 * * * * * * = = $ $ $ $ $ $ $ $ $ $ $ $ 5 5 5 $ $ $ $ $ $ $ $ $ $ $ $ $ $ $ @ @ @ @ @ @ @ @ @ @ @ @ @ @ @ @ @ @ @ @ @ @ @ @ @ @ @ @ @ @ @ @ @ @ @ @ @ @ @ $ @ @ @ @ @ @ $ # @ @ $ @ @ @ @ @ @ @ @ @ @ @ @ . . . . . . . . . . @ @ @ . . @ @ @ . # . . @ @ . # ; w # . ; ; # ; w w w w w w d C Q g g e ( C W ` ` 8.8...1.8...'  .` ^ Q ` ` Q W W  .Q Q S.....' ` Q A c Z ^ ' 8.G.F.oXXXXX&X&X=X=X=X=X=X=X:X:X&X+X:X=X+X+X=X=X=X=X:X:X=X+XOXOXOXOXOXOXOXOXOXOXOXOX+X+X+XOXOXOXOXOXOXOXOXOXOXOX X X X X X X X X].]. X].[.].].].[._.[.[.[._.[._._._._.[.[.[._._.r.r._.[.[.[.[.[.[._.r._._._._.[.[.[.[.].].[.[.[.[.r._.r.r.r._._._.r._._._._.r.r.r.r._._._._.r.r._._._._.r._._._._.r.t.r.r._._._._._._._.'.'.'._.`. X X X[.`.`. X XOXOXOXOXOXXXOX&X+XOXOXOXOXOXOXOXXXoXoXoX.X.X.X|.|.D.0.q.q.q.w.<.:.:.-./ D A x e e 3 + + 3 4 4 e e x C c C Q ! ` ....S... ...S.S.X. .X. .` C C ~ B 0 9 9 7 7 7 9 9 7 7 7 7 9 0 0 0 0 0 0 0 0 0 i s N N B N B B N N P I I ] { u.g.x.c.V.U.Q.!.7XrXiXaXjXkXxXxXcXcXvXbXVXVXVXVXVXbXbXVXVXAXAXAXAXCXZXCXCXCXCXCXZXZXZXSXSXSXSXSXSXFXFXSXFXFXFXFXFXFXFXFXFXFXFXFXFXFXFXFXFXFXFXFXFXFXFXFXFXFXFXFXFXFXFXFXFXFXFXFXFXFXFXFXFXJXJXJXJXFXFXFXFXFXFXFXFXFXFXFXFXFXFXFXFXFXFXFXFXFXFXFXFXFXFXFXFXFXFXFXFXFXFXFXFXFXFXFXFXFXFXFXFXFXFXFXFXFXFXSXSXFXFXFXFXSXSXSXSXSXSXSXSXSXSXSXSXSXSXSXSXSXSXFXFXFXFXFXFXFXFXFXFXFXFXFXFXFXFXFXFXFXFXFXFXFXFXFXFXFXFXFXFXFXFXFXFXFXFXFX",
"x.x.x.z.x.x.z.z.x.x.x.x.x.x.j.j.x.j.j.j.j.j.g.s.g.j.j.x.x.z.z.b.V.V.V.Z.U.Q.Q.!.5X7XrXrXyXpXaXaXfXkXlXzXxXxXxXvXvXvXvXbXbXbXbXbXvXvXxXcXcXcXzXzXkXkXkXkXkXkXkXkXkXlXxXxXlXlXlXlXxXlXlXlXlXlXkXjXaXjXjXsXsXsXsXsXjXgXgXzXzXzXzXzXgXsXsXsXdXpXiXiXuX9X6XT.I.B.M.c.k.h.h.h.h.h.v.v.v.h.h.l.l.l.l.l.l.l.h.p.} | _ P K f s i i a s f f J K K K K K K J J f f u 9 > * & & & @ @ @ @ @ @ $ @ @ $ $ $ $ $ $ $ $ $ $ $ = $ $ $ $ = % * * = * * * > 8 8 8 > > * * * = = $ $ $ $ $ $ $ $ $ $ $ $ $ 5 5 5 $ $ $ $ $ $ $ $ $ $ $ $ $ $ $ $ $ @ @ @ @ @ @ @ @ @ @ @ @ @ @ @ @ @ @ @ @ @ @ @ @ @ @ @ @ $ @ @ @ @ @ @ @ @ @ @ @ @ @ @ @ # $ @ @ @ $ @ @ @ @ @ @ @ @ @ @ . . . . . . @ @ @ . @ @ @ @ . . @ @ @ . # . . # @ . ; w # # ; ; & ; 9 h d 1 1 d d d C C d w C ` Q ` ` ` ( ` ` ` Q Q ` ` W Q Q  .Q d W  .E E X.1...X.` ( Q Z x Z ' 8.G.F.F..XXX@X=X=X=X&X=X&X&X=X:X:X&XOX=X=X$X+X=X:X:X:X:X+X+XOXOXOXOXOXOXOX+X+XOXOXOXOXOXOXOXOXOXOXOXOXOXOX XOXOXOX X].OX X X X X X X X X].]. XOXOX].[.[.[._._._.[.[.].].].[.[._.r.t.r.r._.[.[._.[.[._._.[._.r.r.[.[.[.[.].].[.[.[._.r.[._.r.r._._._.r.r.r.r.r.t.t.t.r._.[.[._._._._._.[._._._.[._.r.r.r.r._.[.[.[.[.[._._._.'._._.[.[.`.[._._. X XOXOXOXOXOXOXoXXX+X$X+XOXOXOXOX+X+XXXXXoX.X.X.X.X.X|.D.0.0.0.q.q.w.2.<.-.-.D v x e x e 3 3 3 4 e e 4 e c C Z ( ( ` X...(... .X.S.S...X. . . .! E E B s 9 7 5 % 6 7 9 7 0 9 6 7 0 0 9 0 0 0 0 0 0 i i V N N N N N B B P P I Y [ } d.g.z.V.Z.Q.W.7X9XiXpXaXkXzXxXcXcXvXbXVXVXVXVXVXVXbXVXAXVXAXAXAXAXAXCXZXZXZXCXZXZXZXSXSXSXSXSXSXFXFXSXFXFXFXFXFXFXFXFXFXFXFXFXFXFXFXFXFXFXFXFXFXFXFXFXFXFXFXFXFXFXFXFXFXFXFXFXFXFXFXFXFXJXJXJXJXFXFXFXFXFXFXFXFXFXFXFXFXFXFXFXFXFXFXFXFXFXFXFXFXFXFXFXFXFXFXFXFXFXFXFXFXFXFXFXFXFXFXFXFXFXFXFXFXFXFXSXSXFXFXFXFXSXSXSXSXSXSXSXSXSXSXSXSXSXSXSXSXSXSXFXFXFXFXFXFXFXFXFXFXFXFXFXFXFXFXFXFXFXFXFXFXFXFXFXFXFXFXFXFXFXFXFXFXFXFXFX",
"x.x.x.x.x.x.x.x.z.z.x.x.x.x.x.x.j.j.g.g.j.j.g.s.j.j.x.z.z.z.b.n.V.B.C.Z.Z.U.Q.!.7X7XrXrXyXpXaXaXfXkXlXzXxXcXxXxXvXbXbXbXbXbXbXvXvXvXxXcXcXcXzXlXkXkXkXkXkXfXfXkXkXlXlXlXxXlXlXlXkXkXkXkXkXkXkXjXaXaXpXaXaXaXaXsXjXjXjXjXjXjXsXsXdXaXpXiXiXwX9X0X6XT.R.I.m.c.k.h.h.h.p.h.h.h.h.h.h.v.v.l.l.l.l.l.l.k.p.} } _ ~ K f i u u i s f f f f N J K K K K f f f u 9 > & & @ @ @ @ @ # # & = = @ @ @ @ = = = $ = $ $ $ = = % = $ $ = = = = * * * * * 8 > > > > * * * * * * % % % $ $ $ $ $ $ $ $ $ $ $ $ $ $ $ $ $ $ $ $ $ $ $ $ $ $ $ @ @ @ @ @ @ @ @ @ @ @ @ @ @ @ @ @ @ @ @ @ @ @ @ @ @ @ @ @ @ @ $ @ @ @ @ @ @ @ @ @ @ # $ @ @ @ @ $ $ @ @ @ @ @ @ @ @ $ @ @ @ @ @ . . . @ . @ @ @ @ . @ @ @ @ @ . . . . @ @ @ . & h # # # # w ; & d B ; # d g d C W d ; c ` ( `  .! ! Q Q Q C W Q Q W Z ! ` W g g E Q W ! ` X...X.Q ..Z Z Z ^ ' 8.G.G.F.XX&X=X=X&X=X=X&X=X:X=X=X=X=X&X+X=X=X=X=X=X+XOX+X+X$X+XOXOXOXOXOX+X+X+X+X+X+XOX+XOXOXOXOXOX+X+X+XOXOXOXOX X X XOXOX X]. X X X].`. X X X].[.[.].].].[.[.[.[.[.[.[.[._._._._.[.[.[.[._.[.].].[._.t.r.[.[.[.].[._.[.[.].[._.t.r._.[._._._._._.r.r.r._._._._._.[.]._.[.].[._._._.r.[.[.[._._.r.r.r.[.[.[._._._.'.'._.r.'.[.`._.`. X X`.`.|.OXOXOXoXOXOXOX+X+X+X+X+XOXOXoXoXOXOXOXXX+XXXoX.X.X.X.X.XD.D.D.0.0.q.q.q.2.:.-./ D x x x e e x e e 3 3 e 4 d c Q ` X. . ...S... .p...S.X.X... . . .! E B s 9 6 6 6 7 9 9 9 9 9 9 9 9 9 0 9 0 0 0 0 0 0 0 s i V N N N N P P P I I ] { } d.j.z.B.U.W.7X9X9XiXaXsXkXxXxXxXcXbXbXbXbXVXVXVXVXVXVXAXAXAXAXCXCXCXCXCXCXZXZXZXZXZXZXSXSXFXFXFXFXFXFXFXFXFXFXFXFXFXFXFXFXFXFXFXFXFXFXFXFXFXFXFXFXFXFXFXFXFXFXFXFXFXFXFXFXFXFXFXFXFXFXFXFXFXFXFXFXFXFXFXFXFXFXFXFXFXFXFXFXFXFXFXFXFXFXFXFXFXFXFXFXFXFXFXFXFXFXFXFXFXFXFXFXFXFXFXFXFXFXFXFXFXSXSXSXFXFXFXFXFXFXFXFXSXSXSXFXFXFXFXFXSXSXSXFXFXFXFXFXFXFXFXFXFXFXFXFXFXFXFXFXFXFXFXFXFXFXFXFXFXFXFXFXFXFXFXFXFXFXFXFXFXFXFXFXFX",
"j.j.x.x.x.x.x.x.z.z.x.x.x.x.j.j.j.j.j.j.j.g.g.s.j.j.x.z.z.z.b.n.V.V.B.Z.U.Q.W.7X7X5XrXrXyXpXaXaXfXkXlXzXxXcXxXxXvXbXbXbXbXbXbXvXvXvXxXcXcXcXxXzXkXkXkXkXkXkXkXkXkXlXlXlXxXlXlXkXkXkXkXkXkXkXjXjXaXpXaXyXiXiXaXaXaXaXsXsXsXsXdXdXpXiXwX9X9X0X7X6XT.R.P.M.c.h.s.d.p.} } } p.p.p.p.p.v.h.v.l.l.l.k.l.h.p.} | _ P B s u 9 u i i s f f f f f f f f f f s u u > * # @ @ @ @ @ @ @ # # = & @ @ @ @ = = $ $ $ $ $ $ $ $ % $ $ $ = = = = * * 8 * > > > * > > * * * * * * * * % = $ $ $ $ $ $ $ $ $ $ $ $ % $ $ $ $ $ $ $ $ $ $ $ $ $ @ @ @ @ @ @ @ @ @ @ @ @ @ @ @ @ @ @ @ @ @ @ @ @ @ @ @ @ $ $ $ $ @ @ @ @ @ @ @ @ @ $ @ @ $ $ $ $ $ $ @ @ @ @ @ @ @ @ @ @ @ @ @ @ . . @ @ @ @ @ @ @ @ @ @ @ @ @ @ @ @ @ . = . # w 8 # . 9 ; ; ; w d 9 ; e d C C C d 3 d ( X.` ( ! ! Q ` Q W W W W C C W ` ! c d E Q E E W X. .` ( ` ( Z Z W ' 1.8.G.D.F..X@X&X&X&X=X=X=X=X=X=X=X=X=X+X+X=X=X$X+X=X+XOX+X=X=X=X+X+XOX+X+X+X+X+X+X+X+X+XOXOXOXOXOXOXOXOX+XOXOX+XOXOX XOXOXOX X X X X X X X X X].[.[.[.].[.].].[.[._.[.[.].[.[._._._._.[.[.[.[.[.[.].].].r._.[.[.[.[.[._._._.[.[.[._._.[.[.[.[.[.[._.r.r.r._.[.[._._.[.[.[.[.[._._._._._.[.[._._._._.r.r._._._._.[._._._._._.'._._._._.`.`.`.|.|. XOXOXOXOXOX+X+X+XOXOXOXXXoXoXOXOX+XXXXXXXXXXXXXXXoX.X.XJ.J.D.D.0.q.q.9.9.<.:.%.D v x e e d d d d e e e e e x C Q ( ( ! X.S.S. .....S...X.X.X. .X. .` C s 9 8 6 6 7 9 7 0 9 9 9 9 9 9 0 9 0 0 0 0 0 0 0 i i i N N N N P P P P I I ] { d.j.x.n.B.W.7X8X8XiXpXsXkXxXxXcXxXbXbXbXbXVXVXVXVXVXVXAXAXAXAXCXCXCXCXCXCXZXZXZXZXZXZXSXSXFXFXFXFXFXFXFXFXFXFXFXFXFXFXFXFXFXFXFXFXFXFXFXFXFXFXFXFXFXFXFXFXFXFXFXFXFXFXFXFXFXFXFXFXFXFXFXFXFXFXFXFXFXFXFXFXFXFXFXFXFXFXFXFXFXFXFXFXFXFXFXFXFXFXFXFXFXFXFXFXFXFXFXFXFXFXFXFXFXFXFXFXFXFXFXFXFXSXSXSXFXFXFXFXFXFXFXFXSXSXSXFXFXFXFXFXSXSXSXFXFXFXFXFXFXFXFXFXFXFXFXFXFXFXFXFXFXFXFXFXFXFXFXFXFXFXFXFXFXFXFXFXFXFXFXFXFXFXFXFXFX",
"f.f.j.x.x.x.x.x.z.z.x.x.x.j.j.j.j.j.j.j.g.g.g.g.j.x.x.z.z.z.n.n.V.V.B.Z.U.Q.W.7X5X7XrXrXyXpXaXaXfXkXlXxXxXcXxXxXvXbXbXbXvXvXbXvXvXvXxXcXcXxXzXzXkXkXkXkXkXkXkXkXkXlXlXlXlXlXlXkXkXkXjXjXjXjXjXaXaXyXyXtXtXtXiXiXiXiXdXdXdXiXiXiXwX9X0X6X6XT.R.R.I.m.c.k.h.} } } | | | } } } } p.h.v.v.l.l.l.l.k.h.p.} | ] ~ K f i 9 9 u i u u s s s f f f f f s i u 9 1 > & @ @ @ @ @ @ @ @ @ @ # # @ @ @ @ @ $ @ $ $ = $ $ $ $ $ $ = = = = = = * 8 8 * > 8 8 > > > * * * * * * * % % $ $ % $ $ $ $ $ $ $ $ 5 5 % $ $ $ $ $ $ $ $ $ $ $ $ @ @ @ @ @ @ @ @ @ @ @ @ @ @ @ @ @ @ @ @ @ @ @ @ @ @ @ $ $ # $ $ $ @ $ # @ @ @ @ # $ # @ @ $ $ $ $ $ @ @ @ @ @ @ @ @ @ @ @ @ @ @ @ @ @ @ @ @ @ @ @ @ @ @ @ @ @ @ @ @ @ @ . @ @ 9 w @ # ; ; & w h w 9 ; w B C C C c 1 e ( ( E Q ! E E W Q Z C W C C C Q ( Q C g c W W E g ! X.` ( ^ ` Z Z W ^ -.1.8.G.F..XXX@X&X=X=X=X>X>X=X=X&X=X:X=X+X=X=X+X+X+X+X=X+X+X=X=X=X=X,X+X+X+X+X+X+X=X=X$X+XOXOXOX+X+XOXOXOX+X+X+X+X+XOXOXOXOXOX X X X X X]. X X X].[._.[.].[.].].].[._.[.].[.[.[._.[.[._.[.[.[.[.[.[.[.].].[.[.[._._.[._._.[._.[.[.].[.[.[.[.[.[.[._._.r.r.r._.[.[.[._._._.[.[.[._.r.r._._.[.[._.[._._._._.'._._.].].].].[.[.'._._._._._.`.`.|. X XOXOXOXOX$XOX$X$X+X+XOXOXXXOXXXXX$X+X+XXXXXXX@XXXXXXXoX.X.X.XJ.D.D.G.0.9.9.2.<.-.) D v e e e 3 e x x x x x e e x W `  .!  .S.(. . ...S.S. . .X. .X. . .C s 9 8 8 6 7 9 9 0 9 7 9 9 9 9 0 0 0 0 0 0 0 0 0 i i i V N N N P P P P L I I ] } s.j.n.V.U.6X7X7XtXiXaXkXkXzXxXxXbXbXbXVXVXVXVXVXVXAXAXAXAXAXCXZXCXCXCXCXZXZXZXZXZXZXSXSXFXFXFXFXFXFXFXFXFXFXFXFXFXFXFXFXFXFXFXFXFXFXFXFXFXFXFXFXFXFXFXFXFXFXFXFXFXFXFXFXFXFXFXFXFXFXFXFXFXFXFXFXFXFXFXFXFXFXFXFXFXFXFXFXFXFXFXFXFXFXFXFXFXFXFXFXFXFXFXFXFXFXFXFXFXFXFXFXFXFXFXFXFXFXFXFXFXSXSXSXFXFXFXFXFXFXFXFXSXSXSXFXFXFXFXFXSXSXSXFXFXFXFXFXFXFXFXFXFXFXFXFXFXFXFXFXFXFXFXFXFXFXFXFXFXFXFXFXFXFXFXFXFXFXFXFXFXFXFXFXFX",
"f.j.x.x.x.x.x.x.z.x.x.x.x.j.j.j.j.j.j.j.g.s.g.j.j.j.x.z.z.z.n.n.V.B.Z.Z.U.Q.W.7X5X7XrXrXyXpXaXaXkXkXlXxXxXcXxXvXvXbXbXbXvXvXvXvXvXvXxXcXcXxXzXzXkXkXkXkXkXkXkXkXkXlXlXlXlXlXkXkXkXkXjXjXjXjXaXaXaXyXtXtX9X9X9X9XiXiXwXwXiX9X9X9X0X7X6XT.T.I.K.m.M.l.h.u.} | ] | ] ] | | | } } } p.h.v.v.l.l.k.h.h.p.} | ~ K f s u 9 9 u i u u i u s f f f f s u u 9 > > & & @ @ . @ @ @ @ @ @ @ @ @ # # @ @ @ @ $ $ = = $ $ $ $ $ $ $ = = = = = 8 8 8 * > 8 9 9 > > * * * * * * = % % $ $ $ $ $ $ $ $ $ $ 5 5 5 % $ $ $ $ $ $ $ $ $ $ $ $ @ @ @ @ @ @ @ @ @ @ @ @ @ @ @ @ @ @ @ @ @ @ @ $ $ $ $ $ $ # $ $ $ @ @ @ @ @ @ @ @ # # @ @ $ $ $ $ $ @ # @ $ $ @ @ @ @ @ @ @ @ @ @ @ @ @ @ @ @ @ @ @ @ @ @ @ @ @ @ @ @ @ @ . 9 a # # # ; . ; d d ; ; h d C C B C w d Q ` W g Q ! C E E C C C C C W Q Q ! E g c W Q E c c  .(  . .` Q Z ^ ( ' -.<.G.D.F.oXXX@X&X=X=X3X3X=X=X&X&X=X=X=X&X&X+X+XOXOX+X=X=X+X=X=X=X=X=X,X=X=X$X+X&X=X=X+X+XOXOX+XOXOXOXOX+X+X+X+X$X+XOXOXOXOX X X X X X].]. X X].`.`._.[.[.[.[.].[.[.[.[.]._._._.[.[.[.[.[.[.[.[.[._.[.]. X[.[.[._._._._._.[.[.].].].].[.[.[.[._._._.r.r.r.r._.[.[.[.[._._._._._.r.r.r.r._._._._._._._._._._._._.].].].].].[._.[.`.`._._.`.`. XOXOXOXOXOXOX+X$X$X+X+X+X+X+XXXXXXX+X&X&X&X&XXX&X&X&X@XXXXXoXoX.XJ.J.F.D.D.0.9.9.<.-./ ^ A l e 3 4 3 e x c c Z d d c Q ` X.( X...S... .X.S.S.X. .X. . .! ` E B i 9 8 6 6 9 0 0 9 7 9 9 0 0 0 0 0 0 0 0 0 0 0 i i V N N N N N P P P L L I ] { d.j.z.V.I.W.6X7XrXtXaXsXkXzXxXxXvXbXbXVXVXVXVXVXAXAXAXAXAXCXCXCXCXCXCXZXZXZXZXZXZXZXSXSXFXFXFXFXFXFXFXFXFXFXFXFXFXFXFXFXFXFXFXFXFXFXFXFXFXFXFXFXFXFXFXFXFXFXFXFXFXFXFXFXFXFXFXFXFXFXFXFXFXFXFXFXFXFXFXFXFXFXFXFXFXFXFXFXFXFXFXFXFXFXFXFXFXFXFXFXFXFXFXFXFXFXFXFXFXFXFXFXFXFXFXFXFXFXFXFXFXFXFXFXFXFXFXFXFXFXFXFXSXSXSXFXFXFXFXFXSXSXSXFXFXFXFXFXFXFXFXFXFXFXFXFXFXFXFXFXFXFXFXFXFXFXFXFXFXFXFXFXFXFXFXFXFXFXFXFXFXFXFXFXFX",
"j.j.x.x.z.z.x.x.x.x.x.x.x.x.x.j.j.x.x.j.g.s.g.j.j.j.x.x.z.z.n.n.V.B.Z.Z.U.Q.W.7X7X7XrXrXyXpXaXaXkXkXlXzXxXcXxXvXvXvXvXvXvXvXvXvXvXvXxXcXcXcXzXzXkXkXkXkXkXkXkXkXkXlXlXlXlXkXkXkXkXkXjXjXjXjXaXaXyXyXtX9X9X9X9X9X9X9X9X9X9X9X0X6X6XT.T.R.I.m.M.c.k.h.} | ] L L L L ~ ] | | } } } } p.p.h.h.h.h.p.p.} | _ K N f i 9 9 u u u i u u u u i i i u u u 9 1 > & = @ @ @ . . @ @ @ @ @ @ @ @ # # # # @ @ @ @ @ = $ $ $ $ $ $ $ = = = = * 8 8 8 8 8 > 8 8 > > * * * * = = = % $ $ $ $ $ $ $ $ $ $ $ $ 5 5 % $ $ $ $ $ $ $ $ $ $ $ $ $ @ @ @ @ @ @ @ @ @ @ @ @ @ @ @ @ @ @ @ @ @ @ $ $ $ $ $ $ $ @ $ $ @ @ @ @ @ @ $ $ $ $ # # $ @ $ $ @ $ # # @ @ $ @ @ @ @ @ @ @ @ @ @ @ @ @ @ @ @ @ @ @ @ @ @ @ @ @ @ @ . & ; w 8 . ; ; & 9 d d ; ; h d g g h C d w ` Q W W Q Q E C g g c g g C Q ( ! Q E E E c E Q E d Q ` ! X.X.` ^ Q ( ' ' 1.<.G.F.F.oXXX@X*X*X-X-X-X=X=X=X&X=X=X=X&X+XOXOX+X+X=X=X=X+X=X=X:X:X=X:X=X=X=X$X&X$X$X+XOXOXOXOXOXOXOXOX+X+X+X+X+X+XOXOXOXOXOXOXOXOXOXOX X`.`.`.`.[.`.[.[.].[.[.[.].].].[.[.[.[.[.].].].[.[.[.[.[._.[.[.].[.[.[.[.[.[.[._.[.[.].[.[.[.[.[._._._._._._._._._._._._._._._._._._._._.r.r.r._._.r.r._._._._._._._.].].].[.[.[._._.`.`.].`.]. X].OXOXOXOXOXOX+X$X$X$X&X&X&X$X$X&X$X@X@X&X&X=X=X&X&X*X*X%X@X@X@XoXoXH.H.J.F.D.0.0.9.2.:.' / A l e e 3 3 e x x x C c C Q Q ! ` (  .X.p.(.` ! ..S.S.X. . .` ! ` Q B s 9 9 8 8 9 0 0 9 9 9 0 0 9 9 9 0 0 0 0 0 0 0 i i i N N N N N P P P L L I Y { } h.z.V.B.U.W.7XrXtXpXsXkXzXxXxXvXvXbXVXVXVXVXAXAXAXAXCXAXCXCXCXCXCXCXZXZXZXZXZXSXSXSXSXFXFXFXFXFXFXFXFXFXFXFXFXFXFXFXFXFXFXFXFXFXFXFXFXFXFXFXFXFXFXFXFXFXFXFXFXFXFXFXFXFXFXFXFXFXFXFXFXFXFXFXFXFXFXFXFXFXFXFXFXFXFXFXFXFXFXFXFXFXFXFXFXFXFXFXFXFXFXFXFXFXFXFXFXFXFXFXFXFXFXFXFXFXFXFXFXFXFXFXFXFXFXFXFXFXFXFXFXSXSXSXFXFXFXFXFXSXSXSXFXFXFXFXFXFXFXFXFXFXFXFXFXFXFXFXFXFXFXFXFXFXFXFXFXFXFXFXFXFXFXFXFXFXFXFXFXFXFXFXFXFX",
"j.j.x.z.z.z.x.x.x.x.x.x.x.x.x.x.x.x.x.j.g.s.g.j.j.j.j.x.z.z.n.n.B.Z.Z.U.U.Q.W.!.7XrXrXrXyXyXaXaXkXkXlXxXxXcXxXvXvXvXvXvXvXvXbXvXvXvXxXcXcXcXzXlXkXkXkXkXkXkXkXkXlXlXlXlXkXkXkXkXkXkXjXjXjXaXaXaXyXtX9X9X9X9X9X9X9X0X0X0X0X6X4XT.R.R.R.I.m.M.x.j.h.} | ] P K K K P L Y ] | | } } } p.p.p.p.h.p.p.} | _ P B f i i 9 i i u u i i u u u u u u u u 9 1 > & @ @ @ @ . @ @ @ @ @ @ @ @ @ @ @ @ # # $ @ @ @ @ @ $ $ $ @ @ $ = = = = = * 8 8 8 8 8 8 > 8 > > * * * * = = = = $ @ @ $ $ $ $ $ $ $ $ 5 $ $ % $ $ $ $ $ $ $ $ $ $ $ $ $ @ @ @ @ @ @ @ @ @ @ @ @ @ @ @ @ @ @ @ @ @ @ $ $ $ $ @ @ @ @ $ $ @ @ @ @ @ @ $ $ $ $ % % $ $ $ $ $ $ $ # @ @ @ @ @ @ @ @ @ @ $ $ @ @ @ @ @ @ @ @ @ @ @ @ @ @ @ @ . . . # a ; . # ; 9 w s d 9 # h g d d w c W d Q ` W Z C Q W c c d g C C W Q ! W W Q E E E E E C c c ` W ` X. .^ ` ( ^ ^ ' 1.9.G.D.F.XX@X*X*X-X-X-X=X=X=X=X=X=X&X&X&X&X+X+X+X=X=X:X=X=X=X:X:X:X:X=X:X=X=X=X=X$X+X+XOX+X+XOXOXOXOX+X+X+X+X+X$X$XOXOXOXOXOXOXOXOXOXOXOX`.`.`.`.].].].].].].[.[.].].].[.].].].].].].[._._._.[.[.[.[.[.[._.[.[.[.[.[.[._._.[.[._._._.[.[._._._.[.[.[.[.[.[._._._._._._._._._._._._._._.[._.r.r.r._._.'._._._.].].[._._.[._._.`.`.`.]. X X XOXOXOXOXOXOX+X$X$X&X&X&X&X&X&X&X&X@X+X@X&X&X*X*X*X*X*X*X*X%X%X#X#XoXoXoXJ.D.G.G.9.9.<.-./ D l e e 3 4 3 e x c x x C Q ! ( ( ! !  .../.X.! X...S... . . . . .` E s a a 9 7 9 9 0 9 9 9 9 9 9 9 9 0 0 0 0 0 0 0 0 i i B N N P P P P P L L I Y [ { d.x.z.n.P.W.7X7XrXiXaXsXkXxXxXvXvXbXVXVXVXAXAXAXAXAXAXAXAXCXCXCXCXZXZXZXZXZXZXSXSXSXSXFXFXFXFXFXFXFXFXFXFXFXFXSXSXFXFXFXFXFXFXFXFXFXFXFXFXFXFXFXFXFXFXFXFXFXFXFXFXFXFXFXFXFXFXFXFXFXFXFXFXFXFXFXFXFXFXFXFXFXFXFXFXFXFXFXFXFXFXFXFXFXFXFXFXFXFXFXFXFXFXFXFXFXFXFXFXFXFXFXFXFXFXSXSXSXFXFXFXFXFXFXFXFXFXFXFXFXFXSXSXSXFXFXFXFXFXSXSXSXFXFXFXFXFXFXFXFXFXFXFXFXFXFXFXFXFXFXFXFXFXFXFXFXFXFXFXFXFXFXFXFXFXFXFXFXFXFXFXFXFXFX",
"f.j.x.x.z.z.x.x.x.x.x.x.x.x.x.x.x.x.x.j.g.g.g.j.j.j.j.x.z.b.n.n.B.C.Z.U.U.Q.W.7X7XrXrXrXyXyXaXsXkXkXlXxXcXcXxXvXvXvXbXbXbXbXbXvXvXvXxXcXcXcXzXlXkXkXkXkXkXkXkXkXlXlXkXkXkXkXkXkXkXjXjXjXaXaXaXyXtX9X9X9XqXqXqX0X0X6X6XqX6X4XT.I.I.K.m.M.z.j.s.u.{ ] ~ P N f f f K P ~ _ ] | | } } } p.p.p.p.} } | ] ~ B f i i i u i i u u i i u i u i i u u u 9 > > = . @ @ @ . @ @ @ @ @ @ @ @ @ @ @ @ @ @ # # @ @ @ @ @ @ @ @ @ @ = = = = * * 8 > > 9 9 > > > > > * * * * = = = % $ @ @ $ $ $ $ $ $ $ $ 5 $ $ % % % 5 $ $ $ 5 $ $ $ $ = $ @ @ @ @ @ @ @ @ @ @ @ @ @ @ @ @ @ @ @ @ @ @ @ $ $ $ @ @ @ @ $ $ @ @ @ $ @ $ $ $ $ $ = = $ $ $ $ $ $ @ @ @ @ @ @ @ @ @ @ @ @ $ $ $ @ @ @ @ @ @ @ @ @ @ @ @ . @ . . . # ; 9 . # 9 ; w h w w ; e d e d d e W C C X.W W Q C C Z C g C C C W Q Q W C E Q W C E W E g c ! ` ~ X...` ^ ` ^ ^ ( -.1.9.G.F..X%X*X-X-X-X-X-X*X=X-X-X=X=X=X=X=X=X&X+X&X=X=X=X=X=X=X:X:X=X=X=X=X$X=X=X=X$X+X$X$X$X$X$X+X+X$X$X+X+X+X$X$X=X$X$X$X+XOXOXOXOXOXOXOXOX X X]. X X X X}.].[.[.].].].].].].].].].].[._._._._.[.[.].[.[.[.[.[.[.[.[.[._.[.[._.r._.[.[._._._._._.[.[.[.[.[.[._._._._._._._.r.r._._._.[.]._._._.'._._.'._.r._._._._.'._.[._.`.`.`.`.`.`. XOXOXOXOXOXXX+X&X@X&X@X@X$X&X&X&X&X&X@X@X@X&X&X*X*X*X*X*X-X*X*X%X%X%X#X#X#XoXJ.D.D.G.9.<.:.-.D v e e 4 4 3 e d c Z c x Z `  .` ! ! !  .S... . .X.S...X. .X. .X. .~ g s s w 9 9 9 0 9 9 9 9 9 9 9 0 0 0 0 0 0 0 0 i i i N N N P P P P P L I I Y ] [ } h.x.n.B.U.W.7XrXtXpXsXkXxXxXcXvXbXVXVXVXAXAXAXAXAXAXAXAXCXCXCXCXZXZXZXZXZXZXSXSXSXSXFXFXFXFXFXFXFXFXFXFXFXFXFXFXFXFXFXFXFXFXFXFXFXFXFXFXFXFXFXFXFXFXFXFXFXFXFXFXFXFXFXFXFXFXFXFXFXFXFXFXFXFXFXFXFXFXFXFXFXFXFXFXFXFXFXFXFXFXFXFXFXFXFXFXFXFXFXFXFXFXFXFXFXFXFXFXFXFXFXFXFXFXSXSXSXFXFXFXFXFXFXFXFXFXFXFXFXFXSXSXSXFXFXFXFXFXSXSXSXFXFXFXFXFXFXFXFXFXFXFXFXFXFXFXFXFXFXFXFXFXFXFXFXFXFXFXFXFXFXFXFXFXFXFXFXFXFXFXFXFXFX",
"f.f.j.x.z.z.z.x.z.z.x.x.x.x.x.x.x.x.x.j.g.j.j.j.j.j.x.x.z.b.n.n.V.B.Z.U.U.Q.W.7XrXrXrXrXyXyXaXsXkXkXlXxXcXxXxXxXvXvXbXbXbXbXbXvXvXvXxXcXcXcXzXlXkXkXkXkXkXkXkXkXlXlXkXkXkXkXkXkXjXjXjXaXaXaXyXyX9X9X9XqXqX4X6X6X0X6X4X4X4XT.Y.I.m.M.c.k.h.u.} { U L K f i u s f N K ~ ~ _ ] | | } } } } } } | | _ ~ P B s u i i i u u i i 9 u i u i i i u u 9 8 > * @ . . @ @ @ @ @ @ @ @ @ @ @ @ @ @ @ @ @ # # @ @ @ $ $ = @ @ @ @ = = = = * * 8 * > 9 9 > * > > > * * * * * = % % = $ $ $ $ $ $ $ $ $ $ $ $ $ % % % % 5 $ $ 5 5 $ $ $ = $ @ @ @ @ @ @ @ @ @ @ @ @ @ @ @ @ @ @ @ @ @ @ @ @ @ $ @ @ $ $ $ $ # # $ $ $ = = = $ $ $ $ = % % $ $ $ @ @ @ @ @ @ @ @ @ @ $ $ $ $ @ @ $ @ @ @ @ @ @ $ @ @ @ @ @ @ . . ; 9 . . w 9 w h ; 9 w w B e ; C g Z C C Q C Z W C W W W c d C C Q Q E g c W Q E c E E E c C W ! !  .....` ' W ^ ^ ' 1.8.9.D..X%X%X*X-X-X*X*X*X*X-X-X-X=X=X-X-X=X>X=X&X&X=X=X=X=X=X=X:X=X=X$X$X$X$X=X:X:X$X+X$X:X=X:X:X:X:X:X:X$X$X$X$X:X:X:X:X:X$X$X$X$X+X+X$X$X+XOX X X X XOXOX}.}.].].].].].].].[._.[.[.[._._._._._.[.].].[.[.[.[.[._._.[.[._.].[._.r.[.].[._.r.r._._.[.[.[._.].[.[.[._._._.r._.r.r.r.r.r.[.].[._._._.].]._.'.r.'._._.'.'._.`.].]. X].`.`.`.`.OXOXOXOXOXXX+X&X@X@X@X@X@X&X&X&X&X&X@X@X@X@X&X%X%X%X*X*X-X-X%X%X;X%X%X%X%X#XH.F.H.D.9.9.<.:./ A x e 4 e e 3 e c Q Z c C ! ` `  .( ! !  .S... . .v.S.S.X... .X. .~ B s s s 9 0 i 0 9 9 9 9 9 9 0 0 0 0 0 0 0 i i V V i N N N J P L L L I I I Y ] [ } s.x.n.V.U.Q.7X7XtXpXaXkXxXxXcXvXbXVXVXVXAXAXAXAXAXAXAXAXAXCXCXCXZXZXZXZXZXZXZXSXSXSXFXFXFXFXFXFXFXFXFXFXFXFXFXFXFXFXFXFXFXFXFXFXFXFXFXFXFXFXFXFXFXFXFXFXFXFXFXFXFXFXFXFXFXFXFXFXFXFXFXFXFXFXFXFXFXFXFXFXFXFXFXFXFXFXFXFXFXFXFXFXFXFXFXFXFXFXFXFXFXFXFXFXFXFXFXFXFXFXFXFXFXFXSXSXSXFXFXFXFXFXFXFXFXFXFXFXFXFXSXSXSXFXFXFXFXFXSXSXSXFXFXFXFXFXFXFXFXFXFXFXFXFXFXFXFXFXFXFXFXFXFXFXFXFXFXFXFXFXFXFXFXFXFXFXFXFXFXFXFXFXFX",
"f.f.j.x.z.x.x.z.x.x.x.x.x.x.x.x.j.j.j.j.j.g.g.s.g.j.x.x.z.b.n.V.V.B.Z.Z.U.Q.!.5X7XrXrXrXyXyXaXaXkXkXlXzXxXcXxXvXvXbXvXbXvXvXvXvXvXvXxXcXcXxXzXlXlXkXfXfXkXkXkXkXkXlXlXkXkXkXjXkXkXjXaXaXaXaXyX9X9X9XqXqX6X4X6X4X6X4XY.I.I.I.C.m.M.l.k.h.u.} ] L L J f i 9 9 a s N K P ~ ~ _ | | | | | | | } | ] ~ K B s i u i i i i i s i i i i u i u u u 9 9 8 > & @ . . . . @ . . . . @ @ @ @ @ @ @ @ @ @ @ @ @ @ @ @ @ @ $ $ $ $ # = * * * * > * > > > 8 8 8 9 9 8 > * * * = $ $ $ $ $ # = % $ $ = % $ $ $ % % % % % $ $ 5 $ 5 5 $ $ = = # $ # @ @ @ @ @ @ @ @ @ @ @ @ $ $ # $ @ @ @ @ $ # % # # # # # # # # $ # # $ $ $ % % % $ $ % % % $ $ @ # = # @ @ @ $ @ @ @ @ @ @ @ @ @ @ @ @ @ @ @ @ . @ # @ . # . ; s . ; ; w w w 1 & d e e e 9 h W C d C Q Q C Z ^ Z Z C c C C W W ( E g C W W E E C ` W E W E ! Q ` 1.....1.^ Z ^ ' -.1.G.G..X@X@X%X*X-X-X-X-X*X*X-X-X*X*X-X-X=X=X=X=X=X=X=X=X=X&X$X$X=X&X=X=X=X=X$X:X:X=X=X:X:X:X=X:X:X:X:X$X$X$X$X$X$X$X$X:X:X:X:X:X,X$X,X:X,X+XOXOXOX X XOXOXOXOXOX].]. XOX X`.[.[.[.[.[.[._._.r._.[.].[.[.[.[._.[.[.[._._.[.[.].[._.[.[.[.[.[._._._._._._.[.[.[.[.[.[._._.e.r.r.r.r.r._._.[.[.].].].].].[.[.[._.'._.'._._._._.`.]. X`._.'.`. XOXOXOXOXXX+X$X$X$X+X@X&X&X&X&X$X&X&X&X&X&X&X*X*X*X-X*X-X-X;X%X-X;X;X-X;X%X%X#XH.H.H.D.G.9.<.%.D x e 4 4 3 3 3 e C ^ Q C W Q ! X.~ ! X. .S.(. .! X.X.(.v... . ._ ! B a s s s s s s s s 9 9 9 9 0 0 0 0 0 i s V V N V N N N N J I I I I L I I Y Y ] { d.j.z.V.Z.W.7X7XrXpXaXkXlXxXcXcXvXbXVXVXVXAXVXVXCXCXCXCXCXCXCXZXCXZXZXZXZXZXSXSXSXFXFXFXFXFXFXFXFXFXFXFXFXFXFXFXFXFXFXFXFXFXFXFXFXFXFXFXFXFXFXFXFXFXFXFXFXFXFXFXFXFXFXFXFXFXFXFXFXFXFXFXFXFXFXFXFXFXFXFXFXFXFXFXFXFXFXFXFXFXFXFXFXFXFXFXFXFXFXFXFXFXFXFXFXFXFXFXFXFXFXFXFXFXFXFXFXFXFXFXFXFXFXFXFXFXFXFXFXFXZXZXZXZXZXZXSXSXSXSXSXFXFXFXFXFXFXFXFXFXFXFXFXFXFXFXFXFXFXFXFXFXFXFXFXFXFXFXFXFXFXFXFXFXFXFXFXFXFXFXFXFXFX",
"j.f.j.z.z.x.x.x.x.x.x.x.x.j.j.j.x.j.j.j.j.j.j.j.j.j.x.x.z.b.n.V.V.B.B.Z.U.Q.W.7X7X7XrXrXyXpXaXaXkXkXlXzXxXxXxXvXbXbXbXbXvXvXvXvXvXvXxXcXcXcXzXzXlXkXfXkXkXkXkXfXkXkXlXkXkXkXjXkXjXaXaXpXaXyXtX9X9X0XqX4X4X4X4X4X4XT.I.C.C.m.M.b.k.h.u.i.} ] L P J f i 8 > 9 a s f N K P ~ ~ _ ] | | | | | | _ ~ P B N s u u u i i s s s s i u u u s i u u u 9 9 * & @ @ . . . @ . . . . @ @ @ @ @ @ @ @ @ @ @ @ @ @ @ @ @ $ $ $ $ $ # = * * * * * * > > > > 8 8 > > > * * * = = # $ $ $ # # = = $ $ = % $ $ $ % * * % % 5 5 5 5 5 5 $ $ = = # $ # @ @ @ @ @ @ @ @ @ @ @ @ @ @ @ $ @ @ @ @ $ # % $ $ $ $ # # # # $ $ # # $ $ % % % % % % % % $ @ @ @ # $ @ @ @ $ @ @ @ @ @ @ @ @ @ @ @ @ @ @ @ @ . @ . @ @ . ; w ; & ; w w w w ; w h g d w ; C Q C W ^ Q Z Q ^ Z C Z W C C C Q Q Q C c W Q C g C ( ! E E W ! ( ( `  .X.S. .x c ' ' 1.8.G.D.XXXX%X%X*X-X-X-X-X-X-X-X-X=X-X-X-X=X=X=X=X=X&X&X&X&X&X$X=X=X=X=X=X=X=X=X=X$X+X+X$X=X$X+X+XOXOXOXOXOXOXOXOXOXOXOXOXOXOXOXOXOXOXOXOXOXOXOX X`.`.`.].].]. XOXOXOXOXOXOXOX].].].].].[._.r._.[.[.[.[.[._.[.[.[._._._._._.[.[._._.[.[.[._._.r.r.r.r._._._.[.[.[.].[._._._._._._._._._._._._._._.'._.'._.'.'._._.'._._._._._._.]. X X`.`.`.|.OXOXOXOXOXXX+X@X&X$X@X@X&X&X*X*X@X@X&X&X&X*X*X*X*X*X*X-X-X;X;X-X;X;X1X-X;X;X;X#XH.H.H.D.G.8.-./ v x e 3 3 3 3 h d C ` Q C c c  ... . .` ..S..... . .S.S.S. . ._ ! E g s d g s s s s 0 9 9 9 9 0 0 0 i i i s V N N N N N N N J I I I I I I I Y Y ] { d.j.z.V.Z.Q.7X7XrXiXaXfXlXxXcXcXvXbXVXVXVXAXVXVXCXCXCXCXCXZXCXZXCXZXZXZXZXZXZXSXSXSXFXFXFXFXFXFXFXFXFXFXFXFXFXFXFXFXFXFXFXFXFXFXFXFXFXFXFXFXFXFXFXFXFXFXFXFXFXFXFXFXFXFXFXFXFXFXFXFXFXFXFXFXFXFXFXFXFXFXFXFXFXFXFXFXFXFXFXFXFXFXFXFXFXFXFXFXFXFXFXFXFXFXFXFXFXFXFXFXFXFXFXFXFXFXFXFXFXFXFXFXFXFXFXFXFXFXFXFXSXSXSXSXSXSXSXSXSXSXSXFXFXFXFXFXFXFXFXFXFXFXFXFXFXFXFXFXFXFXFXFXFXFXFXFXFXFXFXFXFXFXFXFXFXFXFXFXFXFXFXFXFX",
"j.j.x.x.z.x.x.x.x.z.x.x.x.x.x.x.x.x.x.x.j.j.j.j.j.j.x.x.z.b.n.n.V.V.B.Z.U.Q.W.!.7X7XrXrXtXyXaXaXkXkXlXzXxXcXcXxXbXbXbXbXbXbXvXvXvXvXxXcXcXxXzXzXkXkXfXfXkXkXkXkXkXkXlXlXkXkXjXjXjXaXpXyXyXyX9X9X0XqX4X4X4X4XT.Y.I.I.C.m.M.b.z.z.j.u.i.[ ] L P J f i 8 > * 9 9 s s f B K P L ~ _ _ ] ] ] _ _ ~ K B B s i 9 9 u i s s s s s s s i i s s i i u 9 9 & = @ . . . . @ . . . . . . @ @ @ @ @ @ @ @ @ @ # # # # # @ $ @ @ @ # = * * * * > > > * * * > > > > * * * * = = $ $ $ $ = = # # $ $ % % % % % * * * 5 5 5 5 5 5 5 % $ $ = = # # @ @ @ @ @ @ @ @ @ @ @ @ @ @ @ @ @ @ @ @ $ $ # % $ $ $ $ $ $ # # # # # # # # % % * % % % % % $ @ @ $ $ $ @ @ @ @ @ @ @ @ @ @ @ @ @ @ @ @ @ @ @ @ . @ . . & . w w . 9 ; h h w ; w d d d ; ; h C d C Q ` ` ( ( Q C W Z Z Z Q ^ Q W d W ! W g g E ! ( E W E Q  .! !  .Q ..1.c c ( ^ ' 8.8.9.D.@XoX%X%X*X-X-X-X-X-X-X*X*X-X-X-X-X=X=X=X=X=X&X&X&X=X=X=X>X>X:X=X=X=X&X$XOXOX XOX+X+X+XOXOX X XOXOXOXOXOXOXOXOXOXOXOXOXOXOXOX X].].].].].].].`.`.`.`.`.`.].OX X]. XOXOX XOXOXOXOX].`._.[.[.[.[.`.`.`._.[.[._._._._._._._._._.[.[._._._._.r.r.r._.[.[._._.[.[._.e.e.e._._._._._._._._._._.'.'._._.[.[._._._.`.`.`.`._._.`.`.|.`.`.`.`.`.OXOXOXoXXXXXXX@X&X&X@X@X@X&X&X&XXXXXXX@X&X&X*X*X*X%X*X-X;X;X;X-X;X;X1X;X;X;X;X%XH.oXH.F.G.9.1.-.D v e e 3 3 3 e e c ` ` E E c E X.X.X. .X.S.S.X. . ...(.S...`  .! ~ B d s d s i s 0 9 9 8 9 9 9 i 0 i i s V N B N N N N N J P L Y I I I U I Y Y ] { } s.x.V.Z.Q.7X7XtXiXaXsXlXxXxXxXvXbXVXVXVXVXVXVXVXAXCXCXZXZXCXZXZXZXZXZXZXZXZXSXSXSXSXSXFXFXFXFXFXFXFXFXFXFXFXFXFXFXFXFXFXFXFXFXFXFXFXFXFXFXFXFXFXFXFXFXFXFXFXFXFXFXFXFXFXFXFXFXFXFXFXFXFXFXFXFXFXFXFXFXFXFXFXFXFXFXFXFXFXFXFXFXFXFXFXFXFXFXFXFXFXFXFXFXFXFXFXFXFXFXFXFXFXFXFXFXFXFXFXFXFXFXFXFXFXFXFXFXFXFXFXFXFXFXFXFXFXFXSXSXSXFXFXFXFXFXFXFXFXFXFXFXFXFXFXFXFXFXFXFXFXFXFXFXFXFXFXFXFXFXFXFXFXFXFXFXFXFXFXFXFXFXFX",
"f.j.j.x.z.x.x.x.z.z.z.x.x.x.x.x.x.x.x.j.j.j.j.j.x.x.x.x.b.n.n.n.V.B.C.Z.U.Q.W.!.5X7XrXrXtXyXaXaXkXkXlXxXxXxXcXxXvXbXbXvXbXvXvXvXvXvXcXcXxXxXzXzXkXkXfXfXfXkXkXkXkXkXkXkXkXkXjXjXaXaXaXyXyXtX9X0XqXqX4X4XT.Y.Y.I.C.C.m.M.b.z.k.j.u.u.[ ] U L J f p 9 > = * 8 9 9 s s B B K K P ~ ~ ~ ~ ~ ~ ~ K B s s i 9 9 9 i i s s s s s s s s s s s i i u 9 8 & @ . @ @ . . @ . . . . . . . @ @ @ @ @ @ @ @ @ # # # @ @ @ @ @ @ @ # = = * * * * * * * * * > * > > > * * = & # $ $ $ $ $ # $ @ $ = % % % % % * * * * 5 5 5 5 5 5 % $ $ = @ $ $ @ @ @ @ @ @ . . @ @ @ @ @ @ @ @ @ @ @ @ $ $ # # $ $ $ $ $ $ # # # # # # # # % % * % % % % % $ $ $ = = # @ @ @ $ @ @ @ @ @ @ @ @ @ @ @ @ @ @ @ @ . . @ @ # & w ; ; ; w h w w w d e d ; % h C C d ` W W ^ ( Q Q Q Q Z C W ( ` Q d g W ! E E E E c C c W E Q  .Q W ( ( 1.W c ' ^ Z -.<.<.9.D.#XXX%X*X-X<X-X-X-X-X-X*X-X-X-X-X-X-X-X=X>X=X=X=X=X=X=X&X=X:X=X=X=X&X&X$XOXOXOX+X=X$X+X+XOXOXOXOXOXOXOX$X$X$X$X+X+X+X+X$X$X+XOXOX].].]. X X].].`.`.].].`.].].].`.`.`.].].].OXOXOXOX].].].].].[.[.`.`._.].[._.r._._._._._._._._.[.[._._.[._._._._._._._._._._._.e.e.e.e._._._._._.[.].]._._._._.[.].].[.[.[.`.`.].`.`._. X`.`.'.'.`.`.|.`.OXOXOXOXXX+X&X&X&X&X@X@X&X&X&XXXXX@X@X@X@X@X@X*X*X-X-X;X;XmX;X;X-X;X;X%X;X;X%X#X#XH.F.G.9.<.-./ A e e 3 3 w w h d (  .( ! E d E  .....X...S. . . . .S.S...! _ ` _ E d s s 9 9 s i 9 9 8 9 0 i i i i s N N N N N N N N J P P P I Y Y I Y Y Y Y ] { } d.x.V.Z.Q.7X7XrXyXpXaXkXzXxXxXvXbXVXVXVXVXAXVXVXAXCXCXCXZXCXZXZXZXZXZXZXZXZXSXSXSXSXSXSXFXFXFXFXFXFXFXFXFXFXFXFXFXFXFXFXFXFXFXFXFXFXFXFXFXFXFXFXFXFXFXFXFXFXFXFXFXFXFXFXFXFXFXFXFXFXFXFXFXFXFXFXFXFXFXFXFXFXFXFXFXFXFXFXFXFXFXFXFXFXFXFXFXFXFXFXSXSXFXFXFXFXFXFXFXFXFXFXFXFXFXFXFXFXFXFXFXFXFXFXFXFXFXFXFXFXFXFXFXFXFXFXFXSXSXSXFXFXFXFXFXFXFXFXFXFXFXFXFXFXFXFXFXFXFXFXFXFXFXFXFXFXFXFXFXFXFXFXFXFXFXFXFXFXFXFXFXFX",
"g.f.j.x.x.x.x.x.x.x.x.x.x.x.x.x.x.x.x.j.j.j.j.j.x.x.x.x.b.n.n.n.V.B.Z.Z.U.Q.W.7X7X5XrXrXtXyXaXsXkXkXlXzXxXcXxXvXvXvXvXvXbXvXvXvXvXxXcXcXcXxXzXlXkXkXfXfXfXkXkXfXkXkXkXkXkXkXjXaXjXaXaXyXyXtX9X0XqX5X4X4XY.I.I.C.m.N.N.b.b.k.f.u.i.[ ] U L J f p u 8 = = = * 6 9 i s s B B K K P K P P P K K B B s i 9 9 9 i i s s s f f f f f f f f f s s i u 9 & @ . @ @ . . . . . . . . . . . . . . . @ @ @ @ @ @ @ @ @ @ @ @ @ @ # # = * * > * * > > > > * > * * * * * * # @ $ $ $ # $ $ $ @ $ = % % % % % * * * 5 5 5 5 5 5 5 % % $ @ @ @ @ @ @ @ @ @ @ @ . @ @ @ @ @ @ @ @ @ @ @ @ $ $ # # $ $ # # # # # # # # % % % % % % % % % % % % $ $ $ # $ $ @ @ @ @ @ @ @ @ $ $ $ $ $ @ @ @ @ @ @ @ @ @ & @ . w 9 ; 9 O h h ; w h h e w ; d C C d ` ^ Q W Q Q Q Q Z Q W Z C W W E c Q E C C E c g g c E C C Q ! W ( ! X.X.c ' ^ x W -.1.8.D.F.#X%X%X-X-X<X-X-X-X-X-X<X<X2X2X-X-X>X>X=X>X>X=X=X=X=X=X$X&X=X&X$X$X$X$X=X+X+X+X=X:X=X=X+XOXOXOXOXOXOXOXOXOXOX+X+X+X+X+X$X,X$X+XOX].].OX].].].].].].].].].].].`.'.`.`.].[.].].]. X X XOX X].].].].[.`.[.].[._._._._._._._._.r.r._.[.[.[._._.r.r._._._._.[._._._._._._._._._._._._.].].].'.'.'._._.[.[.[.`.`.[.[.`.`.`.|. X].`.`.`.`.`.`.'.`.OXOXOXOX+X&X&X&X&X&X@X&X&X&X$X$X@X@X&X&X%X%X*X*X-X-X;X;XnX;X-X-X;X;X;X;X;X%X;X%XH.F.G.G.<.1./ A l e 3 e e e h h C ..X.E E C c `  ..... ..... . .! ..S.S. . . . .~ B s w 9 w s s i 9 9 9 i i i i s N N N N N N J P J J P L P U Y Y Y Y Y Y ] [ { } d.x.V.Z.Q.!.7XrXyXpXaXkXzXxXxXvXbXbXbXVXVXVXVXVXVXZXZXCXCXCXCXCXZXZXZXZXZXZXZXZXZXSXSXSXFXFXFXFXFXFXFXFXFXFXFXFXFXFXFXFXFXFXFXFXFXFXFXFXFXFXFXFXFXFXFXFXFXFXFXFXFXFXFXFXFXFXFXFXFXFXFXFXFXFXFXFXFXFXFXFXFXFXFXFXFXFXFXFXFXFXFXFXFXFXFXFXFXFXFXSXSXSXSXFXFXFXFXFXFXFXFXFXFXFXFXFXFXFXFXFXFXFXFXFXFXFXFXFXFXFXFXFXFXFXFXFXFXSXSXSXFXFXFXFXFXFXFXFXFXFXFXFXFXFXFXFXFXFXFXFXFXFXFXFXFXFXFXFXFXFXFXFXFXFXFXFXFXFXFXFXFXFX",
"g.f.j.j.x.x.z.x.x.z.z.x.x.x.x.x.x.x.j.j.j.x.x.x.x.x.x.z.z.n.n.n.V.B.Z.Z.U.Q.W.W.W.5XrXrXtXyXaXsXfXkXkXzXxXcXxXvXvXvXvXvXvXvXvXvXvXxXcXcXxXxXzXlXkXkXfXfXfXkXkXaXkXkXkXkXkXkXjXaXjXaXaXyXyXtX9X0X5X4X4XY.I.C.m.m.N.b.z.k.k.j.u.i.[ ] U L P f p u 9 * # = % 5 6 9 0 i s s f B B K K K K K B B f s i 9 9 9 0 s s f f f f f f f f f f f f s s i 9 1 & @ . . @ . . . . . . . . . . . . . . . @ @ @ @ @ @ @ @ @ @ @ @ @ @ # # & = * * * > > * > > > * > > * * * = & @ $ $ $ $ $ $ @ @ $ = % % % % % * * * 5 7 6 6 6 5 5 % = $ $ @ @ @ @ @ @ @ @ @ . . . @ @ @ @ @ $ $ @ @ $ $ # # # # # # # # # # # # # # % % % % % % % % % % % % $ $ $ $ $ $ @ @ @ @ @ @ @ $ $ $ $ $ $ $ @ @ @ @ @ @ @ . @ @ . s ; ; & w g 9 h d w w h w w C d C Z ` Z Q ^ ^ Z W Q Q Q W c d g c C E c g d h h d c W C C g E ! W W ( ( X.^ Q ` x A ' -.1.9..XH.#X%X%X*X-X-X-X-X-X-X-X2X<X-X-X-X-X>X>X>X>X>X=X=X=X&X$X$X&X=X&X$X$X&X$X=X$X=X=X+X+XOX+X+XOXOXOXOXOXOX|.OXOXOXOXOX+XOXOXOX+X+XOXOX]. XOX X].].].].].].].].].`.`.`.].].].`.[.`.[.`.].]. XOXOX X].].[.`.`.[.[._._._._.[.[._._._.r._.[.].].r.r._.r._._._._._._._._._.[.[.[.[.[.[.[.[.[.[._._._._._._.[.[.[.`.`.`._._.`.`. X`.`. X X X|.`.'.'.'.OXOXOXOX+X&X$X&X=X@XXX&X&X@X@X$X@X@X&X&X*X*X%X*X-X;X-X-X;X;X-X-X;X;X;X;X;X;X;X%XH.H.F.G.9.<./ Z x e 4 3 h h e e g ` X.Q Q E C ! `  .X.X....... .! ..S.S... .X. .! g a 9 9 s s i 9 9 9 9 i i i i N N N N N N P P P P P L L L I U Y Y Y Y ] ] [ { { d.j.b.V.Q.W.7XrXtXpXaXkXzXxXxXvXvXbXbXVXVXVXVXVXVXVXZXCXCXCXCXCXZXZXZXZXZXZXZXZXSXSXSXFXFXFXFXFXFXFXFXFXFXFXFXFXFXFXFXFXFXFXFXFXFXFXFXFXFXFXFXFXFXFXFXFXFXFXFXFXFXFXFXFXFXFXFXFXFXFXFXFXFXFXFXFXFXFXFXFXFXFXFXFXFXFXFXFXFXFXFXFXFXFXFXFXFXFXFXSXSXSXSXFXFXFXFXFXFXFXFXFXFXFXFXFXFXFXFXFXFXFXFXFXFXFXFXFXFXFXFXFXFXFXFXFXFXSXSXSXFXFXFXFXFXFXFXFXFXFXFXFXFXFXFXFXFXFXFXFXFXFXFXFXFXFXFXFXFXFXFXFXFXFXFXFXFXFXFXFXFXFX",
"g.f.j.j.x.x.z.x.x.z.z.z.x.x.x.z.x.x.x.x.j.x.x.x.j.x.x.z.z.b.n.n.V.V.C.Z.U.U.Q.W.W.5XrXrXtXyXyXsXaXaXkXlXzXxXcXxXvXvXvXvXvXvXvXvXvXxXcXcXxXxXzXlXkXkXfXaXkXkXfXfXkXkXkXkXkXkXjXaXjXaXyXyXtX9X9XqX4X4X4XY.C.m.N.N.b.z.k.k.f.u.i.i.[ Y U P J f u 9 9 * # % = $ 6 7 9 9 0 s s s f N N N N N f s s i 0 9 9 9 i s s f f f f f f f f f f f f s u u 9 > & = . . . . . . @ @ . . . . . . @ @ @ @ @ @ @ @ @ @ @ @ @ @ @ @ @ # # & & = > * * * * > 8 8 > > > > * > * * = # # # $ $ $ $ # # = % % % % % % 6 * 6 5 7 6 5 5 5 $ 5 % $ $ @ @ @ @ @ . . . . . . . . @ @ @ $ # # @ @ $ # # # # # $ $ $ # # # # # # # % % % % % % % % % % % % $ $ # $ $ $ $ @ @ @ @ @ $ $ $ $ $ $ $ $ @ @ @ @ . . . . . & 1 9 & - + d e w g d e e w w d d C Q ` Q ` ^ W Z Z W ` X.Q C g d c E E c h h a a g W W g c c C Q Q W Q Q ` ` Q ^ c x ' -.1.8.G.H.H.#X#X%X%X*X-X-X-X-X-X-X2X-X=X=X=X-X-X-X>X>X=X=X=X=X&X&X&X=X=X=X=X=X=X=X+X+X+X+XOX|.|.OX+X+XOXOXOXOXOXOXOXOXOXOX+X+X+X+XOXOXOXOXOX X].OXOXOX].].].].}.}.].].].`.`.].].`.].].].`.`.`.`.].OX X].].].].].].].].[._._._.[.[.[.[.[._._.].].[._._._._.r.r.r._.r._._._._._._._.[.[.[.[.].].[.[.].]._._.[.[.[.[.`.`.`.`._._.`.`.`.`. XOXOX X X`.'.`.OXOXOXOXOX$X$X&X&XXXXX@X&X@X@X@X+X@X@X&X*X*X;X-X-X-X-X;X;X;X-X-X;X;X;X;X<X;X;X%X#XH.F.G.9.1.-.D v e 3 3 h h e h d C  .X.! E E Q `  . ...S...UXX.!  .X.S.S. . . .! B s a a s 9 9 9 9 9 9 i i s f N N N N K K P L L L L I I I U Y Y Y Y Y ] [ [ { { } j.z.V.Z.Q.7XrXrXpXaXkXlXxXxXvXvXbXbXbXVXVXVXVXVXVXZXCXCXCXCXCXZXZXZXZXZXZXSXSXSXFXFXFXFXFXFXFXFXFXFXFXFXFXFXFXFXFXFXFXFXFXFXFXFXFXFXFXFXFXFXFXFXFXFXFXFXFXFXFXFXFXFXFXFXFXFXFXFXFXFXFXFXFXFXFXFXFXFXFXFXFXFXFXFXFXFXFXFXFXFXFXFXFXFXFXFXFXSXSXSXSXSXSXFXFXFXFXFXFXFXFXFXFXFXFXFXFXFXFXFXFXFXFXFXFXFXFXFXFXFXFXFXFXFXFXFXSXSXSXFXFXFXFXFXFXFXFXFXFXFXFXFXFXFXFXFXFXFXFXFXFXFXFXFXFXFXFXFXFXFXFXFXFXFXFXFXFXFXFXFXFX",
"f.j.x.j.x.x.z.x.x.x.z.z.z.z.z.z.z.z.x.x.j.j.j.j.j.j.x.z.z.z.n.n.n.V.B.Z.Z.U.Q.Q.W.5XrXrXrXtXyXaXaXaXfXkXzXxXcXxXvXvXvXvXvXvXvXvXvXxXcXcXcXzXzXlXkXkXfXaXkXkXfXfXkXkXkXkXkXkXjXaXaXaXyXtXtX9X9X5X4X4XY.I.C.N.N.b.k.k.k.f.u.i.{ [ ] U L J p u 9 > ; # $ $ @ @ $ 6 7 9 9 0 i s s s s f f s s s s 0 9 9 9 9 i s f f f f f f f f f f f f f s s u u 1 & @ . . . . . . @ . . . . . . . @ @ @ @ @ $ $ # @ @ @ @ @ @ @ @ $ # = = = = * * * * > 8 8 8 * * > * * * * = = = # # # # # = % % = % % % % % * 5 % 5 5 5 5 5 5 % % $ % = = @ @ @ @ @ . . . . . . . . @ @ $ # # # @ $ $ # # # # # $ $ $ $ $ $ # # # # % % % % % % * * * % % % $ $ $ $ $ $ $ $ $ @ @ @ @ $ $ $ $ $ @ @ @ @ @ @ @ . . . . 1 h & & & w e ; C w 9 C e w h C w Q ` ( ^ ^ ^ ( ^ ( ' X.` Q C c C Q Q E g g g d d g c c g g g ! Q g Q ` W ( ` Q Z A ' ^ -.<.D.G.F.H.%X#X-X%X*X-X-X-X-X-X-X2X-X-X-X>X2X>X>X=X=X=X=X&X=X=X=X&X=X=X=X=X=X=X&X+X+X+XOX|.`.oX+X=X+XOXOXOXOXOXOXOXOXOXOXOXOXOXOX+X+X+XOXOX].].]. X].].].].].].].].].].].].].].`.].].].].`.`.`.].`.`.`.].OXOXOX X].].].[._._.[.[._.[.[._.[.[.[._._._._._.r.e.e.r.r._.[.[._._._._.[._.[.].].].].].].]._._._._._.'._.`.].`.'._.'.'.`. X XOXOX XOXOX|.OXOXOXOXOXOX+X&X&X&XXXXXXX&X&X=X&X&X@X@X&X*X*X*X-X-X-X<X<X;XnX<X<XnX<X;X<XnX;X;X;X;X#XH.G.G.<.1.D v e 4 e e w d w d c  ...W ! Q E ` .. . .S.S.S.X.!  .X...S.X._ X. .C d g s 0 9 9 9 9 9 i i s f N N N N K P P L L L I I I U Y Y Y Y I I Y ] [ { { { d.j.z.V.U.Q.7XrXrXpXaXkXzXxXxXxXvXbXbXbXVXVXAXVXVXVXVXZXZXCXCXCXZXZXZXZXZXSXSXSXFXFXFXFXFXFXFXFXFXFXFXFXFXFXFXFXFXFXFXFXFXFXFXFXFXFXFXFXFXFXFXFXFXFXFXFXFXFXFXFXFXFXFXFXFXFXFXFXFXFXFXFXFXFXFXFXFXFXFXFXFXFXFXFXFXFXFXFXFXFXFXFXFXFXFXFXFXFXSXSXSXSXSXSXFXFXFXFXFXFXFXFXFXFXFXFXFXFXFXFXFXFXFXFXFXFXFXFXFXFXFXFXFXFXFXFXFXSXSXSXFXFXFXFXFXFXFXFXFXFXFXFXFXFXFXFXFXFXFXFXFXFXFXFXFXFXFXFXFXFXFXFXFXFXFXFXFXFXFXFXSXSX",
"s.f.j.x.x.x.x.x.z.z.z.z.z.z.z.x.z.x.x.x.x.j.j.j.j.x.x.z.z.n.n.n.V.V.B.Z.Z.U.Q.Q.!.7X7X7XrXrXyXpXaXaXsXkXkXxXxXxXxXvXvXvXvXxXxXxXvXxXcXcXcXxXzXlXkXkXkXkXfXfXfXkXjXkXkXkXkXjXjXjXjXaXyXyXtX9X0XqX4X4XY.I.C.N.N.b.z.f.u.u.{ { [ ] L P J f p u > * = = $ @ $ $ $ $ * 8 7 9 9 9 0 s s s s 0 9 9 9 9 9 9 9 i i s f f f f f f K K f f G f f s i i 9 9 & @ @ . . . . @ @ . . . . . @ . . @ @ @ @ @ @ @ @ @ # = = = @ @ @ = = = % = = = & * * > > * * * * * * * = = # $ # $ @ @ @ = $ $ $ = % % % % 5 6 6 6 6 6 6 5 % $ 5 % $ $ $ = @ @ @ . . . . . . . . . @ @ $ $ $ $ @ @ @ $ $ # # # # # $ $ @ @ $ # # # % % % % % * % % % % % % % % $ % % $ $ $ $ $ $ $ $ $ $ $ $ $ $ @ @ @ $ @ @ # @ . & g 1 . ; w h w d w w h h 9 w d d C ` Z ^ Q Z ^ ` ' ' X.^ Q C C W E W E c W c c g d g g g E E ! ! C W 1.( W 1.^ c Z W ^ ' 1.G.G.G.F.oX@X%X%X%X*X*X-X-X-X-X-X=X-X2X2X2X-X-X-X=X&X&X&X$X@X&X=X=X=X=X=X=X=X=X&X$X=X&X+XoX].OX+X+XOXOXOXOXOXOXOXOX XOXOXOXOXOXOX+XOXOXOXOX X].`.].`._.`.].`.`.].].].].].].].].`.`.`._.`.`.[.`.`.`.`.`.`.].].].`.[.[.[.[.[.[.[.[.[.[.[._._.[.[.[._.[._.r.q.q.e.r._.[.[.[._._.[.[._._._.`. X X X`.].`._._.`.`._._.`.`.`.'._._.'.'.].]. XOX|.].|.OXoXoXOXOXoXXXXXXX&X$X+XXX@X@X@X@X@X&X&X&X*X*X*X*X-X-X;X;XnXnXnX<XnXnXnX;X;X;XIXnX;X;X;X%XH.F.G.1.1./ A x e 3 3 3 x d e d ` S. .( ! ! E X...! ..S.S..._ o.! X.S... . .` E g s s s 0 9 9 9 i i p s B N N N J K P L I I I I I I I Y Y Y Y U I I Y ] { { u.d.j.z.V.U.Q.4X7XrXyXaXsXkXlXxXxXvXvXbXbXVXVXVXZXZXAXAXAXZXZXZXCXZXZXZXZXZXZXZXZXZXFXFXFXFXFXFXFXFXFXFXFXFXFXFXFXFXFXFXFXFXFXFXFXFXFXFXFXFXFXFXFXFXFXFXFXFXFXFXFXFXFXFXFXFXFXFXFXFXFXFXFXFXFXFXFXFXFXFXFXFXFXFXFXFXFXFXFXFXFXFXFXFXFXFXFXFXFXFXFXFXFXFXFXFXFXFXSXSXSXFXFXFXFXFXFXFXFXFXFXFXFXFXFXFXFXFXFXFXFXFXFXJXJXJXZXZXZXFXFXFXFXFXFXFXFXFXFXFXFXFXFXFXFXFXFXFXFXFXFXFXFXFXFXFXFXFXFXFXFXFXFXFXFXFXFXFXFXFXFXFXJX",
"g.f.j.x.x.x.x.x.z.z.z.z.z.z.z.x.z.x.x.x.x.j.j.x.x.x.z.z.z.n.n.n.V.V.V.B.B.Z.U.Q.W.!.7X7XrXrXtXyXaXaXsXkXkXlXxXxXcXvXvXvXvXxXxXxXvXcXcXcXcXxXzXlXkXkXkXfXaXaXfXkXjXkXkXkXjXjXjXjXjXaXyXtXtX9X0XqX4X4XY.C.N.N.b.z.k.f.u.i.{ [ ] U L K G f i 9 > * = = $ $ $ = $ $ % * 8 7 7 9 9 0 0 0 0 9 9 7 7 8 9 9 i i p f f N f f f f K K g g f f f f s u 9 * & @ @ . . . . . @ @ . . @ @ . @ @ @ = = = = $ $ = = $ @ $ $ @ @ @ @ $ $ % % = = * * > * * * * * * = = = # @ @ @ $ $ @ @ $ = $ $ $ = % % % % % 6 5 5 5 5 5 5 % $ % % = @ @ @ @ @ @ . . . . . . . . . . @ @ $ $ @ @ @ $ $ # @ # # # # $ @ @ @ @ $ # # % % % % * * % % % % % % % % $ $ $ $ $ @ $ $ $ $ $ $ $ $ $ $ $ @ @ $ $ @ @ @ @ . s a O ; 1 ; d g w 9 w g a ; g d x ^ Q ^ Q Z ^ ' ' ' ( ( C x Z ( ( c d E ~ ~ E g g g d E E h E Q E E c 1.W ` ^ W Z Z Z ^ -.8.G.G.D.H.#X%X%X%X%X*X*X-X-X-X-X-X-X<X2X2X-X=X=X=X=X=X&X&X&X@X$X&X=X=X=X=X=X=X=X&X=X&X$X$XOXOXOXOX+XOXOXOXOXOXOXOXOXOXOXOXOXOXOXOX+XOXOXOXOXOX X].].].].].`.`.`.].].[.[.].].].`.`.`.`._._.`.`.`.`.`.`._.`.`.`.`.`.[.[.].[.].].OX].[.].[.`.`.[.[.[.[.].[.r.t.e.r._.[.[.[.[.[.[.[.[._._.`.]. X X X].`._._._._.`.`._._.`.'.'.'.'.`.`. X|.OXOXOX|.|.OXOXOXOXOXXXXXXXXX$X&X&X&X@X&X&X&X&X&X&X&X&X%X*X%X*X-X-X;XnXnX<X<XnXnXnX;X;XIXIX;X;X;X;X%XH.F.G.8.<.' D x e e e 3 e c c d W 8. .Q  .! E ! S. .X...S.S. . .` ..S.S.X._  .` B w s s s s 9 9 i i s f N N N K P P L I I I Y ] ] ] Y Y ] Y Y I I Y Y ] { } d.s.j.x.n.B.Y.W.7XrXyXaXsXkXlXxXxXvXvXbXbXVXVXVXZXZXAXAXAXCXZXZXCXZXZXZXZXZXZXZXZXZXFXFXFXFXFXFXFXFXFXFXFXFXFXFXFXFXFXFXFXFXFXFXFXFXFXFXFXFXFXFXFXFXFXFXFXFXFXFXFXFXFXFXFXFXFXFXFXFXFXFXFXFXFXFXFXFXFXFXFXFXFXFXFXFXFXFXFXFXFXFXFXFXFXFXFXFXFXFXFXFXFXFXFXFXFXFXSXSXSXFXFXFXFXFXFXFXFXFXFXFXFXFXFXFXFXFXFXFXFXFXJXJXZXJXZXZXZXFXFXFXFXFXFXFXFXFXFXFXFXFXFXFXFXFXFXFXFXFXFXFXFXFXFXFXFXFXFXFXFXFXFXFXFXFXFXFXFXFXFXFXJX",
"g.g.f.j.x.x.x.x.z.z.z.z.z.z.z.z.x.x.j.x.x.j.j.x.x.x.z.z.z.b.n.n.V.V.V.V.V.Z.U.U.Q.W.!.7X7XrXtXyXaXaXsXfXkXlXxXxXxXvXvXvXvXxXxXxXxXcXxXcXxXzXlXkXkXkXfXsXsXaXkXkXjXjXjXjXjXjXaXaXaXyXyXtXtX9X0X5X4X4XI.C.N.b.z.k.k.u.u.i.[ [ Y L P J f p i 8 > * = = @ @ $ $ = $ % % % 5 6 7 7 7 9 9 9 9 7 7 7 8 9 9 i i s f f N f f f g K K K K f f f f s u > = @ @ @ @ @ @ . @ @ @ @ @ @ @ @ @ = = & = = = = = > = @ @ @ @ @ @ @ @ @ $ % % % = * * * * * * * * = = # @ @ @ @ @ @ @ @ @ $ = = = $ $ = % % % % % 5 5 5 5 5 % % $ % % % = @ @ @ @ . . . . . . . . . . . @ @ @ @ $ @ @ @ @ # @ # # # # $ @ @ @ @ $ # # % * * * * ; % % % % % % % $ $ $ $ $ $ @ @ $ $ $ $ $ $ $ = = $ @ $ $ @ @ . @ # > B ; . w , w C g ; w a a w d C d ^ C Q ' x ' X.Q Z ' ( C e c W W Q c g E E C W C g g c g g C ! E c c ( ( W ( Z Z ^ Z W ' 1.8.9.G.D..X%X%X%X%X*X*X-X-X-X-X-X-X<X<X2X-X=X*X*X*X=X=X=X=X&X@X$X&X=X=X=X=X=X=X=X=X$X$X+X+X+XOXOXoX+XOXOXOXOXOXOXOXOXOXOX+X+XOXOXOXOXOXOXOXOXOX X X].].].].`._.`.[.`.].].].].].].].[.`._._._.`.[.[._.`.`.`.`.`.].].}.OX].].].].].].].].].[.[.].].[.[.[._._._._._.[.[.[._._.[.[._._._._._.]. X X X X`._._._._.`.].].`.`.`.'.'.'.`.`.`.`.|.OXOX XoXOXOXOXOXOXOXOXXXXXXX$X=X&X&X&X&X&X@X&X*X&X@X&X*X*X*X-X-X<XnX<X;X;XIXIXnXnXnXnXIX;XnXnX;X;X#XH.F.G.8.-.^ v x x e 3 3 d C C E  .X.( ! ! ~ E S.X. .X.S.S... . .X.S.(.S.!  ...E w s s B s 0 9 i i s N B N N P P L L ] Y Y ] ] ] ] ] ] ] ] Y Y Y Y ] [ { } d.s.j.z.n.B.U.W.7XrXtXpXsXkXxXxXvXvXvXbXbXbXVXVXZXZXZXZXAXAXCXZXZXZXZXZXZXZXZXZXJXFXFXFXFXFXFXFXFXFXFXFXFXFXFXFXFXFXFXFXFXFXFXFXFXFXFXFXFXFXFXFXFXFXFXFXFXFXFXFXFXFXFXFXFXFXFXFXFXFXFXFXFXFXFXFXFXFXFXFXFXFXFXFXFXFXFXFXFXFXFXFXFXFXFXFXFXFXFXFXFXFXFXFXFXFXFXFXSXSXSXFXFXFXFXFXFXFXFXFXFXFXFXFXFXFXFXFXFXFXZXZXZXZXZXZXZXZXZXZXJXFXFXFXFXFXSXFXFXFXFXFXFXFXFXFXFXFXFXFXFXFXFXFXFXFXFXFXFXFXFXFXFXFXFXFXFXFXFXFXZXZXZX",
"g.g.f.j.x.x.x.x.z.z.z.z.z.z.z.x.x.x.j.j.j.j.j.x.j.x.z.x.x.z.n.n.V.V.V.V.V.B.I.U.Q.Q.W.7X7XrXrXtXpXaXaXfXkXlXxXxXcXxXvXvXvXxXxXxXxXcXxXxXxXzXlXkXkXfXsXsXsXfXkXkXjXjXjXjXjXjXaXaXaXyXyXtX9X9X0X5X4XY.I.C.N.b.k.k.j.u.i.{ [ ] U P P J p p u 8 * = = $ @ @ $ $ = $ % % % % * 6 6 6 7 8 7 7 8 7 7 9 0 i i s s f f N f f G K K K K K G f f f i 9 > & @ @ @ @ @ @ @ . @ @ @ @ @ @ @ = = = = = * * * 8 8 > = = $ = $ $ @ @ @ $ # % % = = * * = * = * * = = # @ @ @ @ @ @ @ @ @ $ $ = = $ $ $ % % % % % % 5 5 5 5 5 % % % % * * = @ @ @ . . . . . . . . . . . @ @ @ @ $ @ @ = = # @ @ # # # # # $ $ $ % # % * * * * ; ; * % % % % % % % $ $ $ $ $ $ $ $ $ $ $ $ $ $ = = @ $ $ $ $ @ # # # s d . 1 1 & C C w ; w g 9 h C d Q W C ( Q ' ' ^ ^ ( ^ c e d W c e c W W E g g C E g c C d g ! W C c E ..E  .W W Q ^ W ^ 1.1.8.9.G.H.@X%X%X@X@X*X*X*X-X-X-X-X<X-X<X2X-X=X=X=X=X=X=X=X&X&X&X&X=X=X=X=X=X=X=X=X=X$X$XXXXX+X+XOXOXOXOXOXOXOXOXOXOX XOXOXOXOX X X XOXOXOXOX X X X].].].].].`._.`.`.].].].].].].].].].`.`.`.`.`.].].`.`.`.`.`.`.]. XOXOX}.].[.].].].].].].].].].].[.[._._._._.[.[.].].[._._.[.[._._._._._.`.].]. X].`.`._._.`.]. X X`.`.`.'._._.`.`.`.`.]. XOXOXOXOXOXOXXXOXOXOXXXXXXX@X&X&X@X@X&X@X@X&X*X&X@X*X=X-X*X-X-X<XnX;X%X;XnXnXnXnXnXnXnXIXnXIX;X;X%XH.F.G.8.1./ A x x e 3 e h E W c ! X.X.!  .! ~ X.X.!  .v.S.S. . . .v.S.(. . ...~ s w s B B 0 9 i i f N B N N P P L L I Y Y Y ] ] ] ] ] ] ] ] Y Y Y ] { { i.d.j.x.c.V.I.U.W.7XrXtXpXsXkXxXxXxXvXvXbXbXbXVXVXZXZXZXZXAXAXZXZXCXZXZXZXZXZXZXZXJXFXFXFXFXFXFXFXFXFXFXFXFXFXFXFXFXFXFXFXFXFXFXFXFXFXFXFXFXFXFXFXFXFXFXFXFXFXFXFXFXFXFXFXFXFXFXFXFXFXFXFXFXFXFXFXFXFXFXFXFXFXFXFXFXFXFXFXFXFXFXFXFXFXFXFXFXFXFXFXFXFXFXFXFXFXFXFXSXSXSXFXFXFXFXFXFXFXFXFXFXFXFXFXFXFXFXFXFXFXZXZXZXZXZXZXZXZXZXJXJXFXFXFXFXJXFXSXFXFXFXFXFXFXFXFXFXFXFXFXFXFXFXFXFXFXFXFXFXFXFXFXFXFXFXFXFXFXJXJXZXZXZX",
"g.g.j.j.x.x.x.z.z.z.z.z.z.z.z.x.x.x.x.x.x.x.x.x.j.x.z.x.x.z.n.n.V.V.V.V.V.B.Z.U.Q.Q.W.!.7XrXrXrXyXyXaXsXkXkXlXxXcXxXvXvXxXxXxXvXxXcXcXcXzXzXzXkXkXkXfXaXaXfXkXkXjXjXjXjXjXaXaXaXaXyXyXtXtX9X0X5X4X4XI.C.N.b.k.f.u.i.i.{ [ Y U P J N p u 9 8 * $ $ $ $ @ $ $ $ $ $ $ $ % % * * * 7 7 7 7 9 9 0 0 s s s s f f f N g g K K K K K K K K f f u 9 > & @ @ @ @ @ @ @ @ @ @ . . @ @ = = = = * > 8 8 8 8 8 8 8 * * = = = $ @ $ $ $ = % = & = = = = = % = = = # @ @ @ @ @ @ $ $ $ $ $ # $ $ % % % * % % % 5 5 5 5 % 5 * % $ = % % $ @ @ @ . . . . . . . . . . . @ @ @ # # @ @ = = # $ $ $ # # # # # # # % * * ; ; ; * * * * % % % % % % % % % $ $ $ $ $ $ $ $ $ $ # # # # $ # # @ @ $ & * # s ; . w o w W g ; 1 h g d C d d W C ` Z ' 8.' ^ ^ ( Z c c C C d h C E C C c C g g E E c W ! ~ g C C ` ( Q X.Q ( Q ^ ^ ' 1.1.8.G.F.XX@X%X@X@X@X%X*X*X*X-X-X<X<X-X-X-X-X=X=X=X-X=X=X=X&X&X=X=X=X=X=X>X=X=X=X=X=X=X=X+X+X+X+X+X+XOXOXOXOXOXOXOXOX X X XOXOXOXOX XOXOX X X X X X X X`._.`.[.[.`.`.`.].].].].`.`.`.[.[.[.`.`.[.].].`.].].`.`.`.].].].].].].].].}.}.].].].].].].].[._._._._._._.[.].].].[.[.[.[.[._._._._.`.`.`.`.`.`.`.`._._._.`.].'.`.'.'.'.`. XOX].`.|.|.OXOXOXOXOXOXOXOXXXXX+X+XXXXX@X@X@X$X&X@X@X&X&X&X%X*X-X-X-X-X-X-XmX;X;X<XnXnX;XnXnXnXnXnXnXnXnX;X;X#XH.G.9.1.' W v x e e 3 e c E c W X. . .X.X. . .1. .! X.S.S. . .! ..S.S... .X._ s 9 s B B s 0 i i f N N J K P P P L I Y ] ] [ [ [ [ ] ] ] ] Y Y ] { { } d.s.x.z.n.B.Z.U.W.7XrXtXyXsXkXlXxXxXxXvXvXbXbXbXVXVXZXCXCXAXAXCXCXCXZXZXZXZXZXZXZXZXJXJXJXFXFXFXFXFXFXFXFXFXFXFXFXFXFXFXFXFXFXFXFXFXFXFXFXFXFXFXFXFXFXFXFXFXFXFXFXFXFXFXFXFXFXFXFXFXFXFXFXFXFXFXFXFXFXFXFXFXFXFXFXFXFXFXFXFXFXFXFXFXFXFXFXFXFXFXFXFXFXFXFXFXFXFXFXSXSXSXFXFXFXFXFXFXFXFXFXFXFXFXFXFXFXFXFXFXFXZXZXZXZXZXZXZXZXZXZXFXFXFXFXJXJXFXFXFXFXFXFXFXFXFXFXFXFXFXFXFXFXFXFXFXFXFXFXFXFXFXFXFXFXFXFXFXFXJXFXJXJXFX",
"s.g.j.j.x.x.x.z.z.z.z.z.z.z.z.x.z.z.x.x.x.x.x.j.j.x.x.x.x.z.b.n.n.V.V.V.V.B.Z.U.Q.Q.Q.W.7X7XrXrXyXyXaXsXkXkXlXxXxXxXxXvXxXxXxXxXxXcXcXxXxXzXzXkXkXkXfXaXaXfXkXkXjXjXjXjXjXjXaXaXaXyXtXtX9X9X0X5X4X4XI.C.N.b.k.f.u.i.{ [ Y U U P J f p u 9 8 = $ $ @ $ @ $ $ $ $ $ $ $ $ % % 5 6 7 7 7 9 9 0 i s s f f f f f f N K K K K K K K K K g f s u > > = @ @ @ @ @ @ @ @ . @ . @ @ & = > > > 8 8 8 9 9 9 9 9 8 8 8 6 * = $ $ $ $ $ $ # % @ # = = = % # # = # $ @ @ @ @ @ @ $ $ $ $ $ $ $ $ $ % % % * % % % 5 5 5 % % % % $ = % % $ $ @ @ . . . . . . . . . . @ @ @ @ # # @ @ = = # $ $ # @ # # # $ $ # # * * ; ; ; * * * * * * % % % % % % $ $ $ $ $ $ $ $ $ $ $ # # # # # # # @ @ $ & & 9 h # ; ; o g g w ; w C h c c d c x Q ^ ^ 1.' Q ( ^ ' Z d e c W d d c C c C g g c C E Q (  .! C C c Q ` W  .` W ` ^ ^ ^ ' 1.1.G.D.F..XXX#X#X@X@X%X*X*X*X*X-X-X<X-X-X-X-X*X*X*X=X=X=X=X&X&X=X=X=X=X=X>X=X=X=X=X&X:X:X=X$X+XOX+X+XOXOX XOXOXOX XOXOXOXOXOXOX+X+XOXOXOXOXOXOXOXOXOX X`._._.[.].[.`.].].].].].].].].`.[.[.[.`.`.`.`.].].`.`.`.`.`.].].}.].].].].].].].].].].].].].[._._.[._._._.[.].].[._._._._.[._.`.`.`._._._.`.`.`.[._._._._._._.`.`.`.`.`.`. XOXOXOX X XOXOXOXoX+XOXOXOX+X+X+X+X$X+X@XXX@X&X&X@X@X&X&X&X@X*X*X*X-X-X;X;XmXnX-XnXnXIX;XIXnXnXnXnXnXnXnX;X;X%XH.G.9.<.-.^ v x d e 3 3 g W Q E ` X.X.X.X.X. .S...!  .S.S.X. .!  .v.S.S. . ..._ s 9 E B s i i s f B K K P P P L L I ] ] ] [ { { [ [ ] ] ] ] ] { { } d.d.j.x.z.n.B.Z.Y.W.7XrXtXyXaXkXlXxXxXxXvXvXbXbXbXVXVXZXAXAXAXCXCXCXCXZXZXZXZXZXZXZXZXZXJXJXFXFXFXFXFXFXFXFXFXFXFXFXFXFXFXFXFXFXFXFXFXFXFXFXFXFXFXFXFXFXFXFXFXFXFXFXFXFXFXFXFXFXFXFXFXFXFXFXFXFXFXFXFXFXFXFXFXFXFXFXFXFXFXFXFXFXFXFXFXFXFXFXFXFXFXFXFXFXFXFXFXFXFXFXSXSXSXFXFXFXFXFXFXFXFXFXFXFXFXFXFXFXFXFXFXFXJXJXZXZXZXZXZXZXJXJXFXFXJXFXJXJXFXFXFXFXFXFXFXFXFXFXFXFXFXFXFXFXFXFXFXFXFXFXFXFXFXFXFXFXFXFXFXFXFXFXFXFXFX",
"d.g.f.j.j.x.x.z.z.z.z.z.z.z.z.x.x.x.x.j.j.j.j.j.j.x.x.x.z.z.b.b.b.b.V.V.V.V.Z.Z.U.Q.W.W.!.7XrXrXtXyXyXaXfXkXlXxXxXcXxXxXxXcXxXxXcXcXxXzXzXzXlXkXkXkXfXaXaXaXfXfXjXjXjXjXjXjXaXaXaXyXtX9X9X9XqX4X4XY.C.N.N.b.k.f.u.i.{ [ Y U L P J f p i 9 8 = = $ $ $ $ $ $ $ $ $ $ $ $ $ % 6 6 7 7 9 9 0 i s s B B N N N N B K K K K K K K K K g f f u 9 > = & @ @ @ @ @ @ @ @ @ . . = = > > > > 8 8 9 9 9 9 9 9 9 9 9 8 8 6 = = = $ $ $ $ = = $ $ = = % # # $ $ $ $ @ @ @ @ @ @ $ @ $ $ $ $ $ = = $ % * * % % % % % % % % % % = % % = # # @ @ . . . . . . . . @ @ @ @ @ @ @ $ @ @ = = $ $ # = $ # # # # # # # * ; ; ; ; ; ; * * * * % % % % % % % $ $ $ % $ $ % % % % # # # = # # @ @ @ & & & d 9 ; 9 - w g w w ; g C e d d C d Q Q Q X.^ W Z ` ^ Q e e C W d d d c C E E g g C E E !  .! C E ! C ` W Q ` Q W ' ^ W ^ ' 1.8.F.G.D.J.H.oXXX@X@X*X*X*X*X*X-X-X-X-X-X-X-X*X*X*X=X=X=X=X=X=X=X=X=X&X=X=X=X=X=X=X&X:X:X=X$X+X+XOXOXOXOXOXOXOXOX XOX XOX X XOXOXOXOXOXOX X XOXOXOXOXOX].`.`.[.`.`.`. X X].]. X X X X].].].[.`.`.`.[.].`.`.`.`.`.`.].].}.].].[.[.].[.].].].[.[.].].[.].].`._.`.`.[.[.[._._._._._._._.].].`._._._._._._._.`.`._._._._.]. X].`.`.`.|. XOXOX|.].OXOXOXOX+XOXOXOX+X$X$X$XXX+X@X@X@X$X$X&X&X*X*X&X*X*X*X*X-X-X-X-XmXnXmXnXnX;X;XnXnXnXnXnXnXnXnX;X;X%XH.F.9.1.-.' Z x x x e 3 h W  .E ! .. . . ...X.S...!  ...S.S.X.~ ! ..S.S.X. .7.7.~ s ~ B f s s s f N P P P P L L L Y Y ] ] [ { { [ [ [ [ [ { { { i.d.d.j.x.b.n.V.Z.U.W.4X7XrXtXyXaXjXlXxXxXxXxXvXvXbXbXVXVXVXVXAXCXZXCXCXCXZXZXZXZXZXZXZXZXZXJXJXFXFXFXFXFXFXFXFXFXFXFXFXFXFXFXFXFXFXFXFXFXFXFXFXFXFXFXFXFXFXFXFXFXFXFXFXFXFXFXFXFXFXFXFXFXFXFXFXFXFXFXFXFXFXFXFXFXFXFXFXFXFXFXFXFXFXFXFXFXFXFXFXFXFXFXFXFXFXFXFXFXFXFXFXSXSXSXFXFXFXFXFXFXFXFXFXFXFXFXFXFXFXFXFXFXFXFXFXFXFXZXZXZXZXJXFXFXFXJXJXZXZXSXFXFXFXFXFXFXFXFXFXFXFXFXFXFXFXFXFXFXFXFXFXFXFXFXFXFXFXFXFXFXFXFXFXFXJXFX",
"d.g.f.j.j.j.x.z.z.z.z.z.z.z.z.x.x.x.x.j.j.x.x.j.x.x.x.x.z.b.b.z.b.b.n.V.V.V.B.Z.U.U.Q.W.W.7X7XrXtXyXyXaXfXkXlXxXxXcXxXvXxXcXxXxXcXxXzXzXzXzXkXkXkXkXaXaXaXaXaXaXjXjXjXjXjXjXjXaXaXyXtX9X9X9X5X4X4XI.C.N.b.b.k.f.u.i.{ [ U U L P J p p i 9 8 * $ $ $ $ $ $ $ $ $ $ $ $ $ $ % 6 7 9 9 9 9 0 s s B B B B B B K K K K K K K K K K K f f f u > = & = = @ @ @ @ @ @ @ @ @ @ = = > > > 9 9 u u u u u 9 9 9 9 9 9 8 6 6 % = $ $ $ $ $ = $ $ # = # # # $ $ $ $ $ @ @ @ @ $ $ @ @ $ $ $ $ $ $ $ % * * % % % % % % % % % = = # $ @ @ @ . . . . . . . . . . @ @ @ @ @ @ @ @ @ @ = = # # = = # # # # # # % = & * ; > ; ; ; ; ; ; ; * * % % % % % % % % % % $ % % % % % % % % @ # @ @ # ; ; & d ; ; 1 1 g h w w h W w w C c C C W ^ ` ` ^ C Q Q x c d d x c h h C W E E W E E g c Q ! E C Q ! ! Q ( W ( Q C Q 1.^ Z ^ 1.8.9.G.G.D.J.H..X@X%X*X*X*X*X*X*X*X-X-X-X-X-X-X=X*X=X-X=X-X-X=X=X=X=X&X$X=X=X=X=X=X=X=X$X$X+X+X+X+XOXOXOXOXOXOXOXOXOXOXOXOXOX XOXOXOXOXOX X].].].]. X].OX X].].`.`.`.`. X].].]. XOXOXOX X X].[.`.`.`.].].`.`.`.`.].].]._.[.[.[.[.].].].].].].[.[.].].[.].`.`.].].].[._.[.[._._._._.[.].]. X].`._._._._._.`.].].`._._.`.`.`.`.`.`. X XOX|.`.`.`. XOX+XOXOXOXOXOX+X&X$X$XXX+X$X@X@X@X&X&X*X*X*X&X*X*X*X%X;X-X-X-XmXmX;XIXnX;XIXnXnXnXnXnXnXnXnX;X;X;XH.F.G.<.1.-.^ x x x e d d C  .Q ( ..X. .X......... .~  ...(...! ! X...S.S. .X..._ B E B f s s s f B P P P P L L Y ] Y ] ] [ { { [ [ { { { { { { d.d.g.x.z.V.V.Z.Y.W.W.4X7XrXtXyXaXjXlXlXxXxXxXvXvXbXbXVXVXVXVXAXCXZXCXCXCXZXZXZXZXZXZXZXZXZXJXJXFXFXFXFXFXFXFXFXFXFXFXFXFXFXFXFXFXFXFXFXFXFXFXFXFXFXFXFXFXFXFXFXFXFXFXFXFXFXFXFXFXFXFXFXFXFXFXFXFXFXFXFXFXFXFXFXFXFXFXFXFXFXFXFXFXFXFXFXFXFXFXFXFXFXFXFXFXFXFXFXFXFXFXFXSXSXSXFXFXFXFXFXFXFXFXFXFXFXFXFXFXFXFXFXFXFXFXFXFXFXJXJXZXZXJXJXFXFXJXJXZXZXSXFXFXFXFXFXFXFXFXFXFXFXFXFXFXFXFXFXFXFXFXFXFXFXFXFXFXFXFXFXFXFXFXFXFXFXJX",
"g.g.f.f.f.j.x.x.x.x.z.z.z.z.z.z.x.x.x.x.x.j.j.j.x.x.x.x.z.z.n.n.b.b.V.V.V.V.B.Z.Z.U.U.Q.W.W.7XrXtXyXyXaXsXkXlXxXxXxXcXcXcXcXxXxXxXxXcXxXxXlXkXkXkXkXkXsXfXfXfXfXaXaXaXaXaXpXpXpXyXyXtXtX9X0X5X4XY.I.C.N.N.b.k.f.u.{ { [ Y U L J G p p i 9 8 = $ $ $ $ $ $ $ $ $ $ $ $ 5 5 7 7 9 0 9 0 s s s B B B K K K K K K K K K K K K K K K f f u 9 > & & & @ @ @ @ @ @ @ @ @ @ = = > > 8 9 u u u u i i i i u 9 9 9 9 9 8 6 6 * % $ = = = = $ $ $ $ $ $ $ $ $ @ @ @ @ @ @ @ @ @ @ @ @ $ $ $ # % = = = = % % % % % % % % % $ * % # # $ @ @ . . . . . . . . @ @ @ @ @ @ @ @ @ @ @ # = # # # # % % # # = = * * > > > * ; ; ; ; % ; ; 7 * % % % $ $ % % % % % % % % = = = # # # @ * & # ; & ; s s & a ; w g - 1 g d C w d C c C W ` ( ( ` W C ^ c d C x x C d C c C W C C E E g d ! W g E ! C d Q E Q ( W ` W ( 1.W W ' 1.1.8.G.G.G.D.F..X@X%X%X%X*X-X-X-X-X-X-X2X-X=X-X-X=X=X=X=X=X=X=X*X=X=X&X=X=X>X>X=X=X&X&X+X$X$X+X+XOXOXOX+XOX X XOXOXOX X`. XOXOXOXOXOXOX XOX XOXOXOX].`.[.`.`.[.].].].]. X`._.`.[.`.[.].].].].].`.`.[. X].].].`.`.].].`.].[._.`.[.].].].[.[.[.[.].[.[.`._._._._._._._._._._._._._._._.[.]. X]._._.`.].`.].`.`.]. X]._._.`.`.'.'.`. X|.'.|.'.'.'. XOX+X+XOXoXoXOXOXOXXX+X$X$X$X@X@X@X$X=X$X$X*X*X-X-X*X#X-X-X-X<XmXnXnX;XnXnX;X;X;XIXnXnXnXnX-X;X;X;X#XH.F.G.1.1.W c e e h e c c Q  . .S.X.X. .S...X... .! Q X.S.S.X.! X.X.S.7.X.X.X. .~ E K B s s s s B P P P L L L ] ] ] ] ] [ [ ] ] [ [ { { { { { d.f.x.x.b.V.Z.Q.W.W.4X7X7XtXyXpXaXsXkXkXlXxXxXvXvXvXVXVXVXVXVXZXCXZXCXCXZXZXZXZXZXZXZXZXZXZXZXFXFXFXFXFXFXFXFXFXFXFXFXFXFXFXFXFXFXFXFXFXFXFXFXFXFXFXFXFXFXFXFXFXFXFXFXFXFXFXFXFXFXFXFXFXFXFXFXFXFXFXFXFXFXFXFXFXFXFXFXFXFXFXFXFXFXFXFXFXFXFXFXFXFXFXFXFXFXFXFXFXFXFXFXFXFXFXFXFXFXFXSXSXFXFXFXFXFXFXFXFXFXSXSXFXFXFXFXFXFXFXFXJXJXFXFXFXFXFXJXJXJXJXFXFXFXSXSXFXFXFXFXFXFXFXFXFXFXFXFXFXFXFXFXFXFXFXFXFXFXFXFXFXFXFXZXZXJXJXFX",
"g.g.f.f.j.x.x.x.x.x.x.x.x.x.x.x.x.x.x.x.j.j.x.x.j.j.x.x.x.z.b.n.b.b.V.V.V.V.V.V.Z.Z.U.U.W.W.7XrXtXtXyXaXsXkXlXlXxXxXcXcXcXcXxXxXxXxXcXcXzXlXkXkXkXkXfXfXaXaXaXaXjXjXaXaXaXaXpXpXyXyXtXtX9X0X5X4X4XY.C.N.N.b.f.u.u.i.{ [ Y U L J N p i i 9 8 = $ $ $ $ $ $ $ $ $ $ 5 5 5 7 7 9 0 0 s s B B B B K K K K K K K K K K K K K K g g g f s u 1 * = & & & & = @ @ @ @ @ & & = * > > 9 u u u u i i i i i u u 9 9 9 9 8 6 * $ $ $ = = $ @ $ $ $ $ $ $ $ $ $ @ @ @ @ @ @ @ @ @ @ @ @ @ $ $ $ # % % % % % % % % % % % % $ $ % % # # $ @ . . . . . . . . @ @ @ @ @ @ @ $ @ $ @ $ = = # # = = % % # # = = * * > > > > > ; ; ; ; ; ; ; * % % % % % % % % % = = % % % = % # # # # # @ ; 9 . 9 s ; w ; 1 d a w d g C d w C C C W ^ Q ` ' Z C Z C d e C C W ^ W C C c c g g E W E Q Q E C E g d C C ( ( Q X. .c ^ ' Z ^ ' 1.1.8.G.D.D.F.F.oX%X%X%X%X*X-X-X-X-X<X<X-X-X=X-X-X=X=X=X=X&X=X=X=X=X=X&X>X=X=X&X$X$X&X&XOX$X+X+X+X+XOX+XOXOX X XOXOXOXOXOXOXOXOXOXOXOXOX XOX X XOX].`.'.`.`.].].].].].].].`._.`.].].].].`.`.].].].`.`.`. X X].].]. X X`.[.[.].].].].[.[.`.`._.`.[.[.[.`.`.].[._._._._._._._._._._._.[.].]. X]._._.`.]._.`.`.`.`.`._._._.`.`._._.'.`.`.'.`.`.`.|.OXOXOX|.oXoX|.OXOXOXXX+X$X@X@X@X@X@X@X&X$X&X&X&X*X-X*X%X-X-X-X-XmXnXnX;XnX<X;X;X;XnXnXnXnXnX<X;X;X;X#XH.F.G.1.1.W c x e d d C E ! X.X.1...X. .....X... .! ~ ! X.p... .! o.v.7.X.X.X. ._ E K K f B B B P P P P L L I Y ] ] ] ] [ [ ] ] [ [ [ { } u.d.g.j.x.z.V.B.Q.W.5X7X7X7XrXtXyXpXaXsXkXkXkXxXxXvXvXbXVXVXVXVXVXZXCXZXCXCXZXZXZXZXZXZXZXZXZXZXFXFXFXFXFXFXFXFXFXFXFXFXFXFXFXFXFXFXFXFXFXFXFXFXFXFXFXFXFXFXFXFXFXFXFXFXFXFXFXFXFXFXFXFXFXFXFXFXFXFXFXFXFXFXFXFXFXFXFXFXFXFXFXFXFXFXFXFXFXFXFXFXFXFXFXFXFXFXFXFXFXFXFXFXFXFXFXFXFXFXFXFXFXFXFXFXFXSXSXSXFXFXFXSXSXFXFXFXFXFXFXFXFXJXJXJXJXFXFXFXJXJXJXJXFXFXFXFXFXFXFXFXFXFXFXFXFXFXFXFXFXFXFXFXFXFXFXFXFXFXFXFXFXFXFXFXZXZXZXZXZX",
"g.g.f.j.j.x.x.x.x.x.x.z.z.z.x.x.x.x.x.x.j.j.x.x.x.j.x.x.x.z.b.b.b.b.n.V.n.V.V.V.B.Z.U.U.W.W.7X7XtXtXyXaXsXfXlXlXxXxXcXcXcXcXxXxXxXxXxXxXzXlXkXkXkXfXfXaXaXaXaXaXjXaXaXaXaXaXpXpXpXyXtX9X9X0X5X4X4XY.C.N.n.b.k.u.u.i.{ [ Y L P J f f p i 9 8 = = $ $ $ $ $ $ $ $ $ 5 5 6 7 9 0 s s s B B B B E E K E ~ ~ P K K K K K K K K g f g f s u > & & & & & & & = @ @ = = & = > > > 9 u u u u u u u i i i u u 9 9 9 9 9 8 * = $ $ $ $ $ @ $ $ $ $ $ $ $ $ @ @ @ @ @ @ @ @ @ @ @ @ @ @ @ @ $ $ # # # # # % % % = = % % # # # # # $ @ @ . . . . . . . . @ @ @ @ @ @ @ $ $ $ $ $ $ $ # = = % % % & & = = * * > > > > > ; ; ; ; ; ; ; * * % % % % % % % % % % * * % % # # # # @ & & & 9 & d 1 - h ; a g a h g g C w d W Z Q ( ( ^ ' ^ x Z Q d d w x W Q Q C g C C C C C W ! ! c c d h d g E Q E ( ( Z 8.( Q ' W W ( ' 1.8.8.G.D.D.F.J.oX%X%X%X%X*X-X-X-X-X<X2X<X-X-X-X-X-X-X-X=X&X=X=X=X=X=X&X>X=X=X&X$X$X$X&XOXOXOXOX+X+XOX+XOXOXOXOXOXOX X XOXOXOX|.OXOXOX].OXOXOX].].].].'._.`.].].].].].].[.`._.]. X].[.[.`.`.].].].`.`.`. X].`.`. XOX X`.`.].].].].[.`.`.`.`._.`.`.[.[.`.`.].].[._.`._._._._._._.[._.[.`.`. X X_._.`.`._._.`.]._._.'._.`.`.`.'._.'.`.`.'.`.`.].OXOXOX|.`.|.|.oXOXOXOXXXXX$X$X@X@X$X$X&X&X$X$X*X*X*X-X-X-X-X-X-X;X;XnXnX;X<X-X;X;XIXnXnXnXnXnXIX;X;X;X#XH.F.G.1.1.^ c x x d c W Q !  .X.X.S.X.! X....... .! ~ ! X.....X.! ~ X.S...X...X.X.K K B f N B B P P P L I I ] ] ] ] ] [ [ [ ] ] [ [ [ { { d.d.j.x.z.b.V.U.W.7X7X7X7XrXtXtXyXpXaXjXkXkXlXxXxXvXvXbXbXVXVXVXVXZXCXZXCXZXZXZXZXZXZXZXZXZXJXFXFXFXFXFXFXFXFXFXFXFXFXFXFXFXFXFXFXFXFXFXFXFXFXFXFXFXFXFXFXFXFXFXFXFXFXFXFXFXFXFXFXFXFXFXFXFXFXFXFXFXFXFXFXFXFXFXFXFXFXFXFXFXFXFXFXFXFXFXFXFXFXFXFXFXFXFXFXFXFXFXFXFXFXFXFXFXFXFXFXFXFXFXFXFXFXSXSXSXZXZXFXFXSXSXSXSXFXFXFXFXFXFXJXJXJXJXJXJXFXFXJXJXJXJXFXFXJXJXJXJXFXFXFXFXFXFXFXFXFXFXFXFXFXFXFXFXFXFXFXFXFXFXFXFXFXFXZXZXZXZXZX",
"f.f.f.j.x.x.x.x.x.x.z.z.z.z.z.z.x.x.x.j.j.j.x.x.x.x.x.x.x.z.z.z.z.b.b.n.n.n.V.V.V.Z.U.U.W.W.W.7XrXyXyXaXaXfXkXlXzXxXxXcXcXcXxXxXxXxXxXxXzXlXkXkXsXfXaXaXaXaXaXaXaXaXaXaXaXpXpXaXpXyXtX9X9X0X5X5X4XC.N.N.N.b.k.s.u.{ [ ] Y U L P f f p u 9 8 = = $ $ $ $ $ $ $ $ $ 5 6 7 9 0 s s s B B B E E ~ ~ ~ ~ ~ ~ ~ ~ P P K K K G G g f f s u 9 * = & & & @ @ @ @ @ @ = & & = > > 8 9 u u i u i i u u u i u i u u 9 9 9 9 6 * $ $ $ $ = $ $ $ $ $ $ $ $ $ @ @ @ @ @ @ @ @ @ @ @ @ @ @ @ @ $ $ $ $ $ $ # % % % $ $ % % # $ # $ # $ @ @ @ . . . . . . . @ @ . @ @ @ @ $ @ @ $ $ $ $ $ $ = % % % & = = * * ; 8 > > > > ; ; ; ; ; ; ; * * * % % % % % % % * * * * % % # # % = & * ; & ; 9 d & h w w h h d d h C C w C Q Z Q ` ^ ' Q d x Q Z d d w c ( ( W C E W c c W ! ( W g g c c g g W ! Q ` E C C 1.( ' ( Z ^ ' 1.1.1.9.G.D.D.F.H.oX@X%X%X*X-X-X-X-X<X2X2X-X-X-X-X-X-X=X=X=X=X=X=X=X=X=X&X=X=X=X=X=X&X$X$X=X=X+X+X=X=X+X+XOXOX+XOXOXOXOXOX X X X|.OXOX X`.OXOXOX].].].].`._.[.].].].[.].].`._.`.].].].[.`.].`.`.`.`.`.].].].].`.`.]. X X`.].].].].].[.[.[.[.[.[.[.].].[.`._.`.].`._._._._._._._._.[._._._._.].].`._.`.`._._._._._._._._.`.`.`.`.'.'.`.`.`.`.`.`.|. XOXoXOX|.|.OXOXOXOXXXXXXXOXXXXX$X$X$X$X@X$X=X*X*X*X-X-X;X;X;X;X;X;X;X;XnX;X;X;XIXnXnXnXnXnXIX;X;X;X%XH.F.G.1.1.^ x x x x c E Q Q !  . .S... . ...UXS. .! ~ !  .........Q _ v...X...X.X.E K K B B K K P K P L I I ] ] ] ] ] [ [ [ [ [ [ { { { } d.g.j.z.z.b.B.U.W.7X7X7XrXrXtXtXyXpXjXkXkXkXlXxXxXvXvXbXVXVXVXVXVXZXCXCXCXZXZXZXZXZXZXZXZXZXJXFXFXFXFXFXFXFXFXFXFXFXFXFXFXFXFXFXFXFXFXFXFXFXFXFXFXFXFXFXFXFXFXFXFXFXFXFXFXFXFXFXFXFXFXFXFXFXFXFXFXFXFXFXFXFXFXFXFXFXFXFXFXFXFXFXFXFXFXFXFXFXFXFXFXFXFXFXFXFXFXFXFXFXFXFXFXFXFXFXFXFXFXFXFXFXFXSXSXSXSXSXFXSXSXSXSXSXSXFXZXZXZXZXZXZXZXZXJXJXFXFXJXJXFXFXFXJXJXJXJXJXJXFXFXFXFXFXFXFXFXFXFXFXFXFXFXFXFXFXFXFXFXFXFXFXFXFXJXZXZXZXCX",
"f.f.j.x.x.x.x.x.x.x.x.x.x.x.x.x.x.x.x.j.j.j.x.x.x.x.x.x.x.x.z.z.z.b.b.n.n.n.V.V.V.B.I.U.U.W.W.7XrXtXyXaXaXsXkXlXzXzXxXcXcXcXxXxXcXcXxXzXzXlXkXkXsXaXaXaXaXaXaXaXaXaXaXaXaXaXyXyXpXyXtX9X9X0X5X5XY.C.N.N.N.b.j.s.u.i.[ ] ] U P P f f i u 9 8 6 $ $ $ $ $ $ 5 $ 5 $ 5 7 7 0 s s B B B B E ~ ~ ~ ~ ~ ~ ~ ~ ~ ~ ~ ~ K K G G g f f f u u > & = & & = @ @ @ @ @ @ & = & * > 8 8 u u i i i i i p u u u i i i u 9 9 9 9 6 * $ $ $ = $ $ $ $ $ $ $ $ $ $ @ @ @ @ @ @ @ @ @ @ @ @ @ @ @ @ $ # $ $ $ $ # % % % # # # # # $ # $ @ @ @ @ . . @ @ @ . . @ @ @ @ @ @ @ @ @ @ @ $ $ $ $ $ $ % % % % & = * * * 8 9 > > > ; > ; ; ; ; ; * * * * * % % % # % % * * * * = % # # % = > & 1 9 ; w 9 1 g ; a d h h w h ! g d W Z Q Z W ^ ( x e Z W d d d d Q ` Q C C W C W ( ( C h d g C g c W W Q ! Q Q C C Q X.( ( c W ( ' 1.1.1.8.G.G.D.H.oXXX@X%X*X*X-X<X-X-X<X2X2X-X-X-X=X=X=X*X*X=X=X=X=X&X&X=X=X=X=X>X=X=X=X&X$X&X$XOXOX+XOX|.|.`.|.OXOXOXOXOXOX XOXOXOXOXOXOX XOXOX].].].].].`.`.].].].`.`.].].`._._.`.].[.`.`.]._._._.`.`.`.`.`.`.].`.`.].].].OX].].].].].[.`.[.].].].].].`._._._.`.`.`.`.`._.`._._.`.[._._._._.`.].`._._._._._._._.`.`.`._._.`.].`.`.`.`.|.`.`.`.`.|.|.|.oXOX|. XOXOX+XoXoXoXXXXXoXoXXXXX@X@X@X$X*X*X*X*X*X*X-X;X;XnX;X;X;XnX<X<X;X;XnXnXnXnXnXnXnXnX;X;X;X#XH.G.9.1.^ x x Z c x C ( ! Q  .X..... . .X.S.S.X.! ~ E ! ..S.S.S.! E  .S.X.X.....! E K B B K B P P P L L I I ] ] ] ] [ [ [ { { { { { { u.d.s.x.b.b.n.C.Y.W.7X7XrXtXtXyXyXyXpXaXjXkXkXkXlXxXvXvXvXbXVXVXVXAXAXCXCXCXCXZXZXZXZXZXZXZXZXZXFXZXJXFXFXFXFXFXFXFXFXSXSXFXFXFXFXFXFXFXFXFXFXFXFXFXFXFXFXFXFXFXFXFXFXFXFXFXFXFXFXFXFXFXFXFXFXFXFXFXFXFXFXFXFXFXFXFXFXFXFXFXFXFXFXFXFXFXFXFXFXFXFXFXFXFXFXFXFXFXFXFXFXFXFXFXFXFXFXFXFXFXFXSXFXFXFXFXFXFXFXSXSXSXSXSXSXSXSXJXJXJXZXZXZXZXZXJXJXJXJXFXFXFXFXJXJXFXFXFXJXJXJXJXFXFXFXFXFXFXFXFXFXFXFXFXFXFXFXFXFXFXFXFXFXFXFXJXZXZXCXCX",
"f.j.j.x.x.x.x.x.x.x.x.x.x.x.x.x.x.x.x.x.j.j.x.x.x.x.x.x.x.x.x.x.z.z.b.n.n.V.V.V.V.B.I.U.U.Q.W.7XrXrXyXyXaXsXkXlXlXzXxXxXcXcXxXxXcXcXxXzXzXlXkXkXaXaXaXaXaXaXaXaXjXjXjXaXaXaXpXpXyXyXtX9X9X0X5X4XY.C.N.N.b.b.j.s.i.i.[ Y U L P J f f i u 9 8 6 $ $ $ $ $ 5 5 5 5 5 6 7 0 s s B B B C E ~ ~ ~ ! ! _ ! ! ! ! ~ ~ ~ K K G G K g f s u 9 > & & & & @ & = @ @ @ & = = * > > 8 u u u p s s i i i i p p i i i u 9 9 8 8 * * $ $ $ $ $ $ $ $ $ $ $ $ $ $ @ @ @ @ @ @ @ @ @ @ @ @ @ @ @ @ $ # $ $ $ $ # % % # $ $ $ # $ $ $ $ $ @ @ @ . . @ @ . . . . @ @ @ $ $ $ @ @ $ @ @ $ $ $ $ $ # % = % = = * * ; 8 1 > > > ; ; > ; ; ; ; * * * * % % % % % # % % % * * = % # # = = @ 9 a 9 o a ; w h 1 1 d g ; ; E Q d C W Z ^ Z Z ( Z x Z ^ c w e d W ( Q C C C C Q W E C g d d d E g c Q Q Q Q Q d C C Q X.( W x ^ ( ' 1.8.1.9.G.G.F.H..XXX@X*X*X*X-X<X<X-X<X2X2X<X<X-X-X=X-X=X*X=X=X=X=X&X$X=X=X=X=X=X=X&X&X&X&X+XOX|.|.oX`.'.'.'.'.].|.`.`.`.`.]. XOXOXOXOXOX XOXOXOX].].].].`.].].].`.`.`.`.].`.`._.`.`.`.`.`.`._._.`.].`.`._.`.].].].`.].].].}.].].].OXOX]._.[.[.].].].[._._._._.`.`.`.].`.`.[.`.`.`.[._._._._.`.`.`._._._._.`._._.`.].].`._.]. X X`.`.`.`.`.`.`.|.|.|.|.{.{.|.|.OX+XOXoXoXoXOXXXoXoXoXXX@X@X@X&X%X*X%X%X*X-X-X-X;X;X;X;X;XnX-X;X;X<XnXnXnXnXnXnXnXnX<X;X;X%X#XG.G.1.) x v Z c d C ( ` ! !  .X...X.!  ...S.X.! ! E ~  ...S.S...E ! S.v. .X.7.X.~ B B f B B K P L L L I I Y Y ] ] [ [ ] { { { [ { { } s.g.z.b.V.V.Z.Y.W.7XrXtXyXpXyXyXyXyXaXjXkXkXkXlXxXvXvXvXbXbXVXVXVXAXAXCXCXZXZXZXZXZXZXZXZXZXZXJXZXJXFXFXFXFXFXFXFXFXSXSXFXFXFXFXFXFXFXFXFXFXFXFXFXFXFXFXFXFXFXFXFXFXFXFXFXFXFXFXFXFXFXFXFXFXFXFXFXFXFXFXFXFXFXFXFXFXFXFXFXFXFXFXFXFXFXFXFXFXFXFXFXFXFXFXFXFXFXFXFXFXFXFXFXFXFXFXFXFXFXFXSXSXFXFXFXFXFXFXFXSXSXZXZXSXSXSXJXJXZXZXZXZXZXZXJXJXJXJXFXFXFXFXJXJXFXFXFXFXJXJXJXJXFXFXFXFXFXFXFXFXFXFXFXFXFXSXSXSXFXFXFXFXFXFXZXZXZXCXCX",
"f.f.j.x.x.x.x.x.x.x.x.x.z.z.x.x.x.x.x.x.j.x.x.x.j.j.x.x.z.z.z.z.z.b.b.n.n.n.V.V.V.Z.I.I.U.Q.W.7X9XrXyXyXpXaXkXlXlXlXxXxXcXcXxXxXcXcXxXzXzXkXkXkXfXfXaXaXaXaXaXaXjXaXaXaXaXpXpXyXyXyXtX9X9X0X5X4XY.C.C.N.b.b.f.u.i.{ ] U U L J J f f i 9 9 8 6 5 $ $ $ $ 5 5 5 5 6 7 0 s s B B B C E ~ ~ ~ ! _ _ o.o._ _ ! ! ~ ~ E K K K K g f s u 9 > & & & & @ # # @ @ = = * * > > > 8 u u u i s s p p p p p p i i i u 9 9 8 8 6 6 $ $ $ $ $ $ % # # $ $ $ # # # @ @ @ @ @ @ @ @ @ @ @ @ @ @ @ $ @ @ @ @ $ # % % # $ $ $ $ # @ $ @ @ @ @ . . . @ @ . . . . @ @ @ @ @ @ $ $ $ $ @ $ $ $ $ $ # = # = = * * > > > > 1 ; ; ; 1 ; ; ; ; ; * * * % % % % % # # # % % * * = = % # # & @ s a & & a ; a w ; 1 g d - 1 ! C g Q Z Q ` Z ^ Z A A Q W e 3 d C ( Q C W Q ! Q W C c c d d c C ! Q Q Q Q W E c C C h Z X...W c ( ` ' 8.8.8.G.G.D.F.H.oXXX%X*X*X*X-X<X<X-X-X<X<X<X2X-X-X=X-X=X=X=X=X>X=X&X&X=X=X=X=X=X&X$X&X&X=X$X+XOX+X+XoX`.|.`.`. X X`.'.'.'.'.].OXOX X].].`.].OXOX XOXOXOX].].].].`.`.`.`.`.`.`.`.`.`.`.`.`.`.`.`.].].[.`.`.`.]. X].`.].].].[.[.].].].].[.`.].[.[.[.[.`._._._.`.`.`.`.].].`.[.`.`.[.[._._.`._.`.`.`.`._._.`.`.`._.`.`.`.`._.]. X].`.`.`.`.`.`.`.].|. X|.{.`.'.{.oXOXOX|.{.{.XXXXOXXXXXXX@XXX@X@X&X*X*X*X-X-X-X-X-X-X;X;XIX;X;X;X;X<X<XnXnXnXnXnXnXnX;X;X;X%X@XF.G.1.' c c Z c d C Q  .` ~ ! X.S...! ! ...... .! ! ! Q  .S.v.S. .~ X.v. . ...v.~ K K K K B P P L L L I Y Y Y ] ] ] ] ] { ] ] [ { { d.s.j.z.n.V.B.Z.Y.4X7XrXtXpXpXpXpXyXaXaXjXjXkXkXlXxXvXvXvXbXbXVXVXVXAXCXCXCXCXZXZXZXZXZXZXZXZXZXZXZXJXFXFXFXFXFXFXFXFXSXSXFXFXFXFXFXFXFXFXFXFXFXFXFXFXFXFXFXFXFXFXFXFXFXFXFXFXFXFXFXFXFXFXFXFXFXFXFXFXFXFXFXFXFXFXFXFXFXFXFXFXFXFXFXFXFXFXFXFXFXFXFXFXFXFXFXFXFXFXFXFXFXFXFXFXFXFXFXFXFXFXFXFXFXFXFXFXFXFXFXFXZXZXZXZXSXSXFXJXFXFXZXZXZXZXFXFXJXFXFXFXJXJXJXJXFXFXFXFXJXFXJXJXJXJXJXJXFXFXFXFXFXFXFXSXSXSXSXSXFXFXFXFXFXFXZXZXCXCXCX",
"f.f.j.x.x.x.x.x.x.x.x.x.x.x.x.x.x.x.x.x.x.x.x.x.j.x.x.z.z.b.n.n.b.b.b.n.n.n.V.V.B.B.Z.I.U.Q.W.7X7XrXrXyXpXaXkXlXlXlXxXxXcXcXxXxXcXcXxXzXlXkXkXkXkXaXaXaXaXaXaXaXaXaXaXaXaXpXyXyXyXtXtX9X9X0X4X4XY.C.C.N.b.x.f.d.i.i.] U Y L P P f f i 9 9 9 8 5 $ $ $ $ 5 5 5 5 7 9 0 s B B B B E ~ ! ! _  . . . .| o._ _ o.! _ E K K K K g f a u 9 > > > * & @ @ @ @ @ = * * 8 > > > > 9 u u u s s p p p p p p i i i i u 9 9 8 8 6 = $ $ = = % = # # $ @ $ # # # @ @ @ @ @ @ @ @ @ @ @ @ @ @ @ @ @ @ @ @ $ # % % # $ $ $ $ @ @ @ @ @ @ @ @ . . . @ @ @ . @ @ @ @ @ @ @ @ $ $ $ @ $ = % = $ = = # = = * > > > > > 1 ; ; > > ; > ; ; * % * * % % $ # # # # % % % * % = = % # # # > a & X a a ; a h + h g w 9 a W g C ` Z ` ` Z ^ x Z Z C d 3 3 c ` ` Z c W Q Q ( Q E W W W E W E ! ! ! Q W E c d E c c ( ' ( Q ( ( ' 1.1.1.8.J.D.H.J.F.H.XX%X*X*X*X-X<X-X-X-X-X-X-X-X-X*X*X=X=X*X&X&X>X>X=X=X=X=X&X&X&X&X&X&X&X&XOXOXOXOX+X|.`.OX|. XOXOXOX X`.'.'.`.].].`.`.].].'.`.]. XOXOXOXOX].].].`.`.`._._.`.[.[.[.].`.`._.`.`._.`.`._.`.].`.].`.`.]. X].[.`.[.[._._._.[.].].[.`._._._.`._._.`.].`.`.].].`.`.`.[.].].`.[.].`._.`.`.`._._.`.`.`.`._._._.`.`.].`.`.`.`.].|.`.|.`.`.`.|.|.{.`.'.'.|.OXoX{.{.{.{.oXXXOXXXXXXXXXoXoX@X*X*X*X-X-X-XmXmX-X-XmXnXnX;X;X<X<X;X;XnXnX;X;XnXIX;X;X;X#X%XF.G.1.' x x x Z x C W `  .~ ! X.S.1. .! X...S.X.Q !  .~ ! S.......E ! ..X. .X.S.~ B K K K B P K P L L I ] ] Y ] ] ] ] ] { [ ] { { } d.s.j.z.n.m.B.Z.Y.4X7XrXrXyXiXpXpXaXaXjXjXjXkXkXlXxXxXvXvXbXVXVXVXVXAXCXCXCXCXZXZXZXZXZXZXZXZXZXZXZXJXFXFXFXFXFXFXFXFXFXFXFXFXFXFXFXFXFXFXFXFXFXFXFXFXFXFXFXFXFXFXFXFXFXFXFXFXFXFXFXFXFXFXFXFXFXFXFXFXFXFXFXFXFXFXFXFXFXFXFXFXFXFXFXFXFXFXFXFXFXFXFXFXFXFXFXFXFXFXFXFXFXFXFXFXFXFXFXFXFXFXFXFXFXSXSXSXSXSXSXSXSXZXZXZXSXSXZXZXZXZXZXZXZXZXFXFXFXFXJXJXJXJXZXJXFXFXFXFXFXZXJXJXJXJXJXJXFXFXFXFXFXFXFXSXSXSXSXSXSXFXFXFXFXJXZXZXCXCXCX",
"f.j.j.x.x.x.x.x.x.x.x.x.x.x.j.j.x.x.x.x.x.j.j.j.x.x.x.x.x.z.b.n.n.n.V.V.V.V.V.V.B.Z.Z.U.U.Q.W.7X7XrXrXyXyXaXjXkXlXxXxXxXxXcXcXcXxXxXxXxXxXlXkXkXsXaXaXaXaXaXaXaXaXaXaXaXpXpXyXtXtXtXtX9X0X5X4X4X4XC.N.N.b.j.s.u.i.[ T U L L P J f f i i 9 8 6 6 $ $ $ $ 5 6 6 6 9 s s s B B E ~ ~ ! _  . . . . . . . . .o.o.o.o.~ ~ K K K g f a u 9 < > > & & & @ @ @ & = = = = > > > 8 8 9 i u i p s p p p s p i i i u 9 9 8 8 8 6 % = = = = $ $ @ @ @ @ @ @ @ @ @ @ @ @ @ @ @ . . @ @ @ @ @ @ @ # # # @ # # # # # @ @ @ @ @ @ @ @ @ @ @ @ . . . . @ @ @ @ @ @ @ @ @ @ @ $ $ $ $ $ $ $ $ $ = = * * = * * * * * 9 1 > ; * * > > ; > ; * & & * * # % % # # % * * $ * # # * # $ * a 9 o ; a w w h 1 1 g g w   d g h ` ' Q  .Z ( Z x Z C e C e C Q Q W Q ! E E Q Q ( ! W E E E E Q ( ( Q W E g d C E g W X.( Q ^ ` ` ' 1.1.8.G.G.D.D.F.H.H.oX%X*X%X-X-X1X-X-X-X-X2X*X*X=X-X-X=X=X*X@X=X=X&X=X=X&X+X&X&X=X&X=X$X+XOX}.oXOX+XOXOXOXOXOXOXOXOXOXOXOXOXOXOX].].]. X].]._._._._._.`.].OX`.`.`.`.].`.`._.[.].`._.`.`.`.`._._._._._.`.[.].].`.`.[.].].].`.`.`._._._._.`.`.`.`._._._._._._.`.]. X`.`.`.`.`. X].`.`.`.`.[.`._.`.`.`.`._.'.'.].].`._._._.'.`.`.`.`.]. X X].`.`.`.`. XOX X|.oX`.`.`.`.|.|.|.{.oXoXoX{.oXXX@XXXXXD.{.*X*X%X-X<XmXnXmXnXnXnXIX;X;X;X;XnXnXnX<X;X;X;XnX;X;X;X;X%X#XH.G.1.' D v x c W E E ` ..~ ! ..X.p.S.~ ! S.S...! Q o.! E X.X.S... .! ....o.o...X.~ K P K P K P P I _ ] ] ] I ] ] ] ] ] ] [ [ { { } d.s.g.z.B.V.B.Z.U.W.7X9XtXiXpXpXaXaXfXkXkXkXkXlXxXxXcXxXvXVXVXVXVXVXVXAXCXZXZXZXZXZXZXZXZXFXFXFXFXJXJXJXJXFXFXJXJXJXJXFXFXFXFXFXFXFXFXFXFXFXFXFXFXFXFXFXFXFXFXFXFXFXFXFXFXFXFXFXFXFXFXFXFXFXFXFXFXFXFXFXFXFXFXFXFXFXFXFXFXFXFXJXJXJXJXFXFXJXJXJXJXFXFXFXJXJXJXFXFXFXFXFXFXFXFXFXFXFXFXJXJXFXFXZXZXJXJXFXZXZXZXFXFXJXZXZXZXZXZXZXZXJXJXFXFXZXZXFXFXZXFXFXFXFXFXZXZXZXFXFXFXJXJXFXJXJXJXFXFXFXFXFXJXJXJXZXZXJXJXJXJXZXZXZXZXZXZXCXCXAX",
"g.j.j.x.x.x.x.x.x.x.x.x.x.x.x.x.x.x.x.x.x.j.j.j.x.x.x.z.z.z.b.n.n.n.V.V.V.V.V.V.V.B.Z.U.U.Q.!.7X7XrXrXyXyXaXjXkXlXlXxXxXxXxXxXxXxXxXxXxXxXkXkXjXsXaXaXaXaXaXaXaXaXaXaXaXpXpXyXtXtXtXtX9X0X5X4X4XY.C.N.N.b.j.s.u.{ [ [ Y L L P J f p i 9 9 8 6 6 6 6 6 6 6 6 7 9 9 s s B B E ~ ~ ! !  . . . .X.X.X. . . . .o.o.o.~ ~ E K K g f a u u 1 > > > & = = & & & = = * > > > > 8 8 9 u i u p s p p f f p p i i u 9 9 8 8 8 * % = = = # $ $ @ @ @ @ @ @ @ @ @ @ @ @ @ @ @ . . . . . @ @ @ @ @ @ @ @ @ @ @ @ @ @ @ $ @ @ @ @ @ @ @ @ @ . . . @ @ @ @ @ @ @ @ @ @ @ $ $ $ $ $ $ $ $ = = = % * * * * * * * * 9 9 > > * > > > > > ; ; * & & * % % % # # # % % % % # % * # % > 9 1 o - h 1 a h 1 a E s ; . C C d ` ' ^ ` Q W d x Z x d Z Z W Q W W ! W C W Q c E E E E E E E Q ` E E E d d E Q E c Q ` ' ^ ( ^ ( ' 1.1.1.G.G.9.F.F.H..X@X*X*X*X-X1X<X-X-X-X-X-X*X*X=X-X-X-X=X=X@X=X=X&X=X=X$X$X$X&X=X$X$X$X$X+XOXOXOX+XOXOXOXOXOXOXOXOXOXOXOXOXOXOXOX].]. X X]._._._.[.[._._._.`.`.`.`.].].].].[.[.`.`. X X`.`.`.`.`.`.`.`.].].`.`.`.].].].[.`.`.`._._._.`.`.`.`.`.`._._._._._._.]. X].`.`.].].`.`._.`.`.]. X X`.`.`.`.`.`._._.].].`._._._.'.`.`.`.`.]. X X|.`.`.`.`.OXOXOXOXOXOX X`.`.`.].oXoXoXoXXXXXXXXXXX@X@X{.F.@X*X*X-X-XnXIX<XIX<XnXnXmX;X;X;X;XnXnX;X;X;X;XnXnX;X;X;X/.H.H.G.8.-.D v e d c E !  .S.! E X...S.S. .! S.(.S. .E !  .E o.S.S.S.p.X.7.v. . ...X.~ K L P K P L L I ~ I ] ] ] ] ] ] ] ] [ { { { { } d.s.j.z.V.V.B.Z.U.W.6X9XrXiXpXaXaXaXfXkXkXkXlXxXxXxXxXxXvXbXVXVXAXAXVXAXCXZXZXZXZXZXZXZXZXFXFXFXFXJXJXJXJXFXFXJXFXJXJXFXFXFXFXFXFXFXFXFXFXFXFXFXFXFXFXFXFXFXFXFXFXFXFXFXFXFXFXFXFXFXFXFXFXFXFXFXFXFXFXFXFXFXFXFXFXFXFXFXFXFXFXFXJXJXFXFXFXJXJXJXJXFXFXFXJXJXJXFXJXFXFXFXFXJXJXFXFXJXJXJXJXFXFXJXJXJXJXJXJXZXZXZXZXJXJXZXZXZXZXZXZXZXZXZXZXZXZXJXJXZXFXFXFXFXJXZXZXZXFXFXFXJXFXFXJXJXJXZXZXFXFXJXFXJXJXZXZXZXJXZXZXZXZXZXZXZXZXCXCXAX",
"j.j.x.x.x.x.x.x.x.x.x.x.x.x.x.x.x.x.x.x.j.j.j.j.x.x.z.z.z.b.n.n.n.V.V.V.V.B.B.B.V.B.Z.U.Q.Q.!.7X7XrXrXtXpXaXjXkXlXlXlXxXzXxXzXzXxXxXxXxXlXkXkXjXsXaXaXaXaXaXaXaXaXaXaXaXpXiXyXtXtXtX9X9X0X5X4XY.Y.C.N.N.b.k.s.u.{ [ [ Y U L P J f p i 9 9 9 8 6 6 7 7 7 6 6 9 0 0 s B B E ~ ~ ! ! _  .X.X.X.X.X...X.X.X.X. .o.o.! ~ E E K g f a u u 1 1 > > > & & & & = = > > > > > 8 8 8 8 9 u u i p p p p p p p i i u 9 8 8 8 * * * = = $ $ $ $ $ @ @ @ @ @ @ @ @ @ @ @ @ @ @ . . . . @ @ @ @ @ @ @ @ @ @ @ @ @ @ @ $ $ $ @ @ @ @ @ @ @ @ . . . @ @ @ @ @ @ @ @ @ $ $ $ $ $ $ $ $ $ $ $ $ * * * * 6 6 * * * 8 1 > 1 > > > > > * ; ; ; * & & # % * % # # # % # * $ # * & & ; 8 1 ; . - d , a h , h E 9 o ; E g h ` X.^ Q ( ^ A Z A e x Q ` ` ! ` ` ( W c W W g d g g E Q ! Q E W Q E g E ( ! E c c ( ^ ( Q ( ^ ' ' -.1.8.G.G.G.H.F.H.oX%X*X-X-X1X-X-X-X-X-X-X-X*X*X=X-X-X-X-X=X=X=X=X&X=X=X$X&XXX$X$X$X$X$X$X$X$X+X+X+XOXOXOXOXOXOXOXOXOXOXOX X X X].].].].].`._._._.[.[.[._._._._._._.`.].].]._.`.`.`.OXOX].].].`.`.`.`.`.`.`.`.`.`.].].`.`.`.`.`.`.`.`.`.`.[.`.`.`.`._._._._._.`.].`._._.`.`.`.`.`.`.].].].].].`.`.`.`.`._._.[.[._._._._.'.`.`.`.`.]. X X|.].`.`.`.|.OXOXOXOXOX X`.`.`.].oXoXoXoXXX@X@XXXXX@X@X@XoXoX@X*X*X;X-X;X;X;X;X<XmXmX;X;X;X;X;X<X;X;X;X;XnXnXnX;X;X/.#XH.G.8.-.) v e d c W Q ( S.X.E  .....S.p. ...S.S...! ! X.! !  .S.S.S.....7...X.X. .K K ~ L P P L I I I I ] ] ] ] ] ] ] ] ] { { { { } u.s.x.b.V.B.Z.U.Q.W.4X7X9XyXpXaXaXaXkXkXkXkXlXxXxXcXxXvXvXbXVXVXAXVXVXAXCXCXZXZXZXZXZXZXZXZXZXZXZXJXJXFXJXFXFXFXFXFXFXJXFXSXFXFXFXFXFXFXFXFXFXFXFXFXFXFXFXFXFXFXFXFXFXFXFXFXFXFXFXFXFXFXFXFXFXFXFXFXFXFXFXFXFXFXFXFXFXFXFXFXFXJXJXJXJXFXFXJXJXJXJXFXFXJXJXJXJXJXJXJXJXFXJXZXZXZXJXJXZXZXZXZXZXJXZXFXJXZXZXZXZXZXZXZXZXZXZXZXZXZXZXZXZXZXZXZXZXZXZXZXZXZXZXZXZXZXZXJXJXFXFXFXFXFXFXJXZXZXZXJXJXFXFXZXZXZXZXZXZXZXZXZXZXZXZXZXCXAXAXAX",
"j.j.x.x.x.x.x.x.x.x.x.x.x.x.x.x.x.x.x.x.j.j.j.j.x.x.z.z.b.n.n.n.V.V.V.V.B.B.B.B.Z.Z.U.U.U.Q.W.!.7X7XrXtXpXaXsXkXlXlXlXxXzXzXzXzXxXxXxXxXlXkXkXjXaXaXaXaXaXaXaXaXaXaXaXaXpXiXyXtXtX9X9X9X0X5X4XY.Y.C.N.n.b.k.d.u.{ [ [ Y U L P J f f i i i 0 9 7 7 9 9 9 7 9 0 i s B B B ~ ~ ! _ _  . .X...............X.X. .| o.! ~ E E K g f a u u u 1 1 > > & = = = = = > > > > > 8 8 > 8 9 9 i u i p p p i i i i u u 9 8 8 6 = = * % = $ $ $ $ $ @ @ @ @ @ @ @ @ @ @ @ @ @ @ @ @ @ @ @ @ @ @ @ @ @ @ @ @ @ @ @ @ $ @ # @ @ @ @ @ @ @ @ @ . . @ @ @ @ @ @ $ $ @ @ $ $ $ $ $ $ % % % % $ $ = * * 6 8 8 * * * 8 > > 1 > > > > > * ; ; * * & # # # # # # # # % * * @ # # @ ; 9 ; 9 ; . 1 a , h a 1 g E 1 o h W d Q 1.1.Q Z ^ Z Z A A x Z Q ' ( Z ( W W W E C E C C E ~ !  . .Q C C C c E ( ! C E Q ! ` ( ^ Q ( ^ ' ' -.8.8.8.G.F.H.F.H.@X*X*X-X-X-X-X-X-X-X-X-X-X=X=X=X-X-X-X=X=X=X-X=X&X&X&X$X&XXX$X$X$X$X=X$X$X:X+X+X+XOXOXOXOXOXOXOXOXOXOX X X].].].`.`.].].`.`.`.`.`.[.[.[.`._._._._._._._._._.`.`.`.OXOX X X X`._._.`.].].`.`.`.].`.`.`.`.].[.[.`.`.`.`.[.].`.`.`.`._._._._._.'.'._._._._._.`.`.`.].].`.`.`.`.`.`.`._.`._.'.[._._._._._.'.`.`.`.`.].|.|.].`.`.`.`.].].|.oXOX|.|.`.`.|.].{.{.oX{.oX$XXXoXXX@XoX$X&X#X@X#X@X-X-X;X;X;X;X;X-X-X-X-X;X%X;X;X<X<X;X;X;XnXnX;X;X;X;XH.F.8.1./ v e e c Q Q W ..8.! ! ..X...(. . .S.S.S. .E !  .! o...p.S...X.v.S.v. . .~ K L L L L L I ] ] ] ] ] ] ] ] ] ] ] ] [ { { } } } d.j.n.V.Z.Z.U.Q.W.4X7X9XyXpXaXaXaXkXkXkXkXlXxXxXxXxXvXbXbXVXVXVXVXVXAXCXCXCXCXZXZXZXZXZXZXZXZXZXZXJXFXFXFXFXFXZXZXFXJXFXFXSXFXFXFXFXFXFXFXFXFXFXFXFXFXFXFXFXFXFXFXFXFXFXFXFXFXFXFXFXFXFXFXFXFXFXFXFXFXFXFXFXFXFXFXFXFXFXFXFXJXJXJXJXFXFXJXJXFXFXFXFXJXJXJXJXJXJXJXJXJXJXZXZXZXJXJXJXZXZXZXZXZXZXFXZXZXZXZXZXZXZXZXZXZXZXZXZXZXZXZXZXZXZXZXZXZXZXZXZXZXZXZXZXZXZXZXJXJXFXFXFXFXFXZXZXZXZXJXJXJXJXZXZXZXZXZXZXZXZXZXZXZXZXCXAXAXAXAX",
"j.j.x.x.x.x.x.x.x.x.x.x.x.x.x.x.x.x.j.j.j.j.x.x.x.x.z.z.b.n.n.V.V.V.V.B.B.Z.Z.Z.Z.Z.U.U.Q.Q.Q.!.7X7XrXtXpXaXsXjXlXlXlXxXzXxXzXzXxXcXxXxXxXlXkXkXaXaXaXaXaXaXaXaXaXaXaXaXpXiXyXtXtX9X9X0X0XqX4XY.I.C.N.n.b.j.s.u.i.[ ] Y U U L J N f p i i i 0 9 0 0 0 0 0 s s s B B B E ~ ! _  . .X.X.............p.....X.X. . .! ~ ~ E K g f a a u u 9 9 1 > & & & & * = = > > * * * 8 8 8 9 9 9 u i i i i i i i i i u 9 8 8 6 $ $ % = = $ $ $ $ $ @ @ @ @ @ @ @ @ @ @ @ @ @ @ @ @ @ @ @ @ @ @ @ @ @ @ @ @ @ @ @ @ # # @ @ . . @ @ @ @ @ @ @ . @ @ @ @ @ @ $ $ $ $ $ $ = = $ $ $ $ $ $ % % * * = * 8 8 * * * 8 > > > 8 > > > > * * * * & & # # # # # # # # & & # # & @ @ 9 9 * 9 & & h 1 3 h 1 w ~ ~ a & g E c  .8.' Z Q ^ x x A Z Z ( Q ` W C ^ Q ! ` ( W E W !  . .! ~ E C C W E ! ( E g W ! ! ( ( ` ( ` ( ^ ^ ' 1.1.1.9.G.F.H.H.oX%X-X-X*X*X-X-X-X-X-X-X-X-X-X-X=X=X=X=X=X=X=X=X=X$X$XXXXX$X$X$X$X$X$X=X=X$X$X+X+X+X+XOXOXOXOXOXOXOX X]. XOXOXOX].].].].].].]. X].].[.`.[.[.].`.`._._._._.`._.`._.`.].].]. X X].`.`.].].].].`.`.].`._.'.`. X].[.[.].[.].].[.].[.`.`.`.`.`.`.`.`._._.`.`._._._._.`.`.].].`.`.`.`.`.`.[._.'._.[._._._._._.`.`.'.`.`.`.`.`.`.`.|. X].].|.|.|.].`.`.`.`.`.`.`.{.oX{.{.OXXXoXoX@XoX&X&X*X*X#X#X;X-X-X-X-X;X;X;X;X-X-X;X;X;X;X<XnX<X;X;XnXnX;X;X;X;XH.F.8.1.' v e 3 d Q ! !  .S.! E p.p. .(...! S.S.p. .! !  .o.X. ...S.v.v.S.S...| X.o.K P ~ L L L L I I ] ] ] ] ] ] ] ] ] ] ] ] ] { } } d.j.z.V.Z.Z.Q.Q.W.4X7X7XtXpXaXaXaXfXkXkXlXzXxXxXxXxXvXbXbXVXVXVXVXVXAXCXCXCXCXZXZXZXZXZXZXZXZXZXZXFXFXFXFXFXZXZXZXZXJXJXFXFXFXFXFXFXFXFXFXFXFXFXFXFXFXFXFXFXFXFXFXFXFXFXFXFXFXFXFXFXFXFXFXFXFXFXFXFXFXFXFXFXFXFXFXFXFXFXFXJXJXJXFXFXFXFXFXFXFXFXJXJXJXJXFXFXFXFXJXJXJXJXFXFXJXJXZXFXFXFXZXZXFXZXZXZXZXZXZXZXZXZXZXZXZXZXZXZXZXZXZXZXZXZXZXZXZXZXZXZXZXZXZXZXZXZXZXZXZXZXZXZXZXZXZXZXZXZXZXZXZXZXZXZXZXZXZXZXZXZXZXZXZXCXAXAXAXAXAX",
"j.j.x.x.x.x.x.x.x.x.z.x.x.x.x.x.x.x.j.j.j.j.x.x.x.z.z.b.n.n.V.V.V.V.B.B.Z.Z.Z.Z.Z.Z.U.U.Q.Q.W.7X7X7XrXtXpXaXsXsXlXlXlXxXzXzXzXzXcXxXxXxXlXlXkXsXaXaXaXaXaXaXaXaXpXaXaXpXpXyXtXtXtX9X9X0X0X5X4XY.C.C.N.b.z.j.s.u.i.[ Y Y U U L P J N f p i i i i s s s s s s B B B E E ~ ! _ ` X.X.X.....v.v.....p.v.p...X.X.X.X.o.! ~ E K G f f a a u u 9 > > & & & & * = = = * = * * 8 8 8 9 9 9 9 u i i i i i u u u 9 9 8 6 * = $ = = = = $ $ = $ $ @ @ @ @ @ @ @ @ @ @ @ @ @ @ @ @ @ . . . . @ @ @ @ @ @ @ @ @ @ @ @ @ . . . @ @ @ @ @ @ @ . @ @ @ . @ @ $ # $ $ $ $ = = $ $ $ $ $ $ % % * * * * 8 8 8 * > 8 > > > 8 > > > * * * * = & # # # % # # % # @ @ # # & * # & 9 9 & 9 & ; g 1 h d ; a ! ~ a , g c Q ` 1.( Q ` Q x Z Z Z ^ ^ W Q Q ` X.X.` ( W W Q ! ` ` ! W E E Q ! ! ` ! C g W Q E C (  ...( ` ( ( ` ' -.1.8.G.F.H.oXoX@X*X-X-X*X-X=X=X-X-X-X-X-X-X-X-X=X*X*X=X=X=X=X=X=X&X$XXXXX$X$X$X$X+X$X$X=X$X$X+X+X$X+XOXOXOXOX+X$X+XOX]. XOXOXOX].].].].].].].]. X].].[.[.[.`.`.`.`._.`.[.[._.[.`._.`.`.`.]. X].].`.]. X X].`.`.`.`.'._.`. X].].].].[.`.`.`.].`.`._.`.`.[.[.`._.'._.`.`._._._._.`.`.`.`.`.`.'.`.`.`._._._.'.`.[.`._.'.`.`.].'.`.`.`.`.`.`.`.|.|.|.].{.].`.`. X|.`.'.'.'.'.{.oX{.{.oXoXoXXX@X@X@X@X*X-X*X%X%X;X-X-X-X-X;X;X;X;X-XnX-X;X;X;X;XnX<X;X;X;X;X;X;X;XH.F.8.1.' A e 3 d E ! (  .8.! E ..p.! S.S. .X.S.S.X.X.! ! o. . .X...v.v.S.S...o.X. .~ K ~ _ ] L I I L I ] ] ] ] ] I I ] ] ] ] ] [ } } u.s.z.V.B.Z.Y.Q.W.4X7X7XtXpXaXaXaXfXkXkXlXxXxXxXxXxXvXbXbXVXVXAXVXAXAXCXCXCXCXCXZXZXZXZXZXZXZXZXZXFXFXFXFXFXZXZXZXZXJXJXFXFXFXFXFXFXFXFXFXFXFXFXFXFXFXFXFXFXFXFXFXFXFXFXSXSXFXFXSXSXSXFXSXFXFXFXFXFXFXSXFXFXFXFXFXFXFXFXZXZXZXZXZXZXZXZXFXFXFXFXFXJXJXJXFXFXFXFXZXZXZXZXFXFXFXJXZXJXZXZXZXZXZXZXZXZXZXZXZXZXZXZXZXZXZXZXZXZXZXZXZXZXZXZXZXZXZXZXZXZXZXZXZXZXZXZXZXZXZXZXZXZXZXZXZXZXZXZXZXZXZXZXZXZXZXZXZXZXZXZXZXZXCXCXAXAXAXVXVX",
"j.j.x.x.x.x.x.z.z.z.z.x.x.x.x.x.x.x.x.j.x.x.x.x.z.z.b.n.n.V.V.V.V.B.B.P.I.I.I.I.I.I.U.U.W.Q.W.7X7X7XrXrXpXaXsXsXlXlXlXlXzXzXzXzXxXxXzXlXkXkXkXsXaXaXaXaXaXaXaXaXpXpXaXpXpXyXtXtXtX9X9X0X5X4X4X4XC.C.N.b.x.j.s.u.u.[ ] Y U L L P P J J N N N N N B B B B B B B B E ~ ~ ! _  . .X.......v.v.v.v.v.v.v.v.p.....X.X. .o.~ ~ E K g f f a a u u 9 > & & & & = * * = * * * * 8 8 8 9 9 9 9 9 i i u i i 9 9 9 8 8 6 * * * $ $ $ = = = = = = @ @ @ @ @ @ @ @ @ @ @ @ @ @ @ @ @ @ . . . . @ @ @ @ @ @ @ @ . . @ @ . @ @ @ @ @ @ @ @ @ @ @ . . @ . @ # # # = = $ $ = = $ % $ $ $ 5 6 6 6 6 * * * 8 8 8 8 8 > > > > > * * * * * * * # # # # & & & & # @ @ # & & & & > 9 ; & ; & w h w g a - a Q E 9 a g c ( X.1.' ` ` Z c Z Q W ^ W Q ( `  .( ` Q c c Z Q ( ` ! W W (  .` ` Q E h g ~ E g C ! ..1.1.( ( ( ( ' ' 1.8.G.G.F.#XoX#X%X*X*X-X-X*X=X-X-X-X-X-X-X>X-X-X=X=X=X=X=X=X=X:X=X=X=X+XOX&X+X$X+X+X+X$X=X$X$X+X$X$X+XOXOXOX+X+X+X+XOXOXOXOXOXOX].`.`.].].].`.`.].].].].].].`.[.[.`.`.`.[.[._.[._._.`.`.`.].`.`.`.`.`.`.`.`.`.`.`.`.`.`.`.].].].].].`.`._._.`.`._._.`.`.`.`._._._._._._._._.`.`.].].`._._._.'.`.`._._._._._._._._._._._.`.`.'.`.`.`.'.`.`.`.`.].|.`.].].].`. X|.`.'.'.'.`.].oX{.{.{.XXXX@X@X&X@X@X%X*X-X-X%X;X;X;X-X-X;X;X;X;X;X<X;X;X;X;X;X;X<X;X;X;XIX;X;X%XH.F.9.1.' Z d e d c (  .! ..X.E !  .o.X.S...! S.S...X.! !  . . .X.X.....v.S.S. . .X._ K P ~ ] ] ] I I I ] ] ] I I I I I ] ] ] ] ] { } u.d.j.z.V.B.U.Q.W.4X7X7XtXpXaXaXaXsXkXkXlXxXxXxXxXxXvXbXbXVXVXAXAXAXAXAXCXCXCXCXZXZXZXZXZXZXZXZXZXFXFXFXFXZXZXZXZXZXZXJXSXFXFXFXFXFXFXFXFXFXFXFXFXFXFXFXFXFXJXJXJXJXJXJXZXZXZXZXZXZXJXJXZXJXJXJXFXFXJXZXJXJXJXJXFXFXFXFXZXZXZXZXZXZXZXZXJXJXFXFXFXJXFXFXJXJXJXZXZXZXZXZXFXJXZXZXZXZXZXZXZXZXZXZXZXZXZXZXZXZXZXZXZXZXZXZXZXZXZXZXZXZXZXZXZXZXZXZXZXZXZXZXZXZXZXZXZXZXZXZXZXZXZXZXZXZXZXZXZXZXZXZXZXZXZXZXZXZXZXCXZXCXCXCXZXAXVXVXVX",
"f.j.x.x.x.x.x.z.z.z.z.x.x.x.x.x.x.x.x.j.x.x.x.x.z.b.n.n.V.V.V.V.B.B.B.I.I.I.U.U.U.U.Q.Q.W.W.W.7X7X7XrXrXpXaXsXsXkXlXlXlXzXzXzXzXxXzXlXkXkXkXsXsXaXaXaXaXaXpXpXpXpXpXpXpXpXyXyXtXtX9X9X0X5X4X4X4XC.C.N.b.x.j.s.u.u.{ [ [ U L L L P P P K J J B B K K K B B B K ~ ~ ~ ! _  . . .X.....v.v.S.S.S.S.S.S.v.p.p...X. . .o.! ~ E K G g f s a u u 9 > * = = = = * * * * * * * 8 8 8 8 9 9 9 9 u u 9 u u 9 9 8 6 * = 6 6 6 $ $ $ = % % = = = $ @ @ @ @ @ @ @ @ @ @ @ @ @ @ @ @ @ @ @ . . @ @ @ @ @ @ @ @ . . . . . @ # # @ @ @ @ @ @ @ @ @ @ @ . @ # # # % % $ $ $ = % % $ $ $ 5 6 6 6 6 6 6 * 8 8 8 8 8 > > > > * > * * = * * * * # $ @ # @ # & & @ @ & & & . & 9 > & & & ; h w h g 9 o h ~ E 1 C E Z ( 1.X.` ` ( Z Q Z Z C Q Q ` ` ! ! (  . .` ( ( ! ! ! ! Q ! ( Q C g g d g E E E E E  .X. .Q ^ ` ` ( ( -.1.8.9.G.H..X.X@X*X*X*X*X-X-X-X-X2X<X-X-X-X>X-X-X-X-X=X=X=X=X=X=X=X=X=X+XOX&X$X&X$X+X+X=X=X=X$X+X$X+XOXOXOXOXOXOXOXOXOXOXOXOXOXOXOX].].]. X X X].`.`.].].].].[.].].[.[.[.[.[.[.[._._.[.[.`.`.`.'.`.`.`.'.'.'.'.`.`.`.`.`.`.`.].].].].`.`._._._._._._.`.`.`._._._.`.`.`._.'.]._.`.`.`.`.`.`.`.'.'.`._.r.e.r._._._._._._._.'.'.`.`.`.`.'.'.`.].`.]. X|. XOXOX].`.`.`.`.`.`.{.|.oX{.{.oXXX$X$X@X@X@X%X@X@X-XmX;X;X;X;X;X;X;X;X;X;X;X;X;X;X;X;X;X;X<X;X;X;XnX;X;X#XH.F.G.<.-.D x 3 d c  ...~ ....E E  ... .S.S.! ..S.X...X.! ! !  .X.X.X.X...S.S.7.X...o.K K L I ] ] ] ] ] ] ] I I I I I _ ] ] ] ] ] ] } u.d.g.z.V.V.Z.Q.W.4X7X7XtXpXaXaXaXaXkXkXlXxXxXxXxXxXvXbXbXVXVXAXAXAXCXCXCXCXCXCXZXZXZXZXZXZXZXZXZXFXFXFXFXZXJXJXFXZXZXJXSXFXFXFXFXFXFXFXFXFXFXFXFXFXFXFXFXFXJXJXJXJXJXJXZXZXZXZXZXZXJXJXZXZXJXJXFXJXZXZXJXJXJXJXFXFXFXFXZXZXZXZXZXZXZXZXJXJXJXFXFXFXFXFXZXZXJXZXZXZXZXZXZXZXZXZXZXZXZXZXZXZXZXZXZXZXZXZXZXZXZXZXZXZXZXZXZXZXZXZXZXZXZXZXZXZXZXZXZXZXZXZXZXZXZXZXZXZXZXZXZXZXZXZXZXZXZXZXZXZXZXZXZXZXZXZXZXZXZXCXCXCXCXAXZXAXVXbXbX",
"f.x.x.x.x.j.x.z.z.z.x.x.x.x.x.j.x.x.j.j.x.x.x.x.z.b.n.n.n.V.B.V.B.I.U.U.I.I.I.U.U.U.Q.W.W.W.W.7X7X7X7XrXyXaXsXsXkXkXkXlXlXzXzXzXzXzXzXzXlXkXkXsXaXaXaXaXpXpXpXpXpXpXpXpXpXiXtXrX9X9X0X6X6X4XT.Y.I.C.N.N.x.j.s.u.u.{ [ ] ] U L L L L L L L L L P ~ ~ ~ ~ ~ ~ ~ ~ _ _  . . . .X...p.S.S.S.S.S.S.S.S.S.S.v.v.....X. . .! ~ ~ ~ K f g g s s a 9 9 > & & = * * & = * = * * * * * 8 8 9 9 9 9 9 8 8 9 9 8 8 * * * = $ % $ $ $ $ = = = @ @ @ @ @ @ @ @ @ @ @ @ @ @ @ @ @ @ @ @ @ @ @ @ . @ @ @ @ @ @ @ @ @ @ @ . . . @ . . @ @ @ @ . . . . . @ @ $ $ $ % % % % % % % $ $ $ $ % * 6 * * 8 8 8 8 > > > > > > > > * * * * * * % # @ @ @ @ # # # @ @ @ # # & . @ 1 9 ; . o 1 1 a a a g w   C C ~ a C C C ( 1.` ( X.W Z Q C W ^ W ` ` Q ` ( ( ` Q Q W E ! ! ( ! ! Q C c c c E c E E E C C ` ( Q ( Q ( ( ( W ' 1.1.1.G.F.F.H.%X*X*X*X*X-X-X-X-X-X<X-X-X-X-X-X>X-X-X=X=X=X=X=X=X=X=X&X+X+X+X&X=X=X$X+X+X+XOXOX$X=X$X+X+X+X+X+X+X+X+XOXOXOXOX+XOXOX].].OXOXOXOXOX].[.].].].].].].].].].].].[.[._._._._._._.`.`.`.].].`.'._._._._.`.`.].].].].].`.[.`.`.`.].`._._._.`.`.`.`._._.`.`.`._._._.`.`.`.`.`.`.[.].`.`.`.`._._.r.r.r._.'._.r.r._._._.'.`. X X`.'.'.`.'.'.`. X X|. X|.].`.|.|.`.`.|.oXoXoXoX{.oXXX@X@X&X%X@X%X*X*X%X;X-X-X;X%X;X;X;X;X;X;X#X%X;X;X;X;X;X;X;X;X;X;X;X;X;X%XH.G.G.8.-.^ x e d c  .X.!  ...E ~ ! .. . .S. .X.S. .X.p. .o.!  . .X... .X.S.S.v...X.| K K ~ ] ] | | ] ] ] ] L ] _ _ I I ~ ] ] I ] ] ] { d.g.x.z.V.Z.Q.Q.W.6X7XtXyXpXaXsXkXkXlXlXxXxXxXxXvXbXbXVXVXVXCXAXZXAXAXCXCXCXCXZXZXZXZXZXZXZXZXZXZXFXFXFXFXJXJXJXFXFXFXFXFXFXFXFXFXFXFXFXFXFXFXFXFXFXFXFXJXJXJXFXFXJXZXZXZXZXZXZXJXFXFXZXZXJXJXJXZXZXZXFXFXFXFXFXFXFXFXZXJXFXZXZXFXJXJXZXZXZXJXJXFXFXFXFXJXJXZXZXZXZXZXZXZXZXZXZXZXZXZXZXZXZXZXZXZXZXZXZXZXZXZXZXCXCXCXZXZXCXCXCXCXZXZXZXZXZXZXZXZXCXCXZXZXZXZXZXZXZXZXZXZXZXZXZXZXZXZXZXZXZXZXZXZXCXCXZXZXZXCXZXZXAXAXVXVXVXbXbX",
"j.x.x.x.x.x.x.z.z.z.x.x.z.x.x.x.x.x.j.j.j.x.x.x.z.b.n.n.V.B.B.B.B.I.U.U.I.I.I.U.U.U.W.W.W.W.W.7X7X7X7XrXyXaXaXsXkXkXkXlXkXlXlXlXzXzXzXzXlXkXkXsXaXaXaXaXpXpXpXpXpXpXpXpXiXtXrXrX9X9X0X6X6X4XT.Y.I.C.N.N.b.j.s.u.i.{ [ [ [ ] ] ] ] ] ] ] _ _ _ ~ _ _ _ _ _ _ _ _ |  . . .X.X.....v.S.S.S.S.S.S.S.S.S.S.S.v.p...X. . .o.! ~ ~ K g B g f s a a 9 ; & & % = * * * * * * * * * * 6 8 8 8 9 9 8 8 8 8 8 6 * = = = = $ % $ $ $ $ = = = @ $ @ @ @ @ @ @ @ @ @ @ @ @ @ @ @ @ @ @ @ @ @ @ . @ @ @ @ @ @ @ @ @ @ @ . . . @ . . @ @ @ @ . . . @ @ @ $ # # % % % % % % % % $ % % % 6 6 6 * * 6 6 * * 8 8 8 > 8 > > > * * * * = = # # @ @ @ @ # # # # @ @ # # & . @ ; 9 ; o o 9 ; h w a d 1 . C B ~ g C C W ' ' ( ^ 1.Q ^ Q W ^ ( ( ` ` Q ( ( ( ( Q ! ! W E C E c c c g g g d c E C E c h ! 8.W Q Q ! Q W ' ( ' 1.8.G.G.F.H.#X%X*X*X*X*X-X-X-X=X-X-X=X-X>X>X-X-X-X-X=X=X=X=X=X=X=X=X&X&X+X+X$X$X=X=X$X+XOXOXOX+X$X=X$X+X+X+X+XOXOXOXOX X`. XOXOXOX].].]. XOXOXOX].].]. X].].].].].].].].].].[.[.[._._._.`.`.[._.`.`.`.`.`.'.`._._._.`.].].].].`.].].`.`.`.`._._._.`.`.`.`._._.`.`.`._._._.`.`._.`.`.`.`._.`.[.`.`.`._._.r._._._.'._._._._.'._.'._._._.'.'.`.|.].OXOX X`.`.`.`.'.`.].`.|.oXXXoXoX{.{.oXXXXX@X&X@X@X@X%X%X%X*X-X;X;X%X%X;X;X;X;X%X%X;X;X;X;X;X;X;X;X;X;X;X;X;X;X%XH.F.G.<.-.D v d e g X.1.! ! S.! E ! X. . ...X. .S...X...S.X.!  . . ...X.X.v.S.v...X.X.~ K L ] ] ] ] | ] ] ] I _ ~ I L L I I I I I I ] ] } d.j.z.V.Z.Q.Q.W.6X7XrXtXyXpXaXkXkXlXzXxXxXxXxXvXvXbXVXVXVXAXZXZXAXAXCXCXCXCXZXZXZXZXZXZXZXZXZXJXFXFXFXFXFXFXJXFXFXFXFXFXFXFXFXFXFXFXFXFXFXFXFXFXFXFXFXJXJXJXFXJXZXZXZXZXZXZXZXZXJXJXZXZXZXZXZXZXZXZXJXJXZXZXZXZXZXZXZXJXZXZXZXZXJXJXZXZXZXZXZXJXZXFXFXZXZXZXZXZXZXZXZXZXZXZXZXZXZXZXZXZXZXZXZXZXZXZXZXZXZXZXCXCXCXCXZXZXAXCXCXCXZXZXZXZXZXCXZXZXCXCXCXCXCXCXCXCXZXZXZXCXCXCXCXZXZXZXZXZXZXZXZXZXCXCXCXCXCXCXAXAXVXVXVXVXbXbXbX",
"x.x.x.z.z.z.z.z.z.z.x.z.z.z.z.x.x.x.x.j.j.x.x.x.z.n.n.n.B.I.I.P.I.I.I.U.U.U.U.U.U.Q.W.W.W.W.W.7X7X7XrXrXyXyXaXsXjXjXkXkXkXkXlXlXzXzXkXkXkXkXfXsXaXaXaXpXpXpXiXpXiXiXiXtXtXtXrXrX9X7X0X6X6X4XY.Y.I.C.C.N.b.k.f.u.u.{ { { [ [ [ | | | | | | | | | | | | | | | | | X.X.X.X...v.v.v.S.S.S.S.S.S.S.S.S.S.S.S.S.v.....X. . .o.! ~ E K K g f s s a 9 8 * # # = * * * * * * * * * * * 6 8 8 8 8 8 6 6 6 = = * = = = = 6 $ $ $ $ $ $ = = $ $ @ @ @ @ @ @ @ @ @ @ @ @ @ @ @ @ @ @ @ @ @ @ . @ @ @ @ @ @ @ @ @ @ @ . . . . . . . . . . . . . @ @ @ # # % % % % % % % % % % 5 5 6 6 6 6 * * 6 6 8 8 8 8 8 8 8 8 > * * * = = # # # # # # $ $ # # # # # # # # # . # ; 1 & . . w 1 h w h h 1 . ~ g E E E W Q X.' ^ ( 1.^ ` Q ^ ( ( ` ( Q Q Q ! Q Q ! ! W C g c c d g c c g c d g c a h c W X.` E Q W ( W W ' ' ' 1.G.G.F.F..X%X%X*X-X-X-X-X-X-X-X=X*X*X-X-X>X-X-X-X=X=X=X=X=X=X=X=X=X=X$X+X$X$X+X$X=X=X+X+X+X=XOX$X=X$X+X+X+XOXOX+X+XOX X].|. XOXOXOXOXOXOX].OXOX].].].].].].].[.].].].].].].[.[.[.[.[.[.[.[.[._._.`.].[.`.`.`.r._._._.`.[.[.[.`.]. X[._._._.`._._._._._._._._.`.`._._._._._.`._.`.`._._._._.].`.`.[.[._._.r._.[._._._._._._._.0.r._._._._.`.`. X XOX].`.`.|. X'.`.`.].oXOXOXXXoX{.{.oXoXXX@X&X@X@X#X@X%X%X;X-X;X;X;X%X%X;X-X-X%X;X;X;X;X;X;X;X;X;X;X;XIX;X;X;X%XH.F.G.1.' D v x 3 h  .S.W W S...G !  .X. . .X.X.v.S.X.X.S.p.!  . . .X.X.X...v.S...X...| ~ L _ ] L ] | | ] ] ] I L L L L P L P P I I I ] ] } d.x.b.B.U.Q.Q.W.7X9XrXyXpXaXfXkXlXxXxXxXxXvXvXbXbXVXAXVXAXZXZXCXAXCXCXCXZXCXZXZXZXZXZXZXZXZXZXFXFXFXJXJXJXFXJXFXFXFXFXFXFXJXJXJXJXFXFXFXFXZXZXZXZXJXJXJXZXJXJXJXJXFXFXZXZXZXZXZXZXZXZXZXZXZXZXZXZXZXZXZXZXZXZXZXZXZXZXZXZXZXZXZXZXZXZXZXZXJXFXFXJXJXZXZXZXZXZXZXZXZXZXZXZXZXZXZXZXZXZXZXZXZXZXZXZXZXZXZXCXCXCXCXCXZXCXCXCXCXCXCXZXCXCXCXCXZXZXZXZXCXCXCXCXCXCXCXCXCXCXCXCXCXCXZXZXCXCXCXCXCXCXCXCXZXZXAXAXVXVXVXVXVXbXbXbXbX",
"x.x.x.x.z.z.z.z.z.z.z.z.z.z.z.z.x.x.x.x.j.x.x.z.n.n.n.V.B.I.I.I.U.U.U.U.W.W.U.U.U.W.W.W.W.W.W.!.7X7XrXtXyXyXaXsXjXjXkXkXkXkXzXlXzXlXkXkXkXkXfXsXaXaXaXpXpXpXiXiXpXpXiXtXtXrXrXrX9X7X0X6X5X4XY.Y.C.C.N.N.b.k.f.d.u.u.} } } [ { } } } } } } } } } } } } } } } } X.........v.v.S.v.S.S.S.S.S.S.S.S.S.S.S.S.S.S.....X.X. .o.! ~ ~ E K g g f s a 9 > * # # & = = & = * * * * = = * * 6 * * * 6 6 = = * 6 6 6 = $ $ 6 $ $ $ $ $ $ = = $ $ $ @ @ @ @ @ @ @ @ @ @ @ @ @ @ @ @ @ @ @ @ @ @ @ @ @ @ @ @ @ @ @ @ @ . . . . . . . . . . . . @ @ @ @ # # % % # # % % % % % % 5 % 5 5 6 6 * * 8 8 8 8 8 8 8 8 > > * > * * = = # # # # # # # $ # # # # # # # # # @ & ; ; & . & w ; d 1 h w ; . _ g g ! Q Q ^ ' ` ^ ' ' ` ( Z W ` ( ` ( ( ( ! ( Q C C c W Q c c d d g c d h d d h c g c E ( ` c E W Z ( Q ^ ` ' 1.1.8.G.F.H.XX@X*X-X-X-X-X-X-X-X<X-X*X*X-X>X>X-X-X-X=X=X=X=X=X=X$X=X=X=X&X$X$X$X$X=X=X=X$X$X$X=XOX$X=X$XOXOXOXOX+X+X$X+XOXOXOXOXOXOXOXOXOXOXOXOXOX].].].].].].].[.[.].].].].].].].].].].].[.[.[._._.`.`.[.`.`._.r._._._._.`.`.`.`.].].`._._._.`.`._._._._._.`.`.`.`.`._._._._.`._._._._._._._.`.`.`.[.[._._.r._._._._._.`.`.`._._._._._._._._._._.`.`.'.'.`. XOX`.|. XOX|.OXOXXXoX{.{.oXXXXX@X@X%X@X#X%X%X%X;X;X;X-X;X%X%X;X-X-X%X;X;X;X;X;X;X;XnX;X;X;X;X;X;X;X#XH.F.G.1.' D x e 3 h Q S.! E ..S.E ~ o.X.X. . .p...S.X. . .S.X.o. . . . .X...X.S.....v..._ P L _ L L | | ] ] I L L L P P P P P P P P I I ] } d.g.x.V.Z.U.Q.W.4X0X9XtXpXaXsXkXlXxXcXxXvXvXvXbXbXVXAXVXVXAXZXCXCXCXCXCXZXCXCXZXZXZXZXZXZXZXZXJXFXZXZXZXZXZXZXZXZXFXFXFXFXJXJXJXJXJXFXFXFXZXZXJXJXZXZXZXZXJXZXZXZXFXZXZXZXZXZXZXZXZXZXZXZXZXZXZXZXZXZXZXZXZXZXZXZXZXZXZXZXZXZXZXZXZXZXZXZXZXZXZXZXZXZXZXZXZXZXZXZXZXZXZXZXZXZXZXZXZXZXZXZXZXZXZXZXCXCXCXCXCXCXCXCXCXCXCXCXCXCXCXZXCXCXCXCXCXCXCXAXCXCXCXCXCXCXCXCXCXCXCXCXCXCXCXCXCXCXCXCXCXCXAXAXAXAXVXVXVXVXVXVXbXbXbXbXvX",
"x.z.x.x.z.z.z.z.z.z.z.z.z.z.x.x.z.z.x.x.x.x.z.b.n.n.V.V.B.I.I.I.U.U.U.T.W.W.W.Q.W.T.W.W.W.W.W.!.7X7XrXtXyXyXaXsXjXjXkXkXkXzXzXzXlXkXkXkXkXfXfXaXaXaXdXpXiXiXiXiXpXiXiXtXtXrXrX9X9X0X7X5X5X4XY.I.m.N.M.N.b.k.j.s.u.u.u.u.u.} u.u.p.h.p.h.h.h.h.h.h.p.................p.v.v.S.S.S.S.S.S.S.S.(.(.(.S.S.S.S.S.S.v...X.X. . .! ~ ~ E E K g g s a 9 > & # # & # @ # = % = = = = % % * 6 * = * 6 * = $ = 6 6 6 = $ $ % $ $ = $ $ $ = = $ $ $ $ $ @ @ @ @ @ @ @ @ @ @ @ @ @ @ @ @ @ @ @ @ @ @ @ @ @ @ @ @ @ @ @ . @ @ . . . . . . . . . @ @ @ @ $ # # # # # = = $ % % % % % 5 6 6 6 6 8 8 7 8 8 8 8 8 > > * * * * * = = = = = = # # $ $ # # # # # # # # # # # ; ; & & ; 9 # h ; h 1 ; o ! a s X. .( ( ` ( ^ ' ^ ^ ^ Z Z ^ ^ Q Q Q Q ! Q Q W Q Z C W c c c g c g h a h h d h c W E W W W c C Z ^ Q ( ` ' 1.1.8.G.F..XXX%X-X-X>X-X-X-X-X-X-X=X*X=X-X-X-X-X>X>X=X=X=X=X=X=X+X$X$X$X$X$X&X$X:X=X=X&X&X$X+XOX$X=X=X$XOXOX+X+X=X+X+X+X=X=X+XOX+XOXOXOX+XOXOXOXOX].].].].].].].].].].].].].].[.].[.[.].[.[.`.`.`.`.`.`.[.[.[.[._._._._._.`.`.[.`._._._._._._._._._._._._.`.].].`.`.`._._._._.`.`._._._._._._._.`.`.`.`._._.r._._._._.`.`.`.`.`._._.`.`.`.'._._.'.'.'.'.'.'.`.`.`.|. X|.|.|.oXOXoXoXoXXX@X@X@X@X@X@X#X@X%X@X@X%X;X-X;X%X@X%X;X%X;X;X;X;X;X;X;X;XnX;X;X;X;X;X;X;X%XH.F.G.1.' Z x e 3 h E S.` E  .S.! E !  .X. . .v.....v. .! ..S. . . . .o.X.S.....p.v.v..._ ~ P L L L ] | | ] L _ I I P P P P P P P P P I Y { { d.j.b.B.Z.U.W.4X0X9XtXyXpXaXkXlXxXxXxXvXvXbXbXbXVXAXVXVXAXAXCXCXCXCXCXCXCXCXZXZXZXZXZXZXZXZXZXZXZXZXJXJXZXZXZXZXFXFXFXFXFXFXFXFXFXJXJXJXFXFXFXZXJXJXJXJXJXJXZXZXJXJXZXZXZXZXZXZXZXZXZXZXZXZXZXZXZXZXZXZXZXZXZXZXZXZXZXZXZXZXZXZXZXZXZXZXZXZXZXZXZXZXZXZXZXZXZXZXZXZXZXZXZXZXZXZXZXZXZXZXZXCXCXCXCXCXCXCXCXCXCXCXAXAXAXAXAXAXCXCXAXAXAXAXAXAXAXAXCXCXCXCXCXCXCXCXAXAXAXAXAXCXCXCXCXCXAXAXAXAXZXZXAXAXVXVXVXVXVXVXbXbXbXvXvX",
"z.x.x.z.z.z.z.z.z.z.z.z.z.z.x.x.x.z.z.x.x.x.z.b.n.V.V.V.B.P.I.I.U.U.Q.W.W.W.W.W.W.W.W.W.W.W.!.!.7X7XrXrXtXyXaXaXaXjXkXkXkXzXzXzXkXkXkXkXfXfXfXaXaXaXpXpXiXiXiXiXiXiXiXtXtXrXrX9X9X0X7X4X4X4XY.I.m.N.N.b.b.k.j.f.u.u.u.u.u.s.h.h.h.h.h.h.h.h.h.h.v.v.v.v.v.v.v.v.v.v.S.S.S.S.S.S.S.S.(.(.(.(.(.(.(.S.S.S.S.S.v.p...X. . .o.~ ~ ~ E K g g s a 9 * # # # & @ @ @ = # # = = % = % * * * * 6 6 * = = = = = = % % 5 5 $ $ = $ $ $ = $ $ $ $ @ $ @ @ @ @ @ @ @ @ @ @ @ @ @ @ @ @ @ @ @ @ @ @ @ @ @ @ @ @ @ @ @ @ @ @ . . . . . . . . . . @ @ @ # # # # = # $ = % % % % 5 5 6 6 6 6 8 8 7 8 8 8 8 8 > * > * * * * * = = = = = # # $ @ $ # # # # # # # # . # ; ; ; & ; 9 & # h + h 1 ; # g 1 s ..X.( ( ' ( ( ^ ^ Z ^ Z Z Z W C W W W W Z W Q ( ! Q W E C E c g g d c c c g d E Q ! Q c g x c Q W W ( ` 1.1.1.G.F..XXX#X*X-X-X-X-X-X-X-X-X@X&X*X-X-X-X-X-X>X>X=X=X=X=X=X&X+X$X$X$X$X$X$X&X=X$X+X$X$X$X+XOX&X=X=X&X+X+X+X+X+XOXOXOX+X=X+XOX+XOXOXOXOX+XOXOXOXOXOX X X X X].].].].[.].].[.[.].].[.[.[.`.`.`._._._.`.[.].].]._._._._.`.`._.`.`._._._._._._._._._._._.`.`.].`.`.`.`._._._._.`.`._._._._.`.`._.].`._._._._._._._._.`.`.`._.'._._._.`. X X].`.`.'.'.'.'.'.'.'.'.'.`.|.`.`.`.oXoXXXoXXXXX@X@X@X@X@X@X%X%X%X%X%X%X;X;X;X;X%X%X%X%X;X;X;X;X;X;X;X;XnX;X;X;X;X;X;X#X%X#XH.G.<.' Z l e 3 a E S. .E ! .. .E E !  . . ...S...S. . ...S.S.X. .X.o.o...S...S.S...X.| ~ P ~ L L L ] | | L I I I P P P P P P P P P I I ] { d.g.z.V.Z.U.W.4X0X9XtXyXpXaXkXkXxXxXxXvXvXvXbXbXVXVXVXVXVXAXAXCXCXCXCXCXCXCXCXCXZXZXZXZXZXZXZXZXZXZXJXJXZXZXZXZXZXZXZXZXJXJXZXZXFXFXJXJXFXFXFXFXZXZXZXZXJXZXZXZXJXJXZXZXZXZXZXZXZXZXZXZXZXZXZXZXZXZXZXZXZXZXZXZXZXZXCXCXCXCXZXZXZXZXZXZXZXZXZXZXZXZXZXZXZXZXZXZXZXZXCXCXCXCXCXCXCXCXCXCXCXCXCXCXCXCXAXAXAXAXAXAXAXAXAXAXAXAXAXAXAXAXAXAXAXAXAXAXCXCXCXCXCXCXCXCXAXAXAXAXAXAXCXCXAXAXAXAXAXAXAXAXVXVXVXVXVXVXVXVXbXbXvXvXvX",
"x.x.z.z.z.z.z.z.z.z.z.z.z.z.x.x.x.x.x.x.x.x.z.b.n.V.B.B.B.P.U.U.U.Q.W.W.W.W.W.W.W.W.W.W.W.!.!.W.!.7X7XrXtXyXyXpXaXaXjXkXkXkXzXzXkXkXkXkXfXfXfXaXaXaXpXpXiXiXyXyXiXiXiXtXtXrX7X7X7X0X6X4X4XT.Y.I.C.C.N.N.z.k.j.f.h.h.h.h.h.h.h.h.l.k.l.l.l.l.l.l.l.l.l.c.S.c.S.S.S.S.S.S.S.S.S.S.S.(.(.(.(.(.(.(.(.(.S.S.S.S.v.p...X. . .o.! ~ ~ E E g d s u 9 > & # # # # @ @ # # $ $ # = = = = * * 6 6 $ = = = $ $ $ = 6 6 5 5 $ $ $ $ $ $ @ $ $ $ $ @ $ @ @ @ @ @ @ @ @ @ @ @ @ @ @ @ @ @ @ @ @ @ @ @ . . @ . @ @ . . . @ @ . . . . . . . . . . . @ @ # # # # # = $ = % % % % 6 6 6 6 6 6 8 8 8 8 8 8 8 8 > > 8 * * * * * = = = = # $ $ $ $ $ $ $ # # @ $ # # # # ; 1 ; # & ; # & w + w 9 ; & a ; d 8.1.Q ( ^ ^ ^ ^ ^ Z Z W ^ Z Z Q Q Q Q W W C c g Q  . .( Q E c c C E W Q W  . .Q c c c C C c Z W W W ^ X.1.1.G.F.H.#X%X*X*X*X=X-X-X-X-X-X*XoX#X=X-X-X=X-X-X>X=X=X=X>X=X=X&X=X=X+X+X+X+X+X+XOXOXOX+X+X=X+X+X$X=X=X$X+X+X+X+XOXOXOXOXOX+XOXOX+XOXOXOXOXOXOXOXOXOXOXOXOXOXOX]. X].`.`.[.[.[.[.[.[.[.[.`.`.`.`._._._.[.].].].[._._._._._.`.`.`._._._._.`._._._._._._._.`.`.`._.`.`.`.`._._._.`._._._._.`.`.`._.].`._._._._._._.'._._._._._._._._._._.].].`.`.`.].`.`.'.'.`.`.'.`.`.'.'.'.|.oX|.XXoXoXXX@XXXXXXX%X%X%X%X%X*X*X;X;X;X;X;X;X;X%X;X%X;X;X;X;X;X;X;X;X;X;X;X;X;X#XH.#X#XH.F.<.-.D x x w a E 1.X.E ! X.X.~ E ~ o. . . .S...p.X.X.X...S.v.X.X. .!  .v...S.S...X.| _ _ L L L P L _ ] ~ L P P P P P P P P P P P I I Y ] { d.x.n.V.Z.Q.W.0X9XtXyXyXpXfXkXxXxXxXxXvXbXbXVXVXVXAXVXVXVXAXCXCXCXCXCXCXCXCXCXCXZXZXZXZXZXZXZXZXZXFXFXJXJXZXJXZXZXZXJXJXZXZXZXJXJXJXZXZXZXZXZXZXZXZXZXZXZXZXZXJXJXZXZXZXZXZXZXZXZXZXZXZXZXZXZXZXZXZXZXZXZXZXZXCXCXCXCXCXCXCXCXCXCXCXCXZXZXZXZXZXZXZXZXCXCXCXCXCXCXCXCXCXCXCXCXCXCXCXCXCXCXCXCXAXAXAXAXAXAXAXAXAXAXAXAXAXAXAXAXAXAXAXAXAXAXAXAXAXAXAXAXAXAXAXAXAXAXAXAXAXAXCXCXAXAXAXAXAXVXAXAXVXVXVXVXVXVXVXVXvXvXvXvXvX",
"x.z.z.z.z.z.z.b.z.z.z.z.z.z.z.x.j.x.x.x.x.x.z.z.n.V.B.B.B.P.U.W.U.W.W.W.W.W.W.W.W.W.W.W.W.!.!.W.7X7X7XrXtXyXaXpXaXaXaXfXkXkXkXkXkXkXkXkXfXfXaXaXaXaXpXiXiXyXyXyXtXtXiXtXrXrX7X7X7X0X7X4X4XT.Y.I.C.C.m.N.b.z.j.h.h.k.k.k.k.k.c.c.c.c.c.c.c.c.c.c.c.K.K.K.K.K.S.S.S.S.S.S.S.S.S.(.(.(.L.(.(.(.(.(.(.(.S.S.S.S.S.v.p... . .o.! ~ ~ E K g h a 9 > * * # @ # # # # # # $ $ $ = = = = * * 6 6 = $ = 6 6 = = * 6 6 % $ $ $ = $ $ = @ @ $ $ $ $ $ @ @ @ @ @ @ @ @ @ @ @ @ @ @ @ @ @ @ @ @ @ @ @ . . @ @ @ @ . . . . . . . . . . . . . . . . @ @ # # # # # # $ = % % % % 6 6 6 6 6 6 6 6 8 8 8 8 8 8 > > 8 8 * * * = = = # # @ @ @ @ $ $ # $ # $ $ @ # # # ; 9 9 ; . . & . & w & w 1 ; o a 9 g 8.8.Q ( Q ( ^ ^ ^ Z x ^ ( x c ^ Q Q Q C Z C c c Q ( W ! ( Q Q (  .` `  .` ( ! g c W c C c C W W W ^ ( S.1.G.F.F.J.@X*X*X@X*X*X=X=X-X-X*X&X{.@X-X2X>X=X=X-X=X=X=X=X>X:X=X=X=X=X=X+X+XOXOX+X$X$X&X+X+X+XOX+X+X$X$X$X$X+X+XOX+X+X$X+XOXOX+X+X+XOXOXOXOXOX+X,XOXOXOXOX}.OX X]. X].`.`.`.`.[.[.].[.[.`.`.`.`.`.[.[.[.].].].[._._._._._._._._._._._._._.`._._._.`._._._.`.`._._.`.`.`._._._._.`._._._.`.`.`.`.`.`._._._._._._._._._._._._._.'.`._._._.`.`._.'._.`.`.'.'.`. X].`.OX`.'.'.'.|.oX'.OXoXoXXXXXXXXXoX%X%X%X@X%X%X%X;X;X%X%X;X;X%X%X;X#X;X-X;X;X;X;X;X;X;X;X;X;X;X/.H.H.H.#XF.9.-.D v e e h C X.X.W !  . .! G ~ !  . . .X... .S.X. .X.X.S... .X.~ ~ X...S.S.7.X.| _ | P P K K K L _ _ P P P P N N N N P P P L I I Y ] { d.j.z.V.B.U.W.7X0X9XtXyXpXaXkXxXxXxXxXvXbXVXVXVXVXVXAXVXVXAXCXCXCXCXCXCXCXCXCXZXZXZXZXSXZXZXZXZXZXZXZXZXZXZXZXZXZXZXJXJXJXZXZXZXZXZXZXZXZXZXZXZXZXZXZXZXZXZXZXJXJXZXZXZXZXZXZXZXZXZXZXZXZXZXZXZXZXZXZXZXZXZXZXCXCXCXCXCXCXCXCXCXCXCXCXCXCXZXZXZXZXZXCXCXCXCXCXCXCXCXCXCXCXCXCXCXCXCXCXCXAXAXAXAXAXVXAXVXAXVXAXVXVXVXVXVXAXAXAXAXAXAXAXAXAXAXAXAXAXAXAXAXAXAXAXAXAXAXAXAXAXCXCXAXAXAXAXAXVXAXAXVXVXVXVXVXVXVXbXvXvXvXxXxX",
"x.x.z.z.b.b.b.z.z.z.z.z.z.z.z.z.z.x.x.x.x.z.z.z.n.V.V.B.I.I.U.U.W.W.W.W.W.4XW.!.W.W.W.W.!.!.5X5X!.7XrXrXrXtXpXaXaXaXaXfXfXfXfXkXkXkXkXkXkXaXaXaXaXaXpXpXpXyXtXtXiXiXrXrX9X9X0X0X0X7X6X4XW.Y.I.C.C.C.m.N.M.b.z.k.k.k.k.l.l.l.c.M.M.M.M.K.K.P.P.P.K.K.K.K.K.K.K.K.S.S.(.(.S.S.S.S.(.(.(.(.(.(.(.(.(.(.(.S.S.S.S.v...X.X. .o.! ! ~ E B g h a 9 ; * & # # @ @ @ # # $ $ $ # # = = = = = * 6 = = = $ * * * * * * * * = = $ $ $ = $ @ @ @ @ @ @ $ $ $ @ @ @ @ @ @ @ @ @ . . . . @ @ @ @ . . . . @ @ @ @ @ . . . . . . . . . . . . . . . . @ @ # # # # $ # $ $ % % % % $ $ * * 8 8 8 8 8 8 9 8 ; 1 1 9 8 7 8 ; * * # $ $ $ $ $ $ $ $ $ # % % # # @ # # ; ; 1 ; . # # . . ; a & w ; ; ; w h C 8...C ` Q ( A ^ Z ^ ^ Z ^ x Z C Q C x d e d c x W c c W E W ! ( ! Q W C c d w C ! C h d c C c C Z W ' 1.8.G.F.oX@X%X*X=X=X=X*X*X=X=X>X-XoXF.XX=X-X-X=X=X=X=X=X*X*X=X=X=X=X+X=X$X+X+X=X:X=XOXOXOXOXOX+X$X$X$X@X$X&X&X$X+XXX$X+X+X+XOXOXOX,XOX+XOXOXOX+X+X+XOX XOXOXOXOX X X].].].].].].]. X].].].].`.].`.`. X X]._.[.].[._._._._._.`.[.`._._.`.`._._.`.[._._.).)._.`._._.`.[.[.`._._._._._._._._._._.`.`._._._.)._._._._._._._._._._._._._.`.`._._._._.`.`.'.'.`.`.`.]. X X X X|.|.|.`.'.'.oXoXoXXXXX@X@XXX%X*X*X%X@X*X*X*X;X;X*X;X%X%X%X%X;X%X;X;X%X;X;X;X;X;X;X;X;X;X#XH.H.H.H.F.8.-.D x e e 3 c X.X.W E ` `  .~ G Q  . . . .X...S... . .X.X...v.p. .~ o.....v.....S.X.~ K P K K K L K ] L K K P P N N P P P P L ] ] ] [ { d.s.x.V.Z.Q.W.4X7X9XrXtXiXaXkXkXzXxXxXvXbXVXVXVXVXVXAXVXVXVXCXCXCXCXCXCXZXZXZXZXZXZXZXZXZXZXZXZXZXZXZXZXZXZXZXZXZXZXJXJXJXFXFXZXZXZXZXZXZXZXZXZXZXZXZXZXZXZXZXZXZXZXZXCXCXCXCXCXCXCXCXCXCXCXCXCXCXCXCXCXCXCXCXCXCXCXCXCXCXCXCXCXCXCXZXZXZXCXCXZXZXZXZXCXCXCXCXCXCXCXAXAXAXAXCXZXZXAXAXAXAXAXVXVXVXVXVXVXVXbXbXAXAXAXAXVXVXAXAXAXAXAXAXVXAXAXVXVXVXVXVXAXVXVXVXVXVXVXVXAXAXAXAXVXVXVXVXVXVXVXVXbXbXVXbXbXbXbXbXbXvXcXcXxX",
"x.x.z.z.z.z.z.z.z.z.z.z.z.z.z.z.x.x.x.x.x.x.z.z.n.n.V.B.I.U.U.U.W.W.W.W.W.4XW.W.W.W.W.W.!.7X!.7X7X7X7XrXrXtXyXpXaXaXaXfXfXfXfXfXkXkXkXkXfXaXaXpXaXpXpXpXpXtXtXtXiXrXrXrX9X9X0X7X7X6X6X4XW.T.I.I.C.C.m.N.M.b.c.z.k.k.l.c.c.c.M.P.K.K.P.P.P.P.^.P.^.^.L.^.L.L.L.L.L.(.(.(.(.(.S.S.(.(.(.(.(.(.(.(.(.(.(.(.S.S.S.S...X. . .o.! ~ ~ K g g h a 9 ; * # # @ @ @ @ @ @ @ $ # # # # = = $ = $ = = = 6 = = * * * * * = = = = $ $ $ $ $ @ @ @ @ @ @ $ $ $ @ @ @ @ @ @ @ @ @ . . . @ @ @ @ @ @ @ @ @ @ @ @ = @ @ . . . . . . . . . . . . . . . @ @ @ # # # $ # $ $ % % % % % $ * * 6 8 8 8 8 8 9 9 1 1 9 9 8 8 8 * * * # $ $ $ @ # # # # # # % ; % # @ # ; & ; ; & # # # . . 1 a & w 9 ; ; 1 d c 8.' Q ` ( ' ^ ^ Z Z ^ Z Z x x C C C C e d e Z c c e d Z C d g c c c d h h h E W g 3 h g h C c Z W ( 1.8.8.G.J.#X%X%X*X=X=X=X=X-X=X-X-X-XXXXX&X=X-X-X=X=X-X=X=X=X=X=X-X=X=X=X:X:X$X$X=X$X+XOXOXOXOX+X+X$X$X$X$X&X&X&X$X+X$XOXOXOX+X+XOX+XOXOXOXOXOXOXOXOXOX X X X XOX X X XOX].].].].].].].].].].].].].|.|.].].].`.`.].`._._._._._.`.`._._._._._.)._.`.[._._.).)._.`._.`.[.].].[.`._._.`._._._._._._.`._._._._.).).)._.).)._._._._._._.`.`._._._._._._.`.`.'.'.`.`.`.].]. X X XOXOXoX|.{.{.{.'.{.XX@X@X@X#X@X*X*X@X%X*X*X%X%X%X*X*X;X;X%X%X%X%X-X;X%X;X;X;X;X;X%X%X;X;X#XH.H.H.H.D.<.-.D x e e h E X...E E ! `  .! E ~  .X.`  .X...S.S.X. . .X.....v... . .....S.v...v. .K ~ K N K K K J _ L P J J P N N N K P P L ] ] ] { { } d.x.n.V.Z.Q.4X7X9XrXtXyXaXsXjXkXzXxXvXvXbXVXVXVXVXVXVXVXVXVXCXCXCXCXCXZXZXZXCXZXZXZXZXZXZXZXZXZXZXZXZXZXZXZXZXZXJXZXZXZXZXZXZXZXZXZXZXZXZXZXZXZXZXZXZXZXZXZXZXZXZXCXCXCXCXCXCXCXCXCXCXCXCXCXCXCXCXCXCXCXCXCXAXAXCXCXCXCXCXCXCXCXCXCXCXCXCXCXCXCXZXCXCXCXCXAXAXCXCXAXAXAXAXAXAXAXAXAXVXAXVXVXVXVXVXVXVXVXbXbXVXVXVXVXVXVXVXVXVXVXVXVXAXAXVXVXVXVXVXAXAXAXAXVXVXVXVXVXVXVXAXAXVXVXVXVXVXAXVXVXbXbXbXbXbXbXbXbXvXvXcXcXzX",
"x.x.x.z.z.z.z.z.z.z.z.z.z.z.z.z.x.x.x.x.x.x.z.z.b.n.V.I.I.U.U.Q.W.W.W.W.W.4X!.7X!.!.!.!.!.!.!.!.7X7X7XrXtXtXpXpXaXaXaXfXfXfXfXfXkXkXkXkXfXaXaXpXpXpXpXpXpXtXtXtXrXrXrXrX9X7X7X6X6X6X4XW.T.T.I.I.C.C.m.M.M.M.b.c.c.c.c.M.M.M.P.P.P.P.R.E.E.E.E.R.^.^.^.^.^.^.^.^.^.L.(.(.(.(.(.(.(.(.(.^.^.^.(.(.(.(.(.S.S.S.S.p.p.X. . .o.! ~ E g g h a 9 9 ; * $ @ @ @ @ @ @ @ @ @ # # $ $ = = = = = = = = = = $ $ $ * * = = = = = $ @ $ $ @ @ @ @ @ @ @ $ @ $ @ @ @ @ @ @ @ @ . @ @ @ @ @ @ @ @ @ @ @ @ @ @ @ @ @ . . . . . . . . . . . . . . . . . . @ @ @ # $ $ $ $ $ % % % % % % * 6 8 8 8 8 8 8 8 8 8 8 9 * ; * * % % # $ # # # # # # # # # # # # # # ; ; # 1 ; # & ; @ @ . 1 s & w w 1 + ; C C S.^ ( ( ` ' ^ ^ ^ Z W Z A d Z Q Q ^ Z x x ^ ' ( Q c g c c d g c E E c d d g W d h w d c g Z c Q ( ` 1.1.8.F.oX%X%X%X&X*X=X>X-X-X=X*X-X-X@X*X*X-X-X-X=X=X-X=X=X=X-X=X-X=X=X:X=X=X&X$XXXXXOXOXXX+X+XXX+XXXXXOX@X$X$XXXoXXXOX+XOXOXOXOXOXOXOXOXOXOXOXOX+X+XOXOX X].].].].]. X].].].`.`.`.`.`.].].`.`.].].].].`.].].`.[.].]._._._._._.`.`._._._._._.)._._.`._._.)._._.`.`.`.].[.].].`.`.`.`._._._._.`.[.[.[._._._._.).e.e.e.e._._.).)._._._._._._._.`.`.`.`.`.'.'.`.'.`.`.]. X XOXoXoXoXoXoXoXoX{.{.oXXXXXXXoX%X*X*X%X%X*X%X#X%X%X;X*X;X;X;X%X#X%X-X;X%X;X-X%X%X%X%X%X%X%X#XH.H.H.H.D.<.-.D x e e h c ` ..c E !  . .! E E !  .!  .X.X...S.S... .X.....v... . ...p.S.S. .X. .E ~ P K K N K N L L P N N N N N N N P L L ] ] ] { { } d.j.b.V.B.Q.4X7X9XrXtXtXiXaXsXjXkXxXxXvXbXbXVXVXVXVXVXVXVXAXCXCXCXCXCXCXZXZXCXCXCXCXZXZXZXZXZXZXZXZXZXZXZXZXZXZXZXZXZXZXZXZXZXZXZXZXZXZXZXZXZXZXZXZXZXZXZXZXZXZXCXCXCXCXCXCXCXCXCXCXCXCXCXCXAXAXAXAXAXAXAXAXAXAXCXCXCXCXCXAXAXAXCXCXCXAXCXCXAXAXCXCXCXCXAXAXAXAXAXAXAXAXAXAXAXAXVXVXAXVXVXVXVXVXVXVXVXVXbXbXVXVXVXVXbXbXbXbXVXVXVXVXVXVXVXVXVXVXVXVXVXVXVXAXVXVXVXVXAXAXAXAXVXVXVXVXAXAXAXAXbXbXbXbXbXbXvXvXvXvXcXcXzX",
"x.x.z.z.z.z.z.z.z.z.z.z.z.z.z.z.x.x.x.x.x.x.z.z.b.n.V.I.U.U.Q.W.W.W.W.W.4X4X7X7X7X7X!.!.!.!.!.!.7X7X7XrXrXyXyXiXaXaXaXfXsXfXfXfXkXkXkXfXaXaXpXpXpXpXpXpXiXtXtXtXrXrXrXrX9X7X7X6X6X6X4XW.T.Y.I.C.C.C.m.M.M.M.M.b.c.M.M.M.m.K.P.R.R.E.E.E.E.E.E.E.E.E.E.E.E.^.^.^.^.^.L.(.(.(.(.(.L.L.^.^.^.^.(.(.(.(.S.S.S.S.S.p.p.X. . .! ~ ~ K g g s a 9 ; * # @ @ @ @ @ @ @ @ . @ # # # # = * = = $ = $ $ $ = $ $ * * * = = $ = = $ @ @ @ @ @ $ @ @ @ @ $ @ @ @ @ @ @ @ @ @ @ . @ @ @ @ @ @ @ @ @ @ @ @ @ @ @ . . . . . . . . . . . . . . . . . . . . @ @ @ @ @ $ $ $ $ % % % = % % * 6 8 8 8 8 8 8 8 8 > > ; * ; * = # # # @ @ # # # # # # # % $ @ # ; ; ; # . 9 ; . ; ; # @ . 9 s ; 9 w 1 # w E Q 8.Q ` ` ` ' ^ Z ' ^ W Z Z x ^ Z Z Z d Z Z Z ^ Q c Z C c W c c c c c c g d d g 3 c c d d C C Z ( ' ' 1.8.G.H.#X%X%X%X%X=X=X>X>X-X=X*X-X-X*X-X-X-X-X=X=X-X-X-X>X>X>X-X=X=X=X=X&X$X$X$XXXOXXX$X+XXXOXOXXXXXXX$X$X&X&X$XXXXX+X$X+XOXoXoXXXOXOXOXOXOXOX+X+X+XOXOX].].].].].].].].].].`.`.`.].].].].].].`.`.`.].`.].].].].].].`._._._.`.[.[.[.[._._._._._._._._._.)._._.`.`.`.].`.`.`.`.`.`.`._._._._._.[.[._._._._._.).e.e.)._._._._.)._.).).r._._._._._.`.`.`.'.'.`.'.`.`.]. X].|.|.|.oX|.oXoXXXXXoX{.{.oXoXXX%X%X%X%X*X*X%X%X%X%X%X%X%X%X;X;X#X#X;X;X;X-X-X%X%X%X;X%X%X%X#XH.H.H.H.D.8.-.D x x e h E `  .g g !  .` ! ! E E ! ` `  . .X.S.S.S.X. .X.......X.X.....S.S.X. ._ E s K ~ B f N N J P K N N N N N N N P L I ] ] ] { { } d.j.z.V.B.Q.W.7X7XrXtXtXtXtXaXsXjXkXxXxXvXbXbXVXVXVXVXVXVXCXCXCXCXCXCXCXZXZXCXCXCXCXCXZXZXZXZXZXZXZXZXZXZXZXZXZXZXZXZXZXZXZXCXZXZXZXZXZXZXZXZXZXZXZXZXCXCXCXCXCXCXCXCXCXCXCXAXAXAXAXAXAXAXAXAXAXAXAXAXAXAXAXAXAXAXCXCXAXAXAXAXAXAXAXAXAXAXAXAXAXAXAXAXAXAXAXAXAXAXAXAXAXAXAXVXVXVXVXAXAXVXVXbXbXVXVXVXVXbXbXbXbXbXbXbXbXbXbXbXbXbXVXVXVXbXbXVXVXVXVXVXVXVXVXAXAXVXVXVXVXAXVXVXVXVXVXAXAXVXVXbXbXbXbXvXvXvXvXvXcXcXzXlX",
"x.z.z.z.z.z.z.z.z.z.z.z.z.z.z.z.x.x.x.x.x.z.z.z.b.n.V.I.U.U.W.W.W.W.W.W.W.7X7X7X7X7X!.!.!.!.!.!.7X7X7XrXtXyXpXpXaXaXaXaXsXfXaXaXkXkXsXsXaXaXpXpXiXiXpXiXiXtXtXtXrXrXrXrX9X7X7X6X6X6X4XW.T.U.I.B.m.m.M.M.M.M.M.M.c.M.M.m.K.P.R.R.E.E.E.~.~.~.~.~.~.~.~.~.E.E.^.^.^.^.^.L.(.(.L.(.(.(.^.^.^.^.(.(.(.(.S.S.S.S.S...p.X. .| ! ~ E K g d a 9 1 ; & @ @ @ @ @ @ @ @ @ . @ $ $ $ $ = = * * = $ = $ $ = = * * * * = = @ = $ @ @ @ @ @ @ $ $ $ $ @ @ @ @ @ @ @ @ @ @ @ @ @ @ @ @ @ @ @ @ @ @ @ @ @ @ @ @ . . . . . . . . . . . . . . . . . . . . @ @ @ @ @ $ $ $ $ $ $ % = % % * 6 6 8 8 8 8 7 8 8 ; * ; ; ; * = # # # @ @ @ # # # # # # % % * ; 9 7 % # # 9 ; # ; ; # # . 1 s ; ; 9 ; # w C Q 8.` ` `  .X.' Z ^ W Z Z Z Z Z C C x x ' ` ^ 1.1.Q Q ( W C c c h 3 3 a e 3 a W g E c g c E c Z ( ' 1.1.9.F.oXXX%X%X@X@X&X=X-X>X-X=X-X-X-X-X-X-X-X=X=X=X-X-X>X2X2X>X-X=X=X*X=X&X&X&X$X$X$X&X$X@XXXXXXXXXXXXX@X@X@X$X&X$XXXXXoXoXoXoXOX$X$X+X+X+XOXOXOXOXoX].OX].].].].].].]. X].].].].].].OXOX X X].].].].].`.].].].].].].`._._._.`.[.[.[.[._._._._._._._._._._._._.`._.`.`._.`.`.`.`.`.`._._.).)._._._._._._._._._.).)._._._._._._._._._._.r._._._._._._.'.'.'.`.`.`.].].|.|.|.|.|.|.|.|.|.XXXXXX{.{.{.oX@X@X@X#X@X%X*X*X*X%X%X%X%X%X%X%X;X%X#X#X;X;X;X;X;X#X%X;X%X;X%X%X#XH.F.F.D.8.-.D l x h a ! ..! g h ~ ! ! ! ( Q E Q ! !  . . ...S.S... . . .X.........X.v.S.7. ._ K 9 s K B s s f f K J N N N N N N N P L I I ] ] { { { d.j.z.V.V.U.W.4X0X9XrXrXtXtXaXaXjXjXzXxXxXvXvXbXbXVXVXVXAXAXAXAXCXCXCXCXCXCXCXCXCXCXZXZXZXZXZXZXZXZXZXZXZXZXZXZXZXZXZXZXZXZXCXCXCXZXZXZXZXZXCXCXCXCXCXCXCXCXCXCXCXCXCXCXAXAXAXAXAXAXVXAXAXAXAXAXAXAXAXAXAXAXAXAXAXAXAXAXAXAXAXAXAXAXVXAXAXAXAXAXAXAXAXAXAXAXAXAXAXAXAXAXAXAXVXVXVXVXAXAXVXVXVXVXbXbXbXbXbXbXbXbXbXbXbXbXbXbXbXbXbXbXbXbXbXbXbXbXVXVXVXVXVXVXAXAXAXAXVXVXVXVXVXVXVXVXVXVXVXVXbXbXbXvXvXvXxXxXcXcXzXzXkX",
"x.z.z.z.b.z.b.z.z.z.z.z.z.z.x.x.x.x.x.x.x.z.z.b.b.n.V.I.U.U.W.W.W.W.W.W.W.7X7X7X7X7X7X7X!.!.!.!.7X7X7XrXrXyXpXpXaXaXaXaXaXfXaXaXkXsXsXsXaXpXpXpXiXtXtXtXtXtXtXrXrXrXrX9X9X7X6X6X6X4XW.T.T.I.C.m.C.m.M.M.M.M.M.M.M.M.K.P.P.R.E.E.!.!.~.~.~.~.~.~.~.~.~.~.~.~.E.^.^.^.^.^.L.L.L.^.(.(.^.^.^.^.^.^.^.L.(.S.S.S.S.p...X. .| ! ~ E g d h a 9 ; ; * # @ @ @ @ @ @ @ @ @ @ @ $ $ # = = $ = $ $ = = = * * * * * * = = = = @ @ @ @ @ @ @ $ $ $ $ @ @ @ @ @ @ @ @ @ @ @ @ @ @ @ @ @ @ @ @ @ @ @ @ @ @ . . . . . . . . . . . . . . . . . . . . . . . @ @ @ @ @ $ $ # $ $ $ = % % * 6 6 6 6 8 8 7 7 8 ; ; ; ; 8 * = # # # @ @ @ $ # # # # # % * 8 7 ; % # % # 9 ; # ; ; # # # ; w 8 ; ; ; ; g d Q 8.X.Q Q ` X.X.Q W ^ Z A x Z d Z C Z X.8.8.W 1.G.' ' ' c c h h 3 3 3 h h 3 c ` W C c C E W Z W ( ' 1.8.9.J.oXXX%X%X@X@X&X-X=X2X-X=X-X-X-X-X>X-X-X=X=X=X-X-X-X-X-X-X=X=X=X=X=X=X&X$X@X@X&X&X@XXXXXXXoXXX@X$X{.{.{.XXXXXXXXoX{.oXOXOX+X$X+XXX$X+XOX+XOXOXoXoXOX}.]. X].].].].].].].`.`.].].]. X].].].].].].].].].].].].].].`.`.`._._._._._._._._._._._._._._._._._.`.`.`._.`.`.`.].`.`.].].[._._._._.`._._._._._._._.).)._._._._._.`.[.[.`.`._._._._.'.'.'.'.'.'.`.`.`.`.].].OX X|.|.|.|.|.{.XXXXXXXXoXoXoXoX@X@X@X%X*X*X*X*X%X%X%X;X;X%X%X%X-X#X#X;X;X;X;X%X#X%X;X;X;X;X%X#XH.F.D.G.<.-.Z e e h 3 Q ..W g h E Q ~ Q ` ! E E ! ! ! ` (  ...S...X.X. . ...S.p.v.p.v.S... . ._ s 0 s B B s i f N N N N i N N N N P L I I ] ] { { { d.f.z.b.V.U.Y.W.6X7X9XrXtXtXiXaXaXjXkXxXxXxXcXvXbXbXVXVXVXAXAXAXCXCXCXCXCXCXCXCXCXCXCXZXZXZXZXZXZXZXZXZXZXZXCXCXCXCXZXZXZXZXCXCXCXCXCXZXZXZXCXCXCXCXCXCXCXCXCXCXCXCXAXAXAXAXAXAXVXAXVXVXVXVXAXAXAXAXAXAXAXAXAXAXAXAXAXAXAXAXAXAXVXVXVXAXAXAXAXAXAXAXAXAXAXAXAXAXAXAXAXAXAXVXVXVXVXVXVXVXVXVXbXbXbXbXbXbXbXbXvXvXvXvXvXvXvXvXbXbXbXbXbXbXbXbXbXbXbXbXVXVXVXVXVXVXVXVXVXVXVXVXVXVXVXVXVXVXVXbXbXbXvXvXvXxXxXxXcXcXzXkXkX",
"x.x.z.z.z.z.z.z.z.z.z.z.z.x.x.x.x.x.x.x.x.z.z.b.n.V.V.I.I.U.W.W.W.W.W.W.4X7X!.7X!.!.7X7X!.7X!.7X!.7X7XrXrXtXpXpXpXpXaXaXaXsXaXaXsXsXsXaXaXpXpXpXiXiXtXtXtXtXrXrXrXrX9X8X7X6X6X6XW.W.T.T.Y.U.C.B.C.m.M.M.M.M.M.M.M.m.P.P.P.R.E.!.~.~.~.~.~.~.~.~.~.~.~.~.~.~.E.^.^.^.^.^.^.L.^.^.^.^.^.^.^.(.^.^.L.(.(.S.S.S.S.p...X. .o.~ E K g s a 9 1 ; * & # @ @ @ @ @ @ @ @ @ @ @ @ # = = # = = * * = * * * * * * * * = = = @ @ @ @ @ @ @ @ $ $ $ $ @ @ @ @ @ @ @ @ @ @ @ @ @ @ @ @ @ @ @ @ @ @ @ @ @ . . . . . . . . . . . . . . . . . . . . X . . . . . @ @ @ @ $ $ # = = % % % * * 6 8 ; 8 8 8 8 8 ; ; ; ; ; * % # # # # @ @ $ $ # # # # * * ; * # # # % ; ; ; ; ; & # # & & 9 9 ; ; 9 d g d Q X.` W Q ' ' ' ^ Q ' Z x C Q C Z x Z G.G.G.( ' G.1.1.^ 3 3 3 3 3 3 h h h 3 W W c c c C c C W W ( ' 1.9.G.H.XX@X@X%X@X@X=X-X=X>X-X-X-X-X-X-X-X-X-X-X-X-X-X=X-X-X=X=X=X=X=X*X=X=X*X@X@X@X@XXX@XXXXXXXXX@X@X@XXXoXXX@X$X$X@XXXoXXX@XXXXXOXXXoX$XOXOX+X$XOXOX$XOXOXoXOXOXOX}.OX].].`.`.`.`.`.].].].].`.`.].].|. X X].]. X].[.`.`.`.`._._._._._._._._._.`._._._._._.`.`.`.`.`.`.[.].[.`.`.`.[.`.[._._.`.`._._.[._.).).)._._._._._._._._._.`._._.`.`.`._._.'.`.`.'.'.`.`.`.`.`.`.OX X|.`.`.`.|.oXOXXXXX@X@X@XoXoX@X@X*X*X*X%X%X%X*X@X#X%X;X%X%X%X;X#X#X%X%X%X;X%X#X%X;X%X%X%X#XH.H.F.G.9.1.' Z e e e 3 g X.W g h g E Q ~ ! ! E E Q ! ! ! ! ` X.S.S.v... .o.......p.S.S.S...o. .X.E 9 0 s B s s p i N N i i i N N N J P L I ] Y { { { d.g.x.z.n.U.U.T.4X7X7X9XrXrXtXiXaXaXjXkXlXxXxXxXvXvXbXbXbXVXAXAXAXZXAXAXCXCXCXCXCXCXCXCXCXCXZXZXZXZXZXZXZXZXCXCXCXCXCXCXCXCXCXCXCXCXCXCXCXCXCXCXCXCXCXCXCXCXCXCXAXAXAXAXAXAXAXAXVXVXVXVXVXVXVXVXVXVXVXVXVXVXVXAXVXVXAXAXAXAXAXVXVXVXVXAXAXAXVXVXVXVXVXVXVXVXVXVXVXVXAXAXVXVXVXVXVXVXVXVXbXbXbXbXbXbXbXvXvXvXvXvXvXvXvXvXvXvXvXbXbXbXbXbXbXbXbXbXbXbXbXbXbXbXbXbXbXbXbXbXbXbXVXVXVXVXbXbXbXbXbXvXvXvXxXxXxXxXcXzXzXkXkX",
"x.z.z.z.z.z.z.z.z.z.z.z.x.x.x.x.x.x.x.x.x.z.z.z.n.V.V.Z.I.U.W.W.W.W.W.W.4X7X!.7X!.7X7X7X!.7X7X7X7X7XrXrXrXrXtXpXpXpXaXaXaXsXfXfXsXsXaXaXaXpXpXpXiXiXtXtXtXrXrXrXrX9X8X7X7X6X6XW.W.T.T.T.Y.U.I.B.C.C.m.M.M.M.M.M.M.m.P.P.P.E.!.!.~.~.8XwXwXwXwX~.~.~.~.~.~.~.E.^.^.^.^.^.^.^.^.L.^.^.^.^.^.(.^.^.L.(.(.S.S.S.v.p...X. .o.~ E B g s a 9 ; * & $ @ @ @ @ @ @ @ @ @ @ @ @ @ # = = # * * * * = = = = * * % % * * = * @ @ @ @ @ @ @ @ @ $ $ $ @ @ @ @ @ @ @ @ @ @ @ $ # @ @ @ @ @ @ @ @ @ @ @ @ @ . . . . . . . . . . . . . . . . . . . . . . . . . . @ @ @ @ # # = % % % % * * 6 * * * ; ; 8 ; ; * * * * * # # # # # @ @ @ $ # # # # 7 * @ @ # % % # ; & ; ; # # # @ * # 9 w ; ; w C h d Q Q Z Q ' ' 1.` Q Q ' x e W C C C Z ` G.G.8.) Z ' ) ' ( d h 3 3 3 3 a a a h W c c c C c x Z Z Z ^ ' 8.G.D.XX@X@X%X%X@X@X=X>X=X>X-X=X<X-X*X-X<X-X-X-X-X-X=X=X2X-X=X=X=X=X*X&X=X-X=X@XXX@X@XoXXXXXXXXXoXoXoXoX&X&X@X$X$X@X@X@XXXXXXX{.{.oXXXXX$XOXOXOX$XOXOXOX$XOXOXOXOXOXOXOXOX].].].`.].].|.].].].].]. XOXOXOX X`.].].].[.`.`.`.`.`.`.`.[.`._._._.`.`._._._._._.`.`.[.[.].].].].[._._.`.`._.`._._._._.).)._.).).).)._._._._._._._._._._._._._._._._._.'.'.`._.'.`.`.`.`.`.`.OX X`.`.`.`.|.oXOXXXXXXX*X=X$X@X.XXX#X%X*X%X%X%X*X%X#X%X%X%X%X%X%X#X#X%X%X;X;X%X%X%X%X%X%X#XH.H.#XF.G.8.1.' Z e 3 a h d X.! d a h E ~ E Q ! Q E E ! ! ! ! `  . .S...v.X. . .X.....S.v.S.S... .! E 0 0 s s s i i 0 i N i i i N N N N P L I Y Y ] { } i.d.x.x.b.P.U.T.W.7X7X7X9X9XtXtXiXaXsXjXkXlXxXxXxXvXvXvXbXbXAXAXAXZXAXAXCXCXCXCXCXCXCXCXCXCXCXCXCXCXZXZXZXZXZXCXCXCXCXCXCXCXZXCXCXCXCXCXCXCXCXCXCXCXCXCXCXCXAXAXAXAXAXAXAXAXAXVXVXVXVXVXVXVXVXVXVXVXVXVXVXVXVXVXVXAXAXAXAXVXAXVXVXVXVXVXAXAXVXVXVXVXVXVXVXVXVXVXVXVXAXAXVXbXbXbXbXbXbXVXbXbXvXvXvXvXvXvXvXvXvXvXvXvXvXvXvXvXvXvXvXbXvXvXvXvXvXvXbXbXbXbXbXbXvXbXbXbXbXbXbXbXVXVXVXVXbXbXbXbXvXvXvXxXxXxXxXxXzXzXzXkXkX",
"z.z.z.z.z.b.b.z.z.z.z.z.z.x.x.x.x.x.x.j.x.x.z.b.V.V.B.I.U.U.U.Q.W.W.4X7X7X7X7X7X7X!.!.!.!.7X7X7X7X7XrXrXtXtXpXpXpXaXaXaXaXaXaXaXaXaXaXpXpXpXpXpXiXtXtXrXrXrX8X7XrX8X7X7X7X7X6XW.T.T.T.U.U.I.I.C.m.m.m.M.M.M.M.M.M.m.P.R.R.E.~.8X8X8XwXwXwXwXwXwX~.~.~.~.~.~.~./.E.^.^.^.^.^.^.^.^.^.^.^.^.^.^.^.L.L.(.S.S.S.v.....X. .! ~ E g d s 9 ; & & # @ @ @ @ @ . . . @ @ @ @ @ @ # # = = = = = = = = % * = = * * = = # % @ @ @ @ @ @ @ @ @ @ @ @ @ @ @ @ @ @ @ @ @ @ @ @ @ @ @ @ @ @ @ @ @ @ @ @ . @ @ @ . . . . . . . . . . . X X . . . . . . . . . . . @ @ @ @ @ @ # = # % * * * * * * * ; ; ; ; ; * * ; ; ; * * & # @ @ @ @ @ @ & * * ; * # # # # # # ; ; ; ; % # # # # @ 9 w # ; g d 3 d Z W Q Q ' 1.1.Q Q ( ' Z Z x d F A C D ' G.1.^ W Z ^ 1.( x Z h e a 3 3 w d E W c c c c C c c c ^ ' 1.8.D.H.#X@X*X*X&X&X*X=X=X>X>X-X-X-X-X-X-X-X*X*X-X-X-X-X-X-X*X=X-X*X*X*X*X*X=X*X@X#XoX.XoXF.oXoXF.D.{.{.D.{.{.{.@XXXXX{.{.F.F.{.oXXXXXXXXX$XOXoXoXOXOXOXOX$XOXOX}.OXOXOXOXOX X].].].].].].].].].].].OXOX X X X X].`.`.'.'.`.].`.`.].[._._._._.`.`._._._._.`._.`.`._.`.].`.`.].].`._.`._.e.).e._._._.).)._._._._._._._._._._._._.`.`.`._._._._._._.'.'.'._.'.'.'.'.'.'.'.`.|. X{.`.{.oXXXoXOXXXXX@X@X@X&X=X@X{.F..X*X*XF.#X#X@X%X%X%X%X%X%X#X%X%X%X%X%X#X%X;X%X#XH.H.H.H.H.H.G.8.8.1.) v x 3 3 h E 1.E g w h g E E E ~ Q E E Q ! ! ! ! ! Q X.S.S.....X. ...p.X.S.S.S.X.! E B B s i s s 8 i 0 0 N i 9 i i N N N J L I I Y ] { { u.d.s.x.n.n.I.U.Q.W.W.6X7X9XrXtXiXpXaXaXjXkXlXxXxXxXxXvXbXbXVXVXVXVXVXAXCXCXAXAXAXAXAXCXCXCXCXCXAXCXCXCXCXCXZXZXZXCXCXCXAXAXZXZXCXCXCXCXAXAXCXCXCXCXAXAXAXAXAXAXAXAXAXAXVXVXVXVXVXVXVXVXVXVXVXVXVXVXVXVXVXVXAXAXAXAXAXVXVXVXAXVXVXVXAXAXAXAXVXVXVXVXVXVXVXVXVXVXVXVXVXVXbXbXvXvXbXbXbXvXvXvXvXvXvXvXvXvXvXvXvXxXxXxXxXxXxXvXxXvXvXvXxXvXvXxXvXvXvXbXbXbXvXvXvXvXvXvXbXbXbXbXbXbXbXbXbXbXvXvXvXvXxXxXxXxXxXxXzXkXkXkXkX",
"z.z.z.z.z.z.z.z.z.z.z.z.z.x.x.x.x.x.j.j.x.x.z.z.V.V.B.Z.I.U.U.U.W.W.W.4X7X7X7X7X7X!.!.!.!.7X7X7X7X7XrXrXrXtXpXpXpXpXaXaXaXaXaXaXaXaXaXaXpXpXiXiXiXtXtXtXrXrXrX8X8X8X7X7X7X7X6XW.T.T.T.U.U.I.I.B.M.m.M.M.M.M.M.M.m.m.P.R.R.E.!.8X8X8XwXwXwXwXwXwXwXwX~.~.~.~.~.E.~.^.^.^.^.^.^.^.^.^.^.^.^.^.^.^.L.L.(.S.S.S.p...X. ._ ~ E K g s a 9 & # # # @ @ @ @ @ @ @ @ @ @ @ @ @ $ # # = = = = = = = % % * = = % % % # # = @ @ @ # # @ @ @ # @ @ $ $ @ @ $ $ $ @ @ @ @ $ $ @ @ @ @ @ @ @ @ @ @ @ . . @ . . . . . . . . . . . . . . . . . . X X . . . . . . . @ @ @ @ @ # # # % * * * * * * * ; * ; * * * = ; ; * * & # # @ @ @ @ @ @ & & * * % # # # # # # & ; ; ; ; # # # % $ # 9 7 ; d w w d Z Z Z Q ' 1.1.Z ^ ^ W Z Z d e d x x A ^ 1.' / Z x v ' ^ c W d h a a h h g c ! c g c c c c x Z ( -.1.G.F.oX@X&X*X*X*X=X=X-X>X>X-X-X-X-X-X-X-X-X-X-X-X<X-X-X-X-X=X-X>X=X*X*X*X*X&X@XoXH.F.{..X@XoXD.D.D.{.{.{.{.oX{.oXD.D.D.{.{.{.{.oXXXXXXXXXoXoXoXoXoXOX$X$X$X$XOXOXOXOXOXOXOX].].].].].].].].OXOX].].OXOX X]. X].].`.`.`.`.`.].`._.].[._._.[.[.[.[.`.`._._.`._.`.`.`.].].`.`.[.`._._.`.[._._._._._._._._.`._._._._._._._._._._._.`.`.].].`._._._._.'.'.'.'.'.`.`.'.'.'.'.'.`.].{.`.|.oXoX{.{.oX@X$X@X@X@X@X*X&XXXD..XoXG.D.#X@X%X%X%X@X%X%X%X%X;X;X%X%X%X%X;X;X%X/.H.H.H.H.H.G.9.1.1./ c e w 3 a E ..c g a a h E E E E W E E ! ! ! ! ! ! ! ! X.S.S...X.X.X...X.v.S.S.S. .~ E B s 0 s s 8 9 9 9 N i 8 i i i N N J P I I Y { { { u.d.s.j.z.n.B.P.U.Q.W.6X7X9X7X9XtXyXiXpXaXaXkXlXxXcXxXvXvXbXbXVXVXVXVXVXAXAXAXAXAXAXAXCXCXCXCXCXZXZXZXZXZXZXCXCXCXCXCXCXCXCXCXCXCXCXCXCXCXCXCXCXCXAXAXAXAXAXAXAXAXAXAXAXAXAXVXVXVXVXVXVXVXVXVXVXVXVXVXVXVXVXVXVXAXAXAXVXVXVXVXVXVXVXVXVXVXVXVXVXVXVXVXVXVXVXVXVXVXVXbXbXbXbXvXvXvXvXbXvXvXvXvXvXvXvXcXcXxXxXxXcXcXcXcXcXxXxXcXxXxXcXcXvXvXxXxXcXvXvXvXvXvXvXvXvXvXvXvXvXvXvXvXvXvXvXvXvXvXvXvXxXxXxXxXxXxXxXzXkXkXkXsX",
"z.z.z.z.z.z.z.z.b.z.z.z.z.z.z.z.x.x.x.x.x.x.x.z.n.V.B.B.I.I.U.U.W.W.W.W.W.4X7X7X7X7X!.!.!.7X7X7X7X7X7XrXrXtXpXpXpXpXpXpXaXaXaXaXsXsXsXaXpXiXiXiXuXrXrXrXrXrXrXrX7X8X8X8X7X6XW.W.T.T.Q.U.U.I.B.B.M.M.M.M.M.M.m.m.m.P.P.R.R.E.!.!.8X8XwXwXwXwXwXwXeXwXwXwX~.~.~.E.~.^.^.^.^.^.^.^.^.^.^.^.^.^.^.(.(.(.S.S.S.S.....X. ._ ~ E K g s 9 > & # # @ @ . @ @ @ @ @ @ @ @ @ @ @ $ $ @ # = % = = % % % = = = # # = = # $ $ @ @ $ @ @ @ @ @ # $ $ # $ @ @ @ $ $ $ $ @ $ $ $ @ $ @ @ @ @ @ @ @ @ @ . . . . . . . . . . . . . . . . . . . . . . . . . . . . . . @ @ @ @ @ @ @ # % * * * * * * * * * * * * = = * * * & # @ @ @ @ @ @ @ @ # & & # # $ # # # % % # ; 7 ; % # # # # * . w w 9 d ; w d Z Z Q ^ ' 1.8.Q ^ ^ Z Z Z d e e d e d A ' -.) Z v l v c x W c x h h h h h d W d d c c c x c Q ' 1.8.D.oXXX%X*X*X*X=X-X-X>X>X=X=X-X-X-X-X-X-X-X-X-X-X2X2X-X-X>X-X2X>X*X&X*X*X*X@X#XXXF.F.oX.XD.D.D.{.oX{.F.F.D.D.G.D.D.F.{.XX.X{.{.oXoX.X.XoXoXoXXXoXoXoXOX$X$XOXOXOXOXOXOXOXOX].].].].`.`.].].OX X].]. X}.].`.`.`.`.`.`.`.`.`.].`.`.].`._.`.[.`.`.`.`.`.`._.]._.`.`.].].]._.].].`._._._.[._._._._._._._.[.]._.[.[.[.`.`._._._._._._.`.`.`.`.`.`.`._.'.`.`.`.'.`.`.`.'.'.'.'.`.].|.|.oXoX{.'.{.oX@XoX{.XX@X$X*X*X#XF.F.F.G.F.#X@X%X*X%X%X%X%X%X%X%X%X%X%X%X%X%X%X%X#XH.H.H.H.F.F.9.1.-./ v e 3 3 3 W ..d g a 1 a g E E E E W E E W ! ! ! ! ! Q ! ..S.S.....X...X.S.S.(.(. .Q ~ E B 0 s s 8 8 8 0 N i 8 0 i i N N J P L I Y [ { { u.d.s.j.z.n.V.V.P.U.T.W.6X7X9X7XrXrXyXyXpXpXjXkXkXxXxXxXvXvXbXbXVXVXVXVXVXVXAXAXAXZXAXCXCXCXCXCXCXCXZXZXZXZXCXCXAXCXCXCXCXCXCXCXCXCXCXCXCXCXAXAXAXAXAXAXAXAXAXAXAXAXAXAXVXVXVXVXbXbXbXbXbXbXbXbXbXbXbXbXVXVXbXVXVXVXbXbXbXbXbXbXbXbXbXbXbXbXbXVXVXVXVXVXVXbXbXbXbXbXvXvXvXvXvXvXvXvXvXvXvXvXxXxXxXxXxXxXxXxXcXcXcXcXcXcXcXcXxXcXcXxXxXcXxXcXcXxXxXxXcXcXcXcXcXvXvXvXvXvXvXvXvXvXvXvXvXvXxXxXxXxXxXxXxXxXlXlXkXkXkXsXsX",
"z.z.x.z.z.b.b.b.b.z.z.z.x.z.z.z.x.x.x.x.x.x.z.z.n.V.B.B.I.I.U.W.W.W.W.W.W.4X7X7X7X7X7X7X7X7X7X7X7X7X7XrXrXtXtXpXpXpXpXpXpXaXaXaXsXsXsXaXpXiXiXrXrXrXrXrXrXrXrXrX7X8X8X7X7XW.W.W.T.T.R.U.I.I.B.m.m.m.m.M.M.M.M.M.P.P.R.R.R.E.!.!.8X8XwXwXwXwXwXwXwXwXwXwX~.~.~.~.~.^.^.^.^.^.^.^.^.^.^.^.^.^.^.(.(.(.S.S.S.S..... . .! ~ E B g a 1 * # # # @ @ . . @ @ @ @ @ @ @ @ @ @ @ $ $ # = = = = % % % * * = # @ # = # @ @ @ @ @ @ @ @ @ @ # @ $ $ @ @ @ @ @ @ @ @ @ $ $ $ $ $ @ @ @ @ @ @ @ @ @ . . . . . . . . . . . . . . . . . . . . . . . . . . . . . @ @ @ @ # @ @ @ # % * % & * * = * * * * * * = = * * & # @ @ @ @ @ @ @ @ @ # & & # # # # # # # # & ; 7 ; # # # # % ; # 9 w 9 e w e d C Z ^ ( ' 1.1.Q Z ( ^ Z W C x d e e d A ' 1.^ D D x l e x c c d h h h d g c c g c c c c c W ^ ' 8.G.oXXXXX&X=X*X*X-X-X-X=X>X=X=X-X-X-X-X-X-X-X2X<X-X-X2X-X*X>X-X=X=X@X@X*X*X@XF.F.F.G.G.D.G.G.G.G.G.G.G.G.G.G.G.G.G.G.F.{..XoXoX.XoXoX{.{.{.$XXXXXoX{.oXoXOX{.{.}.}.}.{.}.}.|.].].`.`.'.`.].].].].`.`.].].`.`.`.`.`.`.`.`.`.`.].`.`.[.`._.`.`.`._._._.`.`.`.].`.`.`.`.`.`._.].].].`.`.`.[._._._._._._._.[.]._._._._._.[.`.`._._.`.`.`.`._._.`.`.`._.'.`. X|.`.`.|.|.`.'.'.`.`.].|.oXoXoX{.{.{.oXoX{.{.oX@X&X%X@XoX@X%X{.D..X#X#X%X*X*X%X;X*X;X%X%X%X%X%X%X%X#X#X#X#X#X#XH.H.F.D.8.-.-./ v e 3 3 w ` X.h g w 1 a h c E c g E E c E ! ! W W ! ( Q  .S.S.S...X.....S.S.S.(. .! ~ E B s s s 9 8 8 9 N i 8 9 i i i N N P L I Y ] { { u.d.s.j.x.z.n.V.B.I.U.U.W.W.5X7X7XrXtXtXyXiXpXaXjXkXkXxXxXxXvXbXbXVXVXVXVXVXAXAXAXAXAXAXCXCXCXCXCXCXAXCXCXCXCXAXAXAXCXCXCXCXAXAXAXAXAXAXCXCXAXAXAXAXAXAXAXAXAXAXAXVXVXVXVXVXVXbXbXbXbXbXbXbXbXbXbXbXbXbXbXbXbXbXbXbXbXbXbXbXbXbXbXbXbXbXbXbXbXbXbXbXbXbXbXbXbXbXvXvXvXvXvXvXvXvXvXvXvXvXvXvXxXxXxXxXxXxXxXxXxXxXzXzXzXzXxXxXzXxXzXzXzXcXcXcXcXcXcXxXxXxXxXxXcXcXcXcXcXvXvXvXvXvXvXvXvXvXxXxXxXxXxXxXxXlXlXlXkXkXjXsXaX",
"x.x.x.z.b.b.b.b.z.z.z.z.x.x.z.z.x.x.x.x.x.x.z.z.n.n.V.B.I.I.U.W.W.W.W.W.W.4X7X7X7X7X7X7X7X7X7X7X7X7X7XrXrXtXyXpXpXpXpXpXpXaXdXaXsXsXpXpXpXiXrXrXrXrXrXrXrX9X8X8X7X8X7X7XW.W.W.W.Q.Q.U.U.I.I.B.m.m.m.m.M.M.M.M.M.m.P.R.R.R.E.!.8XwXwXwXwXwXwXwXwXwXwXwXwX~.~.~.~.~.^.^.^.^.^.^.^.^.^.^.^.^.^.^.L.(.(.S.S.S.v..... . .! ~ E g s a > * # # # @ @ @ @ @ @ @ @ @ @ @ @ @ @ @ # @ @ = # # = % % = = * % # @ # = # @ @ @ @ @ @ @ @ @ @ # $ @ $ @ @ @ @ @ @ @ @ $ @ $ @ $ $ $ $ $ @ $ @ @ @ @ @ . . . . . . . . . . . . . . . . . . . . . . . . . . . . = @ @ @ @ @ @ @ # & & & & * * & * * * * * = = = * * & # @ @ @ @ @ @ @ @ @ @ # # % % % # # # # # % 7 7 ; # # % % 7 * 7 7 9 w w e e d C C Z ^ ' 1.1.Q e ^ ^ Z Z Q F d e x x Z / -.D b D v x x x x d d h e a d c E C W Q c c W W ^ ( 1.G.H.@X&X@X=X=X*X*X-X>X=X=X=X>X=X-X-X-X-X-X<X-X-X-X-X-X-X-X-X-X*X*X*X&X&X&X#XoXG.9.G.9.9.G.9.9.9.9.9.G.D.G.<.<.G.D.G.9.D.{.{.oX.X.XoXoXoX{.{.OXXXoXoXoXoXoXoX'.{.oXoX{.{.{.oX|.`.`.`.'.'.'.`.].].].`.`.].`.`.`.`.].`.`.`.`.`.].].`.`.`._._._.`.`.`.`.`.[.].].].`.].`._._._._.`.`.`.`.].].].]._._._._._._._._._._._.)._._._._._._.`.].`.`.`._._.`.`.`.`. X X X|.`.`.`.'.'.`.|.`.].|.oXoXoXoXoX'.'.{.@X&X@XoXXX@XXXXX*X*XoXF..XXX#X#X%X;X*X*X;X;X;X%X%X%X%X%X%X#X#X%X#X#X#XH.H.F.G.8.-.' ' Z e 3 w h  . .h g h 1 a h d E E c E W E C W ! ! W E ! ! ! X.S.S.X.X.....p.S.S./.1. .~ B B s B s 9 8 8 8 i i 0 9 i i i N N J P L Y Y [ { { d.d.s.j.x.n.n.V.B.B.I.I.U.W.W.4X7X0X9X9XtXyXyXaXjXkXlXxXxXxXvXbXbXVXVXVXVXAXAXAXAXAXAXAXAXAXAXAXAXAXAXAXAXCXCXAXAXAXAXAXAXVXVXVXVXAXAXAXAXAXAXAXAXAXAXVXVXAXVXVXVXVXVXVXVXVXbXbXbXbXbXbXbXbXbXbXbXbXbXbXbXbXbXbXbXbXbXbXbXbXbXbXbXbXbXbXbXvXbXvXvXvXvXvXvXvXvXvXcXcXcXcXcXcXcXcXcXcXcXcXcXxXxXxXxXxXxXxXxXzXzXzXzXzXzXzXzXzXzXzXlXzXcXcXcXxXxXxXxXxXxXxXxXxXcXcXcXxXxXxXxXvXvXvXvXxXxXcXcXcXxXxXxXxXlXkXkXkXsXsXsXaX",
"x.x.x.z.b.b.b.b.z.z.z.z.z.z.z.z.x.x.x.x.x.x.x.x.n.n.B.B.I.I.U.W.W.W.W.W.W.4X7X7X7X7X7X7X7X7X7X7X7X7X7XrXrXtXyXpXpXpXpXpXpXaXdXdXaXaXpXpXiXiXrXrX9XrXrXrX9X8X8X7X8X7X7X!.W.W.W.W.Q.U.U.I.I.B.B.m.m.m.m.M.M.M.m.m.K.P.R.R.E.!.8X8XwXwXwXwXwXwXwXwXeXwXwX~.~.~.~.~.~.E.E.^.^.^.^.^.^.^.^.^.^.^.^.L.(.(.S.S.S.v...X. .o.! E B g a 9 ; & # # # @ @ @ @ @ @ @ . @ @ @ @ @ @ $ # @ # = # # % % % = = % = # $ = = # @ @ @ @ @ @ @ @ @ @ # $ $ $ $ @ @ $ $ $ $ $ $ $ = = $ $ $ $ $ @ @ @ @ @ @ @ . . . . . . . . . . . . . . . . . . . . . . . . . . . . = @ @ @ @ @ @ & # & & & & & & & * * = * = = * * * * & & # @ @ @ @ @ @ @ @ # # # = * * % # # # & % 7 7 ; # % ; * 7 % * % 7 s w w e d A Z ^ ^ ' ' 1.^ e Q Z A C Q Z x d F v Z D ' ) D D A v x x x x d d h h d c C C E E c Z ( ^ ^ ' 8.D.XX&X&X+X&X-X=X=X=X>X>X=X=X>X=X-X-X-X-X-X-X-X-X-X-X-X-X-X-X-X*X-X=X*X*X@X.X{.G.9.9.<.9.9.9.9.D.{.F.D.D.9.1.9.D.G.9.9.F.{.{.{.F.{.oXXXXXoXoX{.{.{.{.oXoXoX{.'.{.oXoX}.{.].OX`.`.`.'.'.'.'.`.].OX].].].].].`. X X X].`.`.`.`.`.`._.`.]._._._._._.`.`.`.[.].].`.`.].`._._.'.'.].`.`._._.`.].]._._.`._._._._._._._._.)._._._._.r._._.`.`.`.`.`._.`.`.`.`.|. X X X|.`.`.'.'.'.`.`.`.|.|.OXOXXX$X{.{.{.XX@X@XoXoXoX@XoX@X@X@X#XF..X.X.X#X%X%X%X%X;X;X%X%X%X%X#X#X#X%X%X#X#XH.H.H.G.9.1.1.-.' Z w 3 w h X.! a g h 3 a a h g E c c E E E E W ( ! E E ! ! ! ..S...X.......S.S.(.S...! B B B B s 9 8 8 8 9 i 0 8 i i i s N J P L L Y ] { } d.s.j.j.k.z.z.n.n.n.V.B.I.U.U.T.W.5X5X0X9XtXtXyXaXjXkXzXxXxXxXvXbXbXVXVXVXVXVXVXAXAXAXAXAXAXAXAXAXAXAXAXAXCXCXAXAXAXAXAXAXAXAXAXAXAXAXAXAXAXAXAXVXVXVXVXVXVXVXVXVXVXVXNXVXbXbXvXvXvXvXvXvXvXvXvXvXvXvXbXbXbXbXbXbXbXbXvXvXbXbXbXbXbXbXbXbXvXvXvXvXvXvXvXvXvXvXcXxXcXxXxXxXcXcXcXcXxXxXxXcXxXxXxXxXxXxXxXxXlXlXkXkXkXkXlXlXlXzXzXlXkXzXxXzXxXxXxXxXxXxXxXxXxXxXxXxXxXxXxXxXcXcXcXcXcXxXxXxXxXxXxXlXlXkXkXkXsXsXsXaXaX",
"z.z.z.z.b.b.z.z.z.z.z.z.z.z.z.x.x.x.x.x.x.x.x.z.b.n.V.B.Z.I.U.W.W.W.W.W.W.7X7X7X7X7X7X7X7X7X7X7X7X7X7XrXrXtXyXyXpXpXaXaXaXaXdXdXpXpXpXpXiXiXrXrXrXrXrX9X9X8X7X7X7X7X!.!.W.W.W.Q.U.U.I.I.I.B.B.m.m.m.m.M.M.m.m.K.K.I.R.R.E.!.0X0X8XwXwXwXwXwXeXeXeXwXwX~.~.~.~.~.E.E.E.^.^.^.^.^.^.^.^.^.^.^.^.L.(.(.S.S.S.p... . ._ ~ E B g a 9 ; & # # # @ @ @ @ @ . . . @ @ # # @ @ # # # # = # # # % % % % # = # # = # @ @ # @ @ @ @ @ @ @ @ @ @ @ $ $ @ @ $ $ $ $ $ $ $ = = = $ $ $ $ @ @ @ @ @ @ @ @ @ . . . . . . . . . . . . . . . . .   . . . X . . . . . . . . @ @ @ @ . & & = = & & & = = = = = * * * * * & & & @ @ @ # # # # # # # # % * * * % % ; ; ; 9 9 7 ; ; ; * ; % % $ * e e w e B Z Q ` ^ ^ ' 1.^ x D A Z x A Z A C A x A Z -.-.) / D A x x x h d d h d C C C c d d c Q ( ^ ' 1.G.F.oX&XXXXX+X=X-X=X=X=X>X>X=X>X=X-X-X-X-X-X-X-X-X-X-X-X-X-X-X*X*X*X*X@X#XoXD.9.2.<.<.1.1.1.<.D.{.F.9.<.1.1.1.9.G.9.9.9.G.0.9.G.G.D.{.XXoX.X{.D.D.'.{.{.{.{.{.D.{.'.`.{.].].].'.'.'.'.'.'.'.{.]. X].].].].].`. X X].`.`.'.'.'.'._._.`.].`._.`._._.`.`.`.`.`._.`.`.`.`._._.'._.].`.`._._._._.[._.`.[.`._._._._.`.[._._._.`.`.`._._._._._.`.`.`._.`.'.'.'.`.|.|. X X].`.`.'.`.].].`.].|.oXoXXX$XXXoX{.{.oXoXXX@X{.@XoXoX#X@X*XoX.X.X#X#X#X%X%X%X%X%X%X%X%X#XH.H.#X%X%X#XH.H.H.F.G.8.1.1.' ^ c 3 3 w d X.E w d g a 3 j a h c E E g E E C E ! ( ! E Q ! !  ...p.....X...S.S.S.(... .K g B B f 9 8 8 8 9 i 0 8 9 i i p N N J P L L Y ] { d.s.s.j.j.z.z.z.z.z.c.n.n.B.Z.Z.U.T.4X5XqX0X9X9XtXaXaXkXkXxXxXxXxXbXbXbXVXVXVXVXVXVXVXVXAXAXAXAXAXAXAXAXAXAXAXAXAXAXAXAXAXAXAXAXAXAXAXAXVXVXVXVXVXVXVXVXVXNXVXNXVXNXNXNXbXvXvXvXvXvXvXvXvXvXvXvXvXvXvXvXvXvXvXvXvXvXvXvXvXvXvXvXvXvXvXvXvXvXvXvXvXvXvXvXcXvXcXcXxXxXxXxXxXcXxXzXzXzXzXzXzXxXxXzXkXkXkXkXkXkXkXkXkXkXkXkXkXkXlXlXkXkXzXlXkXxXxXxXxXxXxXxXxXxXxXxXxXxXxXxXcXcXcXcXcXxXxXzXzXxXxXlXlXlXkXkXkXsXsXaXaXpX",
"z.z.z.z.z.z.z.z.z.z.z.z.z.z.x.x.z.x.x.x.x.x.z.z.b.n.V.B.B.Z.U.Q.W.W.W.W.W.4X!.7X7X7X7X7X7X7X7X7X7X7X7XrXrXtXyXyXpXaXaXaXaXaXpXpXsXpXpXiXiXiXrXrXrXrXrXrX8X8X8X7X7X7X!.!.W.W.Q.U.U.U.I.P.I.B.B.m.m.m.m.m.M.m.m.P.P.I.R.R.E.T.6X8X8X8XwXwXwXwXwXwXwXwXwX~.~.~.~.~.E.^.^.^.^.^.^.^.^.^.^.^.^.^.L.L.(.(.S.S.v.p.X. .o.! ~ K g d a 9 ; % @ @ @ @ @ @ @ @ . . . @ # # # @ @ # = $ # % # # % % % = # = # # = = # @ @ # @ @ @ @ @ @ @ @ @ @ @ @ @ @ @ $ @ @ @ @ $ $ # = = $ $ $ @ @ @ @ @ @ @ @ @ @ @ @ . . . . . . . . X X   . . . . O . . . X . . . . . . . @ @ @ @ . . = & @ @ = # # & & = = = = = * & & & & & @ @ . # # # # # # # # # % * * ; ; ; ; 7 w w 7 7 7 * # # * % % % w d 3 d C Z Z Q ^ ^ ' ' A A Q x ^ x d A A Z Z x v v ' <./ ) ^ ) Z c x c x d d c Z C d c h g Q ( ^ ^ 1.G.G.H.XX&XXXXX+X=X-X=X*X=X>X>X=X=X=X-X-X-X-X-X-X-X*X-X<X<X-X*X-X*X%X@XXXF.D.D.G.<.<.1.1.-.' %.-.-.-.-.%.%.%.-.%.-.:.1.<.<.2.4.9.9.0.D.{.oX{.{.D.G.D.'.{.{.{.'.'.D.D.D.'.`.].{.'.'.'.'.'.'.'.'.].].].].].`.].].`.].`.].`.`.'._.'._._._.`. X`._.`._._.`.`.`._._._.`._.`.`.`.`.`._._._.`.`.`.`.`.`._.[.[._._.[.[.`._._._._.`.`.[.`. X`._._.`.`.`._.`.`.'.'.'.'.`.`. X X|.|.|.].|. XOX X].|.].{.oXXXoXXXXXoXoXoXoX.X.XoXoX@X@XXX%X@X#X#X#X#X#X%X%X%X%X%X%X;X;X%XH.H.#X#X#XH.H.H.F.G.D.1.1.1.^ Z c w 3 3 g X.E a h g h 3 3 a h g W W g c E E E E !  .! E E !  ...S...X.X...S.S.S./.v.X.K s K B B 8 8 8 8 9 i 0 8 9 0 i i s f N J P P L Y [ } d.d.s.s.x.x.x.x.k.x.z.z.n.m.V.C.Z.Y.T.4X5X5X0XtXtXyXaXjXlXlXxXxXvXbXbXbXVXVXVXVXVXVXVXVXVXVXVXVXAXAXAXAXAXAXAXAXAXAXAXAXAXAXAXAXAXVXVXVXVXVXVXVXVXVXVXVXNXNXNXNXNXbXNXNXvXvXvXvXcXvXvXvXvXvXvXvXvXvXvXvXvXvXvXvXvXvXvXcXvXvXvXvXvXvXvXvXvXvXvXvXvXvXvXvXvXcXxXxXxXxXcXxXxXzXzXzXzXzXzXzXxXxXkXkXjXjXkXkXkXkXkXkXkXkXkXkXkXkXkXkXkXkXkXkXkXkXkXkXzXxXxXxXcXcXxXxXxXxXxXxXcXcXcXcXxXxXxXxXxXxXlXlXlXkXkXjXsXsXaXaXiX",
"x.z.b.n.n.n.b.z.z.z.z.n.n.z.z.x.x.x.x.x.x.k.x.z.n.n.V.V.B.I.U.Q.U.Q.W.W.W.W.7X7X7X7X7X7X7X7X7X7X7X7XrXrXrXtXiXpXiXiXiXpXdXdXdXpXpXpXpXiXiXrXrXtXtXtXrXrX8X7X7X7X!.!.!.W.T.R.Q.T.I.I.I.I.I.I.m.m.m.m.m.M.M.m.K.P.K.I.R.R.E.!.8X8XwXwXwXwXwXwXwXwXwXwXwX~.~.~.~.~./.~.^.^.^.^.^.^.^.^.^.^.^.^.L.L.L.S.S.S.v.p.X. ._ ! ~ B g d a 9 * # @ # # @ @ @ @ @ @ @ @ @ @ @ @ $ $ $ = = = = $ $ $ = = = # # = = $ @ @ @ @ @ @ @ @ @ @ @ @ $ @ @ @ @ @ @ @ @ @ @ @ @ @ @ = * $ $ $ $ $ $ $ $ @ @ @ @ . . . . . X . . . . . . . . . . . . . . . . . . . . . = . . . . @ . . . . @ @ @ @ @ @ @ & & & & & & & & & & & & & @ @ @ & & # # # # & # # # # # % % ; * * 7 7 * % % % * * # % ; # 7 e e d x e F D ^ -.^ ^ Z Q ` A Z e A x A F x x x v ^ -.' ) ) ) ^ Q W Z W d d d c d W W d Q ` W ( ' 1.G.H.XXXX=X=X+X+X=X=X=X=X=X=X=X=X=X*X-X-X*X-X<X*X*X%X-X-X-X<X-X*XF.H.H.D.9.<.<.<.<.<.<.<.<.<.<.%.D D S S D D / S / %.-.-.:.<.2.9.9.0.D.'.'.D.D.D.0.D.'.D.D.D.D.D.D.D.0.0.D.'.'.'.'.'.'.'.'.'.'.{.OX{.'.'.`.{.{.`.].].].`.`.].].].`.'.`.].].`.`.].`.`.`.`.`.`.].].`.].]._.'.].`.'._.`.].].].`.`.`.].].`._.'.`.`.`.)._._.`.`.`.`.`.`.`.`.`.].`.'.'.'.'.'.'.'.'.`.].'.`.`.|.|.].].].].oXOX}.{.oXoXoXXXXXXXoXoXoX#X#X{.oXoXoXXXoX#X@X%X#X#X@X@X#X#X%X%X;X;X;X#XH.H.H.#X#XH.H.H.H.D.G.G.9.1.' ) W x w 3 j d  .h 1 a d d h 3 w h h g W Q g c c E W E !  .Q E E E  ...S.1...X.S.S...(.S.X.E g B s B 9 9 8 9 9 s 0 6 9 8 i i i s f N J P L I ] { } d.g.j.j.j.j.j.j.j.j.x.x.z.n.n.V.B.U.Q.W.W.7X7XrXtXyXyXsXkXxXxXxXvXvXbXbXbXbXVXVXVXVXVXAXAXAXVXAXAXAXAXAXVXVXVXAXAXVXVXVXVXVXVXVXVXVXVXAXVXVXVXVXVXVXVXcXvXNXNXNXvXvXcXvXvXvXvXvXvXcXcXcXcXvXvXvXvXcXcXvXvXvXvXvXvXcXcXvXvXvXxXxXxXxXxXvXvXvXvXcXcXcXcXcXcXxXzXzXzXzXzXzXzXzXzXzXzXzXzXzXjXjXjXjXjXjXjXsXsXkXkXsXsXkXkXkXkXkXkXkXkXkXkXkXkXkXlXzXzXxXxXxXxXxXxXxXxXxXxXxXxXxXxXxXxXlXlXlXlXkXkXkXkXkXkXsXaXaXaXiX",
"x.z.z.z.z.b.b.b.z.z.z.z.z.z.z.z.x.x.x.x.x.x.x.z.n.n.V.B.P.I.U.Q.Q.W.W.W.W.!.7X7X7X7X7X7X7X7X7X7X7X7XrXrXrXtXiXpXiXiXiXiXdXdXpXpXpXpXpXiXiXrXrXrXrXrXrX8X7X7X7X7X!.!.!.W.R.Q.T.R.I.I.I.I.I.I.m.m.m.m.M.M.M.m.m.K.P.I.R.R.E.!.8X8X9XwXwXwXwXwXwXwXwXwXwXwX~.~.~.~.~.~.^.^.^.^.^.^.^.^.^.^.^.^.^.L.S.S.S.S.v...X. ._ ! ~ B g s a 8 # # @ # # @ @ @ @ @ @ @ @ @ @ @ @ @ $ $ $ $ $ $ $ $ % % = = % = = = @ @ @ @ @ @ @ @ @ @ @ @ @ @ @ @ @ @ @ @ @ @ @ $ = = @ = = * = $ $ $ $ $ # $ @ @ @ @ . . . . X . . . . . . . . . . . . . . . . . . . . . . . . . @ @ @ @ . . @ @ @ @ @ @ @ @ & & & & & & * * & * * * & & & & & & # # # # # # # # # # % % * * * 7 7 * % % % * * % % % % 7 e e C d w x ^ ( ' D Q Z Q ` Q Z e x x A A v x x x ^ 1.-.) ) ) ^ Q W W W E c c x c C h (  .Q Q ( -.1.G.H.#X@X=X=X=X=X=X=X=X=X=X=X=X=X=X=X-X1X*X-X<X*X*X-X-X%X*X<X*X@XH.F.D.G.9.<.<.<.<.1.-.1.1.:.-./ / / / %.D D / %.-.%.-.%.%.:.<.q.2.4.q.0.D.D.0.0.9.0.9.9.0.0.D.D.0.0.0.0.'.'.'.'.'.'.'.'.'.'.'.`.].{.'.'.`.{.{.`.].].].`.`.].].`.`.`.`.].].`.`.].`.`.'.'.`.`.`.`.`.].`.'.`.].`.`.'.`.].].`.'.`.`.].].`.`.`.].`._._._.`.`.`.`.].].].].].].].].`.`.`.'._.'.'.'.'.'.`.`.|.|.oX|.|.].{.|.}.}.oXoXoXoX{.XX@X@X#XoXXXXXoXoXoXXX@X@X@X#X@X@X#X@X%X@X@X#X#X%X;X;X%XH.H.H.H.H.H.H.H.J.D.G.9.9.1.' ^ W d a 3 3 g  .h 1 a h g d a 3 3 w h g W W E c E W Q W ! ! Q E E ~ ( ..S.S...X.S...S.(.S.! g E s B s 9 9 9 9 i 0 8 9 9 u u i i s f N J P L Y ] { i.d.g.f.j.j.j.j.h.j.j.j.j.j.x.n.V.B.Z.Z.Z.Q.Q.7XrXtXtXaXsXlXxXxXxXvXvXbXbXbXbXbXVXVXVXVXVXVXVXVXVXVXVXAXVXVXVXAXAXVXVXVXVXVXVXVXVXVXVXVXVXVXBXVXVXBXBXvXvXvXvXvXvXvXcXvXvXvXvXvXcXcXcXcXcXcXcXcXcXcXcXvXvXvXxXcXcXcXcXxXxXcXcXcXcXcXcXvXvXcXcXcXcXcXcXxXxXzXzXzXzXzXzXzXzXzXzXzXzXzXzXjXjXjXjXjXjXjXjXsXsXsXsXsXsXsXsXkXkXkXkXkXkXkXkXkXkXkXlXkXzXzXzXxXxXxXxXxXxXxXxXxXxXxXxXxXxXlXkXkXkXkXkXkXkXsXsXsXaXaXaXiX",
"x.z.z.z.z.z.b.z.z.z.z.z.z.z.z.z.z.x.x.x.z.x.z.z.z.n.n.B.B.I.U.U.Q.W.W.W.W.!.7X7X7X7X7X7X7X7X7X7X7X7X7XrXrXrXtXiXiXiXiXiXpXpXpXpXpXpXpXiXiXrXrXrXrX9X8X8X7X7X7X7XW.W.W.W.Q.U.U.U.U.I.I.I.I.B.B.m.m.m.m.m.m.m.K.P.P.I.R.T.E.!.8X8XwXwXwXwXwXuXuXuXwXwXwXwXwX~.~.~.~.E.^.^.^.^.^.^.^.^.^.^.^.^.^.L.S.S.S.v.p...X.| ! ~ E B g s 9 ; # # $ # # @ @ @ @ @ @ @ @ @ @ @ @ @ $ $ $ $ $ $ $ $ $ % % % # # = = @ @ @ @ @ @ @ @ @ @ @ @ @ @ @ @ @ @ @ @ @ @ $ = = = = = = = = = = = $ $ $ # @ @ @ @ @ . . . . . . . . . . . . . . . . . . . . . . . . . . . @ = @ @ @ @ . . = = @ = = = = = = = & & & & & & & & * * * * & & & & # # # # # # # # # # # % % % 7 7 7 7 * % % * * * * % % 7 w e C e 3 d ^ ' D Z Z C Z ^ ^ D x A x F v x v x x ^ <.1./ ) ^ ^ ( ( ( W Q W c g W c g X.( c ^ ' 1.8.G.oX@X@X&X&X=X=X=X=X=X=X=X=X=X*X=X=X1X1X-X-X-X*X*X-X*X#X*X-X@X#XF.D.G.9.9.8.8.<.9.<.1.:.:.-./ / / D D / / / / / %./ %./ / %.-.<.9.2.2.<.<.<.2.2.2.4.2.<.2.4.q.0.0.0.0.0.0.D.D.D.'.'.'.'.'.'.'.'.].`.'.'.'.{.`.`.`.].].].].].`.`.`.`.`.`.`.`.`.`.`.`.'.'.`.`.`.`.`.].'.).'.].`.`.`.].].].'._.'.].].`.`.`.].].`._.].`.`.`.`.].].].].]. X X X].].].`.`.`.'.'.'.'.'.`.`.].|. X XoX|.{.|.oXoXoXXXXXoX{.XX&X&X@XoXXXoXXX@X@X@X@X@X#X@X@X@X@X@X%X*X%X#X#X%X%X;X%X%X#X#XH.H.H.H.H.F.G.G.9.8.1.' ^ c h a 3 3 E ! 3 1 1 a g g h 3 1 3 a h g W c c E c E E E ! ! E ~ E ~ X...S... .S.S...(./...E E g g s 9 9 9 9 i 9 8 9 9 u 9 u i i p N N J P L Y [ { d.d.g.j.j.j.h.s.s.s.d.d.d.s.x.z.n.n.V.V.B.Q.W.7XrXtXpXaXjXkXlXxXxXvXcXvXvXbXbXbXbXbXVXVXVXVXVXVXVXVXVXVXVXVXVXAXVXVXVXVXVXVXVXVXVXVXBXBXBXNXvXvXvXvXcXvXvXcXcXcXcXcXvXvXvXvXcXcXcXcXcXcXcXcXcXcXcXcXcXcXcXcXcXcXcXcXcXcXcXcXcXcXcXcXcXcXcXcXcXcXcXxXzXzXzXzXzXzXzXzXzXzXzXzXzXzXzXjXjXjXjXjXjXjXjXsXsXaXaXaXsXsXsXaXsXsXsXsXsXsXsXsXkXkXkXkXkXkXlXlXxXxXxXxXxXxXxXxXxXxXxXxXxXlXkXkXkXkXkXkXkXsXsXsXaXaXaXiXiX",
"x.z.z.z.z.z.z.x.b.z.z.z.z.z.z.z.z.x.j.x.x.x.x.z.z.n.n.B.B.I.I.U.Q.W.W.W.W.W.7X7X7X7X7X7X7X7X7X7X7X7XrXrXrXrXtXyXiXiXyXiXpXpXpXpXpXpXpXiXrXrXrXrXrXrX9X8X8X7X7X7XW.W.W.Q.Q.U.U.U.I.I.I.I.I.B.B.m.m.m.m.m.m.m.K.P.P.I.R.R.E.!.8X8XwXwXwXwXuXuXuXuXwXwXwXwXwX~.~.~.E.E.^.^.^.^.^.^.^.^.^.^.^.^.L.L.S.S.S.v...X. .o.~ ~ K B s a 9 ; * # # # # # $ $ $ @ @ @ @ @ @ $ @ $ $ $ $ $ $ $ $ $ $ % % = # $ # # @ @ @ @ @ @ @ @ @ @ @ @ @ @ # @ @ @ @ @ @ @ @ @ $ $ = = = = = = = = $ $ $ # @ @ @ @ @ @ . . . . . . . . . . . . . . . . . . . . . . . . . . . @ @ @ @ . . . = = = @ @ = . . = = = & & & & & & & & & * * & & & & & # # # # # # # # # % # # # * 7 7 7 7 * % 7 % 7 % # % ; w e d e w d ^ ' Z A Z Z ^ ^ ^ Z F A x x x x v A Z ^ 1.1.-.' ^ ^ ' ' ' ( ( Q E c C c ( Q c C ( ' 1.G.F.oX*X*X=X&X&X=X>X>X>X>X=X=X*X&X*X*X-X1X*X-X-X%X-X*X%XH.@X#XD.H.G.G.G.9.9.9.8.8.<.9.9.:.-.%./ / / %./ / / -.-./ / / / %.%./ ) / / %.-.-.:.-.-.-.<.2.2.<.:.:.;.<.2.2.2.4.q.q.0.0.D.D.D.D.D.'.'.'.`.'.'.'.'.'.'.`.`.`.`.`.`.`.`.`.`.`.`.'.'.`.`.'.`.`.`.'.`.`.`.`.`.]._.).`.].`.`.].].].].`.'.`.].`.`._.`.].].`.'.].[.`.`.`.].].].].]. X X].].|.|.|.|.|.|.|.].`.`.'.`.`.].].|.|.].{.oXXXXXoXXXXXXXoXXX@X@X@X#X#XoXoX@X&X&XoXoX#X@X@X#X#X#X#X*X%X#X#X%X%X%X%X%X#X#XH.H.H.F.D.G.G.9.9.<.-.^ Z x h a j 1 ~ ! 1 1 1 1 h c g h 3 3 3 a h E C E W c c E E !  .! ! ~ E !  ...S. ...S.S.S.^.S.~ E B s i 0 9 9 9 0 9 8 9 9 9 9 9 u i i p p N J J L Y { d.d.s.s.j.h.s.s.d.d.d.d.d.d.s.j.x.x.b.n.V.B.Q.5X9XrXyXpXaXjXkXlXxXxXxXxXvXvXbXbXbXbXVXVXBXBXbXbXVXVXVXVXVXVXVXVXVXVXNXNXNXNXNXNXNXNXNXNXNXvXvXcXcXcXcXcXcXcXcXcXcXcXcXcXcXcXcXcXcXzXcXcXcXcXcXcXcXcXcXcXcXcXcXcXcXcXcXcXcXcXcXcXcXcXcXcXcXcXxXzXzXzXzXzXzXlXzXzXzXzXjXjXgXgXjXgXgXjXjXjXjXsXsXsXsXsXsXaXaXaXaXsXaXaXsXsXsXsXsXsXsXsXkXkXkXkXkXkXkXlXxXxXxXxXxXxXxXxXxXxXxXlXkXkXkXkXkXkXkXkXkXsXaXaXaXaXaXiXiX",
"x.z.b.z.z.z.z.x.b.b.z.z.x.z.z.z.z.x.j.x.x.x.x.z.n.n.V.V.B.P.I.I.U.W.W.W.W.W.!.7X7X7X7X7X7X7X7X7X7X9XrXrXrXtXiXiXiXiXiXiXiXpXiXiXpXpXpXiXrXrXrXrXrXrX9X8X8X7X7X!.W.W.T.Q.U.U.I.I.I.I.I.I.C.B.B.m.M.M.M.M.M.m.m.m.I.R.R.T.!.8X8X8XwXwXwXwXuXuXuXuXwXwXwXwXwXwX~.~.E.E.^.^.^.^.^.^.^.^.^.^.^.L.(.L.S.S.v.p...X. ._ ~ ~ B g s 0 9 * * % # # # # $ @ @ @ @ @ @ @ $ $ $ $ $ $ $ $ $ $ $ % % % * % = = @ @ @ @ @ @ @ @ @ @ @ @ @ @ @ @ # @ @ @ @ @ @ @ @ @ $ # = % % % = = = = # # # # # # @ @ @ . . . . . . . . . . . . . . . . . . . . . . . . . . . . . . . . . . . @ @ @ . . . . . @ @ = & & & & & & & & & * * * & & & & # # # # # # # % % % % % % 7 * 7 7 7 7 5 7 % 7 % % % 7 7 w 3 e d d D ( Z A Z Z ( ' ^ A x e e x x v Z D ^ ^ 8.<.1.-.-.' ' ' ' X.` ( Q Q C C ( c W ( ` ' 1.G.H.oX&X=X=X=X=X=X=X=X>X>X=X=X*X=X*X*X=X-X*X-X-X*X*X*X#XD.F.G.8.G.G.G.8.8.<.<.<.<.1.<.1./ / / ) ) / -.1.:.-.1.1.-.%./ %.-.-.%.) ) S ) ) / / / %.-.:.<.2.2.:.-.-.-.-.:.:.<.<.2.2.q.4.0.0.0.0.D.'.'.'.'.'.'.'.'.`.'.'.'.`.`.`.`.`.].`.].'.'._.].].`.`.'.`.`.`.`.`.`.].].'.'.`.OX].].].].].].].].].].].'._._.`.`.`.`.`.`.`.`.`.].].].].|.].].].].|. X X XOXOXOXOX|.|.'.`.`.`.`.oX|.|.'.oXXXoX{.oXXXXXXXXXXXXX@X@X@XoX.XoX@X#XoXoX#X#X#X#X.X.X.X@X@X.X#X#X#X#X#X#X#XH.#XH.H.F.G.G.G.9.9.<.' W Z x h a a 3 ~ E , 1 1 1 3 g c d a 3 1 1 h d E E Q W C E E W !  . . . .` !  ...X.X.S.(.S.S.(._ ~ ~ g 8 0 0 8 9 9 8 8 9 9 9 9 9 9 i i i i p p R J L ] { { s.s.s.s.s.d.s.s.d.d.d.d.d.d.s.j.x.x.b.V.B.Q.W.7XrXtXpXaXjXkXlXxXxXxXcXxXvXvXbXbXbXbXbXbXbXVXVXVXbXbXbXbXVXVXVXbXvXbXbXbXbXbXbXvXvXvXvXvXvXcXvXvXcXcXcXcXcXcXcXcXcXcXcXcXcXcXxXzXcXcXcXcXcXcXcXcXcXcXcXcXcXcXxXxXcXcXcXcXcXcXzXzXzXzXzXzXzXzXzXzXzXzXzXzXkXkXkXzXsXsXgXgXjXjXjXjXsXsXsXsXaXaXaXaXaXaXaXaXaXaXaXaXsXsXsXsXsXsXsXsXjXkXkXkXkXkXkXkXzXzXxXxXxXlXlXlXkXkXkXkXkXkXkXkXjXjXkXkXsXsXaXaXaXaXiXiXiX",
"z.z.z.z.x.z.b.b.b.z.z.z.z.z.z.z.z.x.x.x.x.x.z.z.n.n.V.B.B.I.I.U.U.W.W.W.W.W.!.!.7X7X7X7X7X7X7X7X7XrXrXrXtXtXiXiXiXiXiXiXiXiXiXiXpXpXiXiXrXrXrXrXrXrX8X7X7X7X!.W.W.W.T.Q.U.U.I.I.I.I.I.C.C.B.m.m.M.M.M.M.M.m.m.m.I.R.R.E.!.8X8X8XwXwXwXwXuXuXuXuXwXwXwXwXwXwX~.~.~.E.E.^.^.^.^.^.^.^.^.^.L.(.L.S.S.v.v...X. .o.! ~ E B g s 9 8 * # % # $ @ # $ @ $ $ $ $ @ $ $ $ $ $ $ $ $ $ % $ % % % % % = = = @ @ @ @ @ @ @ @ @ @ @ @ @ # # # @ @ @ @ @ @ @ @ $ $ $ # % * * * = = = = # # # # # # # @ . . . . . . . . . . . . . . . . . . . . . . . . . . . . . . . @ . . . . . . . . . . . . . @ . = & & & & & & & & * > * * & & & & & & & # # % % % % % % % 7 * 7 7 7 7 7 7 % 7 7 % % 7 9 w % e d F Z ^ D Z Z A ' ' Z A F x x A Z D ^ ^ Z c G.8.1.1.8.1.1.( (  .( ( ( ` W Q E W ( W ^ ' 1.F.XXXX&X-X3X=X=X=X=X=X=X=X=X=X=X*X&X&X*X-X-X-X<X-X*X-X%XG.G.G.<.8.8.8.<.1.1.1.1.-.' ) D D D D D D ) / ' -.1.-.-.-.%./ / / %.-.%.-.<.1.%.S D m S / / %.-.:.<.:.:.-.%.%.%.-.*.-.:.<.>.4.4.4.q.0.).'.).).'.'.'.'.'.'._._._.`.`.`.`.`.].`._.'.`.].].`.`.'.'.`.`.`.[.`.].].'.'. XOX X].].].].].].].].].].`._._.'.'.'.`.`.`.`.`.`.].].].|. X X|.`.`.|.OXOXOXOXOXOX X|.].`.].].`.|.OXOXoX'.`.oX{.{.oXOX@XXXXXXXXX@X&X@XoX@XoXoXoX#X*X@XoX#X.XF.F..X#X#X.X.X#X#X#X#X#X#X#XH.H.F.F.G.G.9.9.8.1.' Z c x h h h a E g , 1 1 1 - a g c g h w a a a g g E ( W c c g E !  ...S...X.! X...X...(.S.S.(.X.! ` B * 9 0 8 9 9 8 8 8 9 9 9 9 9 9 9 u i i i p R P I ] { u.d.d.s.d.d.d.s.d.d.d.d.u.d.d.d.g.j.x.b.V.B.Q.W.9XrXtXpXaXaXkXkXxXxXxXcXxXvXvXvXbXbXvXvXvXvXbXbXbXbXvXbXbXVXbXbXvXvXvXvXbXvXvXvXvXvXvXvXcXcXcXcXcXcXcXcXcXcXcXcXxXxXxXxXcXxXxXzXxXxXcXcXcXcXxXxXcXcXcXcXcXcXzXzXzXzXcXcXcXxXzXzXzXzXzXzXzXzXzXzXzXzXzXkXkXkXkXzXsXsXgXgXjXsXsXsXsXsXsXaXaXaXaXaXaXaXaXaXaXaXaXaXaXaXaXsXsXsXsXsXjXjXjXkXkXkXkXkXlXlXlXzXkXkXkXkXkXkXkXkXkXkXkXkXjXjXsXsXsXaXaXpXaXaXiXtXtX",
"x.z.z.x.x.z.b.b.z.z.z.z.z.z.z.z.x.x.x.x.x.x.x.z.n.n.V.V.B.Z.I.U.U.U.W.W.W.W.W.!.7X7X7X7X7X7X7X8X7X9XrXrXrXtXtXiXiXiXiXiXiXiXiXiXpXpXiXiXrX9X9X9X8X7X7X7X7X7X!.W.W.W.T.Q.U.I.I.I.B.B.B.B.B.m.m.m.m.M.M.M.M.m.K.P.I.R.R.T.!.0X8X8X9XwXwXuXuXuXwXuXuXwXwXwXwXwX8X~.~.~.E.^.^.E.^.^.^.^.L.L.L.K.S.S.v.v...X.| | _ ~ E B g s s 9 * = # # # @ @ $ $ @ @ $ @ @ $ @ $ $ $ $ $ $ $ $ $ $ % % $ $ $ $ = = @ @ @ @ @ @ @ @ @ @ @ @ @ @ @ @ @ @ @ @ @ @ @ @ # $ # = % = * % = = = # # # # @ @ @ = @ . . . . . . . . . . . . . . . . . . . . . . . . . . . . . . . @ . . . . . . X X X X . . . . o o & & & & * & & & > ; * * & & & & & & * * % % # # % % % % 7 % * 7 7 7 5 5 5 % 5 5 % 7 w w % w e Z ^ Q ^ Z Z A ^ ' A A ^ Z Z Z D ^ Z A A v 9.1.-.<.G.8.1.` Q ( ( ( ` ` ( ( E ^ W c W 1.G..X@XoX%X-X=X=X=X&X&X+X&X&X=X=X=X=X=X*X*X-X*X-X1X*X*X*X%XD.G.G.G.G.G.9.8.9.8.1.-.) ) D Z D D Z D D ^ D D / -.' ' -.' / ) D ) / / -.-.-.-./ ) D D D D D D / -.-.-.%.%.%.%./ / / %.%.*.;.2.2.4.0.D.D.G.).).)._.'._._._.'._.`.`.'._.'.`._._._.`.].].`.'.'.'.'.`.].].[.[.`.'._.OXOX X].`.`.].].].].].].].`.`.`.`._._.`.`.`.`.`.`.`.].`.]. X X|.`.`.|.OX|. XOXOX X].`.`.`.|.|.{.oXOX+XOX'.{.{.{.{.oXXXXXXXXX@XXX@X@X@X@X@X@XoX{.oX&X%X#X#X.XF..XXX#XXX.XH.#X#X#XH.#X#X#XH.H.F.F.G.G.9.8.<.1.' W c d e h d h g h 1 1 - - + 1 h E W g h h h h g g c ! ! E E E E !  .X....... . .X.....S.S.S.(.S.!  .~ 9 9 9 8 9 9 8 8 8 9 9 9 9 9 9 9 9 i i i i p R P I ] { } u.d.u.u.d.d.d.d.{ } { { { { d.d.j.x.b.V.Z.Q.W.4X9XtXyXpXaXjXkXkXlXzXcXcXvXvXvXvXvXvXvXvXvXvXbXvXvXvXvXbXvXvXvXvXvXvXvXvXvXvXvXvXvXvXcXcXcXcXcXcXcXcXcXxXxXxXzXxXxXxXcXcXcXcXzXzXzXcXcXzXzXzXxXxXzXzXzXzXzXzXzXzXzXzXzXzXzXzXzXzXzXzXzXzXzXzXzXzXzXzXsXfXfXfXsXsXsXsXsXsXsXsXsXsXaXaXaXaXaXaXiXiXaXaXaXaXaXaXaXaXaXaXaXsXsXsXjXjXjXjXjXkXkXkXkXkXkXkXkXkXkXkXkXkXkXkXkXkXjXjXsXsXsXaXaXaXaXaXaXiXyXtXtX",
"x.z.z.z.z.b.b.z.z.z.z.z.z.z.z.z.x.x.x.x.j.j.x.z.b.n.n.V.V.B.I.U.U.Q.W.W.W.W.W.!.7X7X7X7X7X7X7X8X7X9XrXrXrXrXtXtXiXiXiXiXiXiXiXtXpXpXiXiXrX9X9X9X8X7X7X7X7X7X!.W.W.W.T.Q.U.I.I.P.B.B.B.B.B.m.m.m.M.M.M.M.M.m.K.P.I.I.R.R.T.8X8X8X9XwXwXuXuXuXwXwXuXwXwXwXwXwXwX~.~.~.E.E.^.^.^.L.L.L.L.K.K.S.l.v.v.p...} | _ _ ~ K B d s i 8 = = # % # @ $ # $ @ @ @ @ @ $ $ $ $ $ $ $ $ $ $ $ $ % % % % $ $ = = @ @ @ @ @ @ @ @ @ @ @ @ @ @ @ @ @ @ @ @ @ @ @ @ # @ @ # = % = # = = # # # # @ @ @ @ @ @ . . . . . . . . . . . . . . . . . . . . . . . . . . . . . . @ @ @ . . . . . . . . X . . X . . o & & & & & & & & * ; * & & & & & * * * * % # # # % % % % 7 % % 7 7 5 % 5 5 % 5 5 % 7 0 w 7 7 e ^ ' Q ^ Z Z A ^ 1.A Z ' Z D A A A x e x ^ 8.1.-.G.F.G.8.1.` ( X. .` ( ` Q W Q c Z ^ 1.oX@X#X.XXX=X=X=X>X=X&X+X+X+X&X=X=X&X=X=X-X-X*X*X*X&X-X#XoXF.G.G.G.G.G.G.G.F.D.9.-.) ) / ' / D ^ ) Z b D D ^ ' ) / -.-.' / D D D D ) ) ) / / ) ) D D D D D D S ) ) / %./ S S S S S S %.;.;.2.2.q.0.0.0.0.).).'.'.'._.'.'._.`.`.'.'.'._.).r._.].].`.'._._._.'.`.`.].[._._.).'.].OX].`.`.`.].].`.`.].].`.`.`.].`._.'.`.`.`.`.`.`.`.`.].]. X X].`.`.]. X`.`.`.].`.`.`.'.|.OXoX|.oXOX+XOXOXoX{.{.{.XXXXXX@X@X@XXXoXoX@X&X@X&X@XoX.X#X*X*X#X.X.X#X#XXX.XXXF..X#XH.H.H.H.H.H.H.H.F.G.G.9.8.1.1.' W c d h h d d g a 1 , - , + , a c E d 3 3 h h h g h g ! W g E W ~ ! ! ! X...X. . .S.....S.S.(.S. . .! s 9 9 * 8 8 8 8 6 8 9 9 9 9 9 9 9 0 i i i i p N P I ] { } u.} } } u.d.u.{ { { { { { { d.d.f.x.b.V.Z.Y.T.7X9XtXpXaXaXsXkXkXzXxXcXcXvXcXvXvXvXcXcXcXvXvXvXvXvXvXvXvXvXvXvXvXvXvXvXvXvXvXvXvXcXcXcXcXcXzXxXcXcXcXxXzXzXzXzXzXxXxXcXcXcXzXzXzXzXzXzXzXzXzXzXzXzXzXzXzXzXzXzXzXzXzXzXzXkXzXzXzXzXzXzXzXzXzXzXfXsXsXsXsXsXsXsXsXsXsXaXsXsXsXsXaXaXaXaXaXaXiXiXaXaXiXiXaXaXaXaXaXaXaXaXsXsXsXsXjXjXjXkXkXkXkXkXkXkXkXkXkXjXjXkXkXkXkXjXjXjXsXsXaXaXaXaXaXaXaXiXtXtX9X",
"z.z.z.b.b.b.z.z.z.z.z.z.z.z.z.x.x.x.x.x.x.x.x.x.b.n.V.V.B.B.I.I.U.U.U.W.W.W.W.W.!.!.7X7X7X7X7X7X7X7X9XrXrXrXrXrXiXiXiXiXiXiXiXiXiXiXiXrXrXrXrX8X8X7X7X7X7X7X!.W.W.W.Q.U.I.I.Z.Z.B.B.B.m.m.m.M.M.M.M.M.M.M.m.I.I.I.I.R.E.6X0X9X9X9X9XuXuXuXuXuXiXuXuXuXwXwXwX8X~.~.~.E.E.^.^.^.L.K.K.K.K.S.l.l.v.....} | _ ! ~ K B B s a 9 * % % # # # $ $ $ @ @ $ $ $ $ $ $ $ $ $ $ $ $ $ $ 5 5 $ $ $ $ % % $ $ = $ @ $ $ @ @ @ @ @ @ @ @ @ @ @ $ $ @ @ @ @ @ @ # = = = = # = = % # # # # # # # . @ . . . . . . . . . . . . . . . . . . . . . . . . . . . . . . . . @ . . . . . . . . . . . . X . o o o & & & & # & & * * & & * * * & & & * & # % % % # # % % 7 7 7 * 5 7 7 5 5 % 5 5 5 % 5 w 7 7 e e ^ Z Z D Z A Z D -.' Z v D D A A v x x A ^ G.9.-.G.F.H.G.S.1.1. .( X.! Q ( Q c c A ' 9.F.H.XX@X&X=X&X&X&X&XOX+X&X&X&X=X=X=X=X=X*X=X*X%X@X%XXXF.G.G.8.1.8.G.G.G.9.9.G.1.' ' ' ' ' -.-.' / ) ) ) ) ) ^ ) ) ) ) ) / / ) Z Z Z b D D D ) ) ^ D D D b D D S D b D S / / S D D S S %.;.2.;.2.4.0.).0.0.e.).).)._.`._._._.`.`.'._._.0.'.].`.`._.`._.'.'.`.`._.`.]._.`.e.`.]. X`.`._._.`.`.`._.`.].`.`.`._._.'.'.'._.'.`.'.'.'.].OXOXOX].'.'.`.`.`.`.`.`.`.|.|.|.oX|.oXOXOXoX|.oXOXOXoXoXXXoXoX{.oXXX@X@X@XXXoXoXoX@X@X@X#X.XXX@X#X@X@X#X#X#X#X#X@X#XH.H.#X#XH.H.H.H.H.F.G.G.8.8.8.1.' ^ Z x d h a g g g h 1 1 - + , , 3 d c d a 1 1 a h h d d g ! E h c ~ E !  .Q  .X...X.X.S...S.(.S.S...! ! B s 9 8 8 6 * * 8 9 8 8 9 9 9 9 9 9 i i i i p f J P L ] { { { { { { { { } { { ] ] { { { i.d.j.x.b.V.Z.U.5X5X9XrXyXpXaXsXfXkXzXzXcXcXcXcXcXvXvXvXvXvXbXvXvXcXcXvXvXbXvXvXvXvXvXvXvXvXcXcXcXcXcXcXcXcXzXzXxXxXxXzXxXzXzXzXzXcXcXzXzXzXzXzXzXzXzXzXzXzXzXzXzXzXzXzXzXzXzXzXzXzXzXzXzXzXzXzXzXzXzXgXzXzXzXzXsXsXsXsXsXsXdXaXaXaXaXaXaXaXaXaXaXaXaXaXaXiXiXiXiXiXiXiXaXaXaXaXaXaXaXaXsXsXaXaXsXsXjXjXkXkXkXkXzXkXkXzXkXkXkXkXkXjXjXaXaXaXsXaXaXaXpXpXpXpXiXyXtXtXtX",
"x.x.z.z.z.z.z.z.z.z.z.z.z.z.z.x.x.j.j.j.x.x.x.x.b.n.V.V.B.B.I.I.U.U.U.Q.Q.W.W.W.6X7X7X7X7X7X7X7X7X7X9X9XrXrXrXrXiXiXiXiXiXiXiXiXiXiXiXrXrXrXrX8X8X7X7X7X7X7X!.W.W.W.Q.U.I.B.Z.B.B.B.B.m.m.m.m.M.M.M.M.M.M.m.I.I.I.I.R.E.6X0X8X9XwXuXuXuXuXuXuXuXuXuXuXwXwXwXwX~.~.E.^.^.^.K.K.K.K.K.S.l.l.v.v.p.X.} | _ _ ~ E K B f s 0 9 * = % $ # # $ $ $ @ $ $ $ $ $ $ $ $ $ $ $ $ $ $ $ 5 5 $ $ % $ % % $ $ = $ @ $ $ @ @ @ @ @ @ @ @ @ @ @ $ $ @ @ @ @ @ @ @ # = = # # # % # # # $ $ @ @ # . . . . . . . . . . . . . . . . . . . . . . . . . . . . . . . . . . @ @ . . . . . . . . o o o . . o & & & & & & & * * * * * * * * * & & & & & % # % % # % % % % 7 7 % 5 5 7 5 5 5 5 5 5 % % w w d B 3 Z Q Z A D A x Z 1.^ x A ' A Z Z x x A Z ' G.G.1.9.G.H.G.8.G.1.X.X.X.E W Q c x Z ^ 1.G.F.XXXX&X=X=X&X&X&X&X&X=X=X=X&X=X=X=X=X=X*X*X%X@X%X%XJ.G.8.8.8.1.8.1.<.8.1.1.1.1.' -.-.-.-.-.1.1.-.-.' ) ) ) D ) D D Z D ) D b D ^ b b D b b b b b b b b D D D D D S S S S S S S S b S S %.-.*.>.2.2.0.0.0.).).).)._.'._.'._.`._._.'._.0._.`.'.'._.'.'.'._._._.)._._._.`.0._.`.].`.'._.'.'.`.`._.`.]._._.'._.'.`.'._.'.`.`.`.'.'.`.].].].`.'.'.'.`.`.`.`.`.`.`.|.|.|.oXOXOXOX|.|.|.oXoXoXXXXXXXoXoXoX@X$X$X@X@XXXoXoX@X@X@X@XXXoX#XXX#X#X#X#X#X#X#X@X#X@X#X#X#X#X#XH.H.F.F.G.G.G.8.1.-.' Z x d h h h d c E a 1 1 1 1 + 1 3 3 h g d a a h h h h h h E ~ E g g E Q ! `  .X...X...S.S.S.S.S.(.S. .~ B f s 9 * * 8 6 8 8 8 8 8 9 9 9 9 9 9 9 i i i i N J P I ] ] [ { { { { { { { { ] ] ] { { { { d.j.x.b.B.Z.T.4X0X9XtXyXpXaXsXfXkXzXxXcXcXcXcXcXxXvXcXcXvXvXcXcXcXcXvXvXvXvXvXvXcXcXcXcXcXcXcXcXxXxXxXxXzXzXxXxXzXzXzXzXzXzXzXzXzXzXzXzXzXzXzXzXzXzXzXzXzXzXzXzXzXzXzXzXzXzXzXzXzXzXzXzXzXzXzXzXgXgXzXgXzXzXfXsXsXsXsXsXdXdXdXdXaXaXaXaXaXaXaXaXaXaXaXiXiXiXiXiXiXiXaXaXaXaXaXaXaXaXsXsXaXaXsXsXsXsXjXjXkXkXkXkXkXkXkXsXjXjXjXjXjXaXaXaXaXaXaXpXpXiXiXiXiXtXtXtXtX",
"x.x.z.z.b.b.b.b.b.z.z.z.z.z.x.x.x.x.x.j.x.x.x.x.z.b.n.V.V.B.Z.Z.I.I.U.U.Q.W.W.W.W.!.6X7X7X7X7X7X7X7X9X9X9XrXrXrXiXiXiXiXiXiXiXiXuXiXiXrXrXrXrX9X7X7X7X7X7X7X!.W.W.T.U.U.I.B.B.B.B.B.B.m.m.m.m.M.M.M.M.M.M.m.P.I.I.R.T.T.6X8X8XwX9XuXuXuXuXuXuXuXuXuXwXwXwXwX8X~.E.E.^.P.K.K.K.K.K.l.l.l.v.p.p.X. .| | _ ~ ~ K B f s i 9 8 * % % # # # $ $ @ @ @ $ $ $ $ $ $ $ $ 5 5 5 5 5 5 5 5 5 % $ $ $ $ $ $ $ $ @ $ $ @ @ @ @ @ @ @ @ @ @ @ @ @ @ @ @ @ @ @ @ @ # # $ $ # # # # $ @ @ @ @ @ . . . . . . . . . . . . . . . . . . . . . . . . . . . . . . . . . . . . @ @ . . @ @ . . @ # @ . . . @ # # & & & * * * * * * * * * * * * & & & * # # % % % % % % 7 % % 5 5 7 7 5 5 5 5 5 5 7 e d w e e ^ Z Z Z Z x D ' ' x v ^ ' v Z D A x A A ^ D.9.1.G.G.G.1.8.F.1.' X.( C Q C x x Z ' 8.G.F.#X@X&X=X=X&X&X=X&X=X=X=X&X&X=X=X=X=X=X*X&X@X@X%X*XJ.F.G.9.8.8.8.1.1.1.' ' ' ' -.1.<.1.1.1.1.1.-.' / ' ) ) ) ) D b Z b b b b Z D b v v b v b b D D m b b b D D D D ) / S D S S S b b S S %.%.;.;.2.4.0.0.0.0.e.)._.).).)._._.)._._.).e._.`._._.).).'._._._._.).)._._._.0.)._.].`._.)._._.'.'._.'.`.).'._._.'.`.'._.'.'.`.`.'.'.'.'.`.'.'.'.'.'.{.|.{.{.{.{.|.|.|.|.oXoXoXoXoXoXoXoXoXoXoXoXoXoXoXoX@X@X&X&X@X@XXXXXoXXX#X@X#X@X@XXX#X#X#X#X#X#X#X@X#X@X#XH.H.H.H.H.F.F.F.F.G.G.8.1.-./ A x d d d d C !  .h a 1 , 1 , 3 3 1 1 h g d h h a a h h d E E Q E C E Q !  . .......v.S.(.S.S.S.^.S.X.~ B B s 9 = = 8 8 8 8 8 8 8 8 8 9 9 9 9 9 0 i i i i N N P L I Y ] [ [ [ [ [ [ ] ] Y Y ] { T { { d.g.z.n.B.U.Q.5X5X9XtXtXpXaXfXfXkXzXxXzXxXcXcXcXcXxXxXxXvXcXcXcXcXvXvXvXcXcXcXcXcXcXcXxXxXcXxXxXzXzXzXzXzXzXzXxXxXzXzXzXzXzXzXzXzXzXzXzXzXzXzXzXzXzXzXzXzXzXzXzXzXzXzXzXzXzXzXzXzXzXzXzXzXzXfXsXsXsXgXzXgXsXsXsXsXsXsXsXsXdXdXaXaXaXaXaXaXaXaXaXaXiXiXiXiXiXiXiXiXiXiXpXpXaXaXaXaXaXaXaXaXaXsXsXsXsXsXsXkXkXkXkXkXkXsXjXjXjXjXaXaXaXaXaXaXpXpXiXiXiXiXiXtXtXrXrX",
"x.x.z.z.b.b.b.b.b.z.z.z.z.z.x.x.z.x.x.x.x.x.z.x.z.z.n.n.V.V.B.Z.I.I.U.U.U.Q.T.T.W.W.W.W.!.7X7X7X7X7X9X9XrXrXrXrXuXiXiXiXiXiXiXiXuXiXuXrXrXrXrX9X8X8X8X8X7X7X!.!.W.T.U.I.P.B.B.B.B.B.V.m.m.m.M.M.M.m.m.m.M.m.I.I.I.T.T.4X6X7X8XwXuXuXuXuXuXuXuXuXdXuXuXwXwXwX8X~.E.E.^.P.K.c.c.l.l.l.v.h.p.p.} | | | _ ~ ~ K B B s s 9 8 * = % % # # # $ $ @ @ @ $ $ $ $ $ $ $ $ 5 5 5 5 5 5 5 5 5 % $ $ $ $ $ $ $ $ @ $ $ @ @ @ @ @ @ @ @ @ @ @ @ @ @ @ @ @ @ @ . @ $ $ $ $ # # # # $ @ @ @ @ @ . . . . . . . . . . . . . . . . . . . . . . . . . . . . . . . . . . . @ @ @ @ . @ @ . . # # @ . . . . @ @ # & & & & * * * & & * & * * * & # & * @ # % % % % % % 7 % % % 5 5 7 7 5 5 5 7 7 7 e e 7 w C ' Z A D A Z ' ' D Z A Z ^ x Z A A A x e ^ D.9.8.G.8.8.' 1.G.S.' Q ' ^ C Q Z Z ^ -.8.G.D.#X&X*X=X=X=X=X=X=X=X=X=X&X&X&X&X=X&X=X*X=X&X%X%X@XH.H.F.G.8.8.8.1.1.1.-.' 1.-.1.1.<.8.8.8.8.<.1.1.' ' / ' -./ ) Z D v v b b D Z b v v v v v b D ) D b v v b D D b S ) ) S S S S D v S S / %.*.*.2.2.4.0.0.0.0.).).e.e.)._.).).).).0.e._._.).).).).`.'.`.'._._.).).)._.0.e.'.`.'._.r.).'._._.'._._.).'.'._._.'._._.'.'.'.'.'.'.'.'.'.'.'.'.'.{.|.oX|.|.|.|.|.|.oXoXoXoX|.oXoXoXoXoX|.oXoXoXoXoXoXoXoXXX@X&X@X@X@X@X#X@X#X@X#X@X@XXX#X#X#X#X#X#X@X@X%X%X#X#XH.H.H.H.H.F.F.F.F.G.1.1.' ^ Z x x d d g E ..! h a 1 1 1 1 1 1 1 3 j h d h h a a h d d c c ~ ! Q Q ! !  . ...........(.S.S.S.(.S.v.! B B s 0 6 = > 8 8 8 8 8 8 8 8 8 8 9 9 0 i i i i i i N N P L L Y ] ] ] ] ] ] ] ] Y Y ] T T T { { d.x.z.V.C.U.T.5X0X9XrXtXpXaXsXfXlXzXzXzXxXcXcXcXxXxXcXcXcXcXcXcXcXcXcXcXcXcXcXcXcXcXxXxXxXxXzXzXzXzXzXzXxXzXxXzXzXzXzXzXzXzXzXzXzXzXzXzXzXzXzXzXzXzXzXzXzXzXzXzXzXzXzXzXzXzXzXzXzXzXzXzXfXsXsXsXsXsXgXsXsXsXsXsXsXsXsXsXdXaXaXaXdXdXdXdXaXaXaXiXiXiXiXiXiXiXiXiXiXiXaXpXaXaXaXaXaXaXaXaXaXsXsXsXsXsXsXjXkXsXsXkXsXsXsXsXsXaXaXaXaXaXaXaXpXpXiXiXiXiXtXtXrXrXrX",
"x.x.x.x.z.z.z.z.z.z.z.z.z.z.x.x.z.x.x.x.x.x.z.z.x.z.b.n.V.V.V.B.I.I.U.U.U.Q.Q.T.W.W.W.W.!.6X7X7X7X9X9X9XrXrXrXrXrXrXiXiXiXiXiXiXuXiXtXrXrXrXrX9X8X8X8X7X7X6X!.!.W.W.U.I.P.B.B.B.B.V.m.m.m.m.M.M.M.M.m.m.m.m.K.I.I.T.T.6X6X0X8XwX9XrXuXuXuXuXuXuXdXuXuXwXwX8X0X!.R.R.P.K.K.l.l.l.v.h.p.p.} } | | _ ! ~ ~ E B f s s 9 8 ; * = # # # # # # @ @ @ @ $ $ $ $ $ $ $ 5 5 5 5 5 5 5 5 5 5 5 $ $ $ $ $ $ $ @ @ $ $ @ @ $ @ @ @ @ @ @ @ @ @ @ @ @ @ @ @ @ @ @ @ $ $ $ # # # $ $ @ @ @ @ @ . . . . . . . . . . . . . . . . . . . . . . . . . . . . . . . . . . . . @ @ @ @ @ . . . @ @ @ . @ @ @ @ @ @ @ # = & & & & & & * & & * * & # # % @ # % * % % % % 7 5 % % 5 5 7 7 5 q 7 5 7 0 0 0 e B Z ' D A Z ^ ' / D ^ ^ F v Z x Z v v v x x -.D.F.D.<.1.1.-.1.8.' ` ( ^ ^ ^ ( ^ Z ^ 1.9.G.F.#X&X=X=X=X=X=X=X=X=X=X=X&X&X+X+X&X&X&X&X*X=X*XXXH.D.G.G.9.8.8.8.8.1.1.1.1.1.1.1.<.<.G.G.G.G.G.8.1.1.-.-.1.1.1.-.) b b b v v b D v b v v v v v v v b b b v v v v b b D D S S D D S D S S S S / %.:.;.2.4.3.0.0.e.0.e.e.)._.`._.).e.3.)._._.r.e.)._._._._._._._.).).).).3.e.'.`._._.)._.'.'.'.'._._.).'._._._._._.).).).).'.'.'.'.'.'.'.'.`.{.|.|.oX|.|.|.|.|.oXoXoXoX|.{.{.|.oXoX{.|.oXXXoXXXXXXXXXoXXX@X$X@X$X@X&X&X@X#XXXXX#X@X#X#X@X@X@X@X@X@X%X%X%X#X#X#XH.H.#XH.F.G.F.F.8.1.1./ ^ A x x x d g c  .h a a 3 3 1 1 + + 1 j 1 j h g h a a h h h g E E ! ! E ~ !  . .X....... .S.S.S...S.S.S. .B B s s 0 8 * 8 8 8 8 8 9 8 8 8 8 8 9 9 i i i i i i N N N P L L Y Y Y Y ] ] [ ] ] Y T T Y Y [ { d.f.x.b.V.Z.Y.T.7X7XrXrXyXpXaXsXkXlXlXzXzXcXcXcXcXxXcXcXcXcXxXcXcXcXcXcXcXcXcXcXcXcXxXxXxXxXxXxXxXxXxXxXxXxXxXxXzXzXzXzXzXzXzXzXzXzXzXzXzXzXzXkXkXkXzXzXzXzXzXzXzXzXzXzXzXzXzXzXzXzXzXgXgXsXsXgXgXgXgXsXsXdXsXsXdXdXdXdXdXaXaXaXdXpXpXpXpXpXiXiXiXiXiXiXiXiXiXiXiXiXaXaXpXaXaXaXaXaXaXaXsXsXsXsXsXsXsXjXkXsXsXsXsXsXaXaXaXaXaXaXaXaXpXpXpXiXtXtXtXtXtXrXrXrX9X",
"x.x.x.x.x.z.z.z.z.z.z.z.z.z.x.x.x.x.x.j.x.x.x.x.z.z.n.V.V.V.B.B.I.I.I.U.U.U.Q.Q.W.W.W.W.W.!.7X7X7X9X9X9XrXrXrXrXrXrXrXrXiXiXuXiXiXiXiXrXrXrXrX9X7X7X7X7X7X!.W.W.W.T.U.I.P.B.B.B.V.m.m.m.m.m.M.M.M.M.M.M.m.m.K.I.I.T.T.6X6X0X9X9XuXrXuXuXuXuXiXiXdXuXuXwXwX0X6XE.^.P.K.K.l.l.v.v.h.p.} } } } | o._ ~ ~ E K g s s i 9 * * = # $ $ @ # # @ $ @ @ $ $ $ $ $ $ $ $ $ 5 5 5 5 5 5 5 5 5 5 % $ $ $ $ $ $ @ @ $ $ @ @ $ @ @ $ $ @ @ @ @ @ @ @ @ @ @ @ @ @ @ @ $ $ $ # @ # $ @ @ @ @ . . . . . . . . . . . . . . . . . . . . . . . . . . . . . . . . . . . . . . @ @ @ @ @ . . . @ @ . . @ @ # # @ @ # # = & & & * * * * & & & & & # # # # # % % % % % % 7 5 5 5 5 5 7 7 7 q 7 5 q 0 s e B B ^ ' A x D ' ^ D D D A x Z A e Z A A A Z A <.D..X.X9.<.1.' ' ' ^ ^ ( Q ^ ( X.^ W ^ 1.G.F.oX@X@X&X=X=X=X=X=X=X=X=X=X=X&X+X+X&X&X&X&X=X=X=XXXJ.F.8.8.1.8.8.8.G.1.1.1.1.<.8.8.9.G.G.G.G.G.9.<.<.9.1.1.<.<.9.<.1./ ) ) Z v b b v v v v v v v v v v b b b v v v b v v b S S S D S S S b b D S S %.-.;.2.4.0.0.0.0.e.0.e.)._.).0.0.3.).).).).0.)._.).'._._._._.).).).e.2.0.'._.).)._.'.'._.).'._.).).)._._._.'.'._.'.'.'.'.'.'.'.'.'.'.'.`.|.{.|.|.`.`.'.'.`.{.|.oX|..X'.'.{.'.{.{.{.oXXXoXXXXXXXXXXXXX$X$X@X@X@X&X&X@X@XoX.XXX@X#X#X#X@X@X#X#X#X#X%X#X#X#X#XH.H.H.H.F.G.F.G.8.1.1.' D x x x x c C W ( 1 j a 3 1 o , , , 1 1 3 j j h h h h h h h g E E Q ! E W ! !  .X...S... ...S.S...v.v.S.7.E s s s s 9 8 8 8 8 8 8 9 8 > * 8 8 8 9 9 9 9 i i i i N N J P L L L Y Y Y ] ] [ [ ] T T T Y T { { d.j.z.n.B.Z.Y.5X5X7XrXtXpXaXaXsXkXkXlXzXzXxXxXxXxXcXcXcXcXzXzXzXzXcXcXcXxXcXzXxXxXxXxXxXxXxXxXzXzXzXzXxXxXzXzXzXzXzXzXzXzXzXzXzXzXzXzXzXzXkXkXkXkXzXzXzXzXzXzXzXzXzXzXzXzXgXgXgXzXzXgXgXgXgXgXgXgXsXsXdXaXdXdXdXdXdXaXdXdXaXpXdXpXpXpXpXiXiXiXiXiXiXiXiXiXiXaXaXaXaXaXaXaXaXaXaXaXaXsXsXsXsXsXsXsXsXjXjXsXsXsXsXaXaXaXaXaXpXaXaXaXpXiXiXtXtXtXtXtXrXrXrX7X7X",
"x.x.x.z.z.z.z.z.z.x.x.z.z.z.z.x.x.x.x.j.x.x.x.x.z.b.n.V.V.V.V.B.B.P.I.I.U.U.U.U.W.W.W.W.W.!.6X6X7X9X9X9XrXrXrXrXrXrXrXrXuXiXiXiXiXiXiXrXrXrXrX8X7X7X7X7X7X6XW.W.Q.U.U.P.B.B.B.B.m.m.m.m.m.m.M.M.M.M.M.M.M.m.m.P.R.T.T.6X0X9XwX9XuXuXuXuXuXuXuXiXiXiXwXwX8X0X!.E.P.P.K.c.l.h.h.h.p.} } } | | o._ ~ ~ K K g s a 9 9 > & # # # $ @ @ @ $ $ $ @ $ $ $ $ $ $ $ $ % % 5 5 5 5 5 5 5 5 5 5 5 5 % $ $ $ $ $ @ $ $ $ @ $ $ $ $ $ @ @ @ @ @ @ @ @ @ @ @ @ @ @ @ @ @ @ @ @ @ @ @ @ @ @ . . . . . . . . . . . . . . . . . . . . . . . . . . . . . . . . . . . . . . @ @ @ @ @ @ @ @ @ @ @ @ @ @ $ # $ $ # & & & * * * * * * & & & & & & # # # % % % % % % 7 7 5 5 5 5 5 5 7 7 q 6 q 0 0 e d d e ' ' x x ' ^ D A Z D A e A A x Z Z ^ Z Z A 1.D.D.F.J.G.-./ ^ ( W ' X.^ ' ' ^ Z ^ ^ 8.D.F.oX@X$X&X=X=X=X=X=X=X=X=X=X=X=X&X+X&X&X&X&X@X&X=X@XoXXXG.G.8.8.G.G.G.G.8.1.1.8.G.G.G.G.G.D.F.F.G.G.G.G.<.<.<.4.9.9.9.2.-.-.-./ D D ) D b v v b v v v b b b b D D b b b v b D S S S S S D b D b S S %.*.*.;.4.3.4.3.0.e.0.0.e.).e.0.3.0._.e.e.).0.)._.'._._.)._._._.).).0.2.0._.).r._.'._.'.).).'.'.).r.r.).).)._.`.'.'.'.'.'.'.'.'.D.D.D.'.`.|.`.'.|.'.'.'.'.'.`.|.oX'.'.'.'.{.{.{.'.'.|.oXoXoXXXXXXXXXXX@X@X@X@X@X@X&X@X&X@XXXXX@X#XXX#X#X#X#X#X.X.X%X#X%X%X%X#XH.H.H.H.F.F.G.8.1.1./ Z x d d c C W  .E 1 a a 3 +   , 1 1 , , 3 j 1 a a d g h h g g g g E ! ! ! ~ !  . .X.S.v. .X.S.S.S.....S.S.E s s s s s 0 8 8 8 8 9 9 9 8 * 8 8 8 8 9 9 9 0 i 0 i i N N J P L L U Y Y Y ] [ [ ] T T T T [ [ { d.g.j.b.V.B.U.T.5X7X7XrXtXyXpXaXaXsXkXkXlXxXxXxXxXxXxXcXcXzXzXzXzXxXxXzXzXzXzXzXzXxXxXzXzXzXzXkXkXzXzXxXxXzXzXzXzXzXzXlXkXkXlXzXzXlXlXlXlXkXkXkXkXzXzXzXzXzXzXzXzXzXzXzXgXgXgXgXzXsXgXgXgXgXgXgXsXgXsXdXdXsXsXdXdXdXdXdXdXpXpXpXdXpXpXpXiXiXiXiXiXiXiXiXiXaXaXaXaXaXaXaXaXaXaXaXaXaXaXsXsXsXsXsXsXsXsXsXsXsXsXsXaXaXaXaXaXpXpXaXaXiXiXiXtXtXtXrXtXrXrXrX7X7X",
"x.x.x.x.x.x.x.x.x.x.x.z.z.z.z.x.z.x.x.j.x.x.z.z.z.z.n.n.n.V.V.V.B.B.I.I.I.U.U.U.W.W.W.W.W.W.!.!.7X7X9X9X9XrXrXrXrXrXrXrXuXiXiXiXiXiXiXrXrXrXrX8X8X7X7X7X7X7X!.W.U.U.I.P.B.B.B.B.m.m.m.m.m.M.M.n.M.M.m.m.m.m.P.I.R.R.R.6X0X9XwX9XiXuXuXuXuXuXuXuXiXiXwXwX8X8XT.R.P.K.c.l.h.h.p.p.} } | | | o.~ ~ ~ K K g d a 9 > 8 * # $ # # @ $ @ $ $ $ $ $ $ $ $ $ $ $ $ $ 5 5 $ $ 5 5 5 5 5 5 5 5 5 5 5 5 % $ $ $ @ $ $ $ $ $ $ $ $ $ # @ @ @ @ @ @ @ @ @ @ @ @ @ @ @ @ @ @ @ @ @ @ . . . . . . . . . . . . . . . . . . . . . . . . . . . . . . . . . . . . . . @ . @ @ @ . . @ @ @ @ @ @ @ @ . @ @ @ @ $ # # & & & & & & & & * & & & * * & # # # # $ # % % 7 7 5 5 5 5 5 5 5 7 q 7 0 s 7 7 e e B ( Q x ^ ' Z A Z Z Z Z x x Z A Z Z ' Z A A 9.D.oXF.D.G.1.' ^ W ' ' ` ' 8.Q e Z ^ ' G.D.F.oX@X&X=X=X=X=X>X>X=X=X=X=X=X=X+X+X&X+X&X&X@X@X&X&X@X%XH.H.G.9.G.G.D.#XG.G.G.G.F.F.F.F.G.G.F.F.G.G.G.G.9.<.<.2.4.9.9.9.<.<.1.-.-.-./ %.) D D D m b v v v D D b b b D b b b b D S S S S D S S b S S S *.*.;.2.2.2.4.).).0.0.0.r.e.0.0.)._.0.e._.0.e.).'._.).e.)._._.).).0.,.e._.).e.`.'._._.).).'._.'.r.r.r.0.r.'.'.'._.'.'.'.'.'.'.D.D.D.'.'.|.`.{.|.'.'.'.'.'.`.|.|.{.'.'..X.XoXoXoX{.|.oXoXoXXX@XXXXXXXoXoX@X@X@XXX@X@X*X*X#X#X@X#X#X@X@X%X@X#X#X.XH.#X#X#XH.#XH.H.F.H.H.F.G.9.1.' ^ A x e d c c W  .h 1 a a a , + + , 1 1 1 j a j 1 a g g h a h g g g d E  .! Q  . . . .....X. .8.S.S.v...S.S.E 9 s 9 u s s 9 8 9 8 9 9 9 8 > * 8 8 8 9 9 0 i i 0 0 i i N N J P L L L Y Y Y ] ] ] T [ T T { [ { i.g.j.b.n.B.Z.T.5X7X7XrXrXtXpXpXaXaXsXkXkXlXlXxXxXxXxXcXcXzXzXzXzXzXzXzXzXzXzXzXzXzXzXkXzXzXkXkXkXzXzXzXxXzXzXzXkXzXlXkXkXkXkXlXzXlXlXlXlXkXkXkXkXzXzXzXzXzXzXzXzXzXzXzXgXgXgXgXzXsXgXgXzXgXgXgXsXgXsXsXsXsXsXsXdXdXdXdXdXpXpXpXpXpXpXpXiXiXiXiXiXiXiXiXiXaXaXaXaXaXaXaXaXaXaXaXaXaXaXaXsXsXsXsXaXsXsXsXsXsXsXaXaXaXaXaXaXiXpXpXaXpXpXiXtXtXtXtXtXrXrXrX7X7X",
"x.x.x.x.x.x.z.z.x.x.z.z.z.z.x.x.j.j.x.x.x.x.x.x.z.z.n.n.n.V.V.V.B.B.Z.Z.Z.U.U.U.U.W.T.W.Q.W.W.W.7X7X7X8X8XrXrXrXrXrXrXrXiXuXrXrXiXrXrXrXrXrXrX9X8X7X7X7X7X7XW.Q.T.U.U.I.P.B.B.B.B.B.m.m.m.m.M.n.M.M.N.M.m.m.I.I.R.R.T.6X7X8X9XuX9XuXuXuXiXiXiXuXuXuXuX8X8X!.E.R.K.M.l.k.h.p.} } } } | _ ~ ~ P K K K f s s u 9 8 * = # $ $ $ @ # @ @ $ @ @ @ @ @ = = $ $ $ 5 5 5 5 5 5 5 5 5 5 5 6 5 5 5 5 $ $ $ $ $ $ $ $ $ $ $ # # $ $ @ $ # # @ @ @ @ @ @ @ @ . . @ @ @ @ @ @ . . . . . . . . . . . . . . . . . . . .       . . . . . . . . . . . . . . . . . . . . @ @ @ # # . . @ @ @ . @ . @ @ @ @ # # # # & & & & & & & & # # # # # % * * = $ $ @ 5 7 % % 5 6 5 5 5 5 5 5 5 q q q 7 7 0 e w C ' C 1.Q ^ Q ^ Q Z Z ^ d x Q A Z D D A A / 9..X&XF.F.9.1.1.Z ' 1.Q X.1.( C C ^ ^ 1.G.D..X@XXX&X&X=X=X=X=X>X>X=X=X+X=X=X=X+XOXOXXXXX@X&X&XXXH.XXH.H.H.H.G.G.G.G.F.H.F.F.F.H.H.F.F.G.G.G.G.G.8.<.G.9.9.9.4.0.9.<.9.9.<.1.1.1.-.-.%.) ) D b b b D S S S S S D b D D b b b S S D D D D S b S S S %.*.;.>.2.2.0.0.).0.0.).0.4.4.0.`.'.).).).0.e.'.'.'.'.'.).).).).).3.>.).e.).[._._.e.e.e.e.r._._.e.q.'._.0.0.].0.r.'._._.'.D.D.D.D.D.D.{.'.'.{.'.{.'.'.'.'.'.{.{.oX.X.X.X.X.XoX.X{.F.'.F..XoXoXoXXXoXXXXXXXXXoXXX&X&X%X%X%X#X#X#X#X%X@X#X#X#XXX.XH.H.#X#XH.H.H.#XH.H.H.H.G.8.1./ c x x w c c c E W 1 1 a 1 1 1   O - 1 1 1 1 3 3 3 3 a h g h a h g d d g Q  . . .!  .X. .S... ...p.S...S.v.S._ u 9 9 9 i s B i * 8 8 8 9 9 8 8 8 8 8 9 9 9 9 9 0 9 0 i i N N P P L I Y Y ] ] [ [ ] { { { { { { d.d.f.x.n.B.Z.Q.T.W.!.rXrXrXtXyXpXaXaXsXjXkXlXzXxXzXzXzXzXzXzXzXzXzXzXzXzXzXzXzXzXzXzXzXzXzXkXkXkXzXzXzXzXzXzXzXzXkXkXkXkXkXkXkXkXkXkXkXkXkXzXkXkXzXzXzXzXzXzXzXzXzXzXzXzXzXzXgXgXgXgXgXsXsXsXsXsXgXgXsXsXdXdXsXsXaXaXaXaXaXdXpXpXiXiXiXiXiXiXiXtXiXiXiXiXaXaXaXaXaXaXaXaXpXpXpXpXaXaXaXaXaXaXaXaXsXsXsXaXaXaXaXaXaXpXpXaXiXiXiXiXiXyXtXtX9XtXtXtX9X9X9X9X0X",
"x.x.x.x.x.z.z.z.x.z.z.z.z.x.x.x.j.j.j.x.x.x.x.x.x.z.b.n.n.n.V.V.B.B.B.B.Z.Z.U.U.U.U.T.T.Q.Q.W.W.7X7X7X7X8X9XrXrXrXrXrXrXiXuXrXrXrXrXrXrXrXrXrX9X8X7X7X7X7X7XW.W.T.U.U.I.P.B.B.B.B.B.m.m.m.m.M.n.n.n.M.M.M.m.I.I.R.T.T.6X0X9X9XuX9XuXuXuXiXiXiXuXuXuX9X8X7X!.R.P.M.c.l.h.u.} } | | | ] ~ ~ ~ K K f f s i u 9 * * = # # $ $ @ $ $ @ @ @ @ @ @ @ @ = $ = $ $ 5 5 5 5 5 5 5 5 5 5 5 5 5 5 $ $ $ $ $ $ $ $ $ $ $ $ $ # $ $ $ $ $ $ # @ @ @ @ @ @ @ @ . . @ @ @ @ @ @ X X X X X X . . . X . . . . . . . . . . . . . . . . . . . . . . . . . . . . . . . . @ @ @ @ @ @ @ @ @ @ @ @ @ @ @ @ @ @ # # # # # # # # & & & & # # # # # # # % = @ $ $ % 7 % % 5 5 5 5 5 5 5 5 5 q q 7 7 s s 9 e d ` X.` Q Q ` ( Q Z Z Z x C D Z A A D A A ' D..X*XF.F.G.F.S.W 1.( ..(.( ( c ^ ^ ' <.G.D.oX&XXX&X=X=X=X=X=X=X=X=X=X=X=X=X+XOXOXOXOXXXoXXX&X&XXXF.F.H..XF.G.G.G.F.H.H.H.F.F.F.F.D.G.F.D.G.9.G.G.9.9.9.9.0.0.9.9.9.9.9.9.<.:.;.<.;.-.*.*.%./ / %.%.%.%.S %.%.%.S S S S S S S S D D D D / D S S %.%.%.*.2.2.2.0.0.0.0.0.0.0.0.0.)._.'._._.).0.).'.'.'.'.'._._.).e.e.3.>.e.e.e._._.r.e.e.e.3.q.e.e.e.0.0.0.r.e.r.4.0.r.'.'.D.0.0.0.0.G.D.'.{.'.{.{.'.'.{.|.|..X{.{..X'.'.F.'..X.X.X.X.X.X.X.X.X.X.X@X@X@X@XXXoXoXXX&X@X@X@X@X@X#X#X%X%X%X@X#X#X#X#X#X#X#X#X#X#XH.H.F.F.F.F.G.1.1.^ Z x d e g W g  .E r 1 a a 3 1   O O - 1 1 , 1 1 j 3 1 a g g h a h h h g E !  . .`  . ._ X.X. ...p.S.....S.S. .i 9 9 8 9 i s s s 9 8 8 9 9 9 8 8 8 8 9 9 9 9 9 0 9 0 i i N N J P L U Y Y ] ] [ [ { { { } } { d.d.d.s.x.b.V.Z.Z.Q.Q.W.7X7XrXtXtXpXpXaXsXsXkXkXlXlXkXzXzXzXzXzXzXzXzXzXzXzXzXzXzXzXzXzXzXzXzXkXkXkXkXkXkXkXkXkXkXkXkXkXkXkXkXkXkXkXkXkXkXkXkXzXkXkXzXzXzXzXzXzXzXzXzXzXzXzXzXgXgXgXgXgXgXsXsXsXsXsXgXsXsXsXdXdXsXsXaXaXaXaXaXdXpXpXpXpXpXpXiXiXiXiXiXiXiXiXaXaXaXaXaXaXaXpXpXpXpXpXaXaXaXaXaXaXaXaXsXaXaXaXaXaXaXaXaXpXpXaXiXiXiXiXyXtXtXtX9X9XtXtXtX9X9X9X0X",
"x.x.x.x.z.z.z.z.x.z.z.z.x.x.x.x.x.j.j.x.x.x.x.x.x.z.z.z.b.n.n.V.V.V.B.B.Z.Z.Z.Z.U.U.Q.Q.Q.Q.W.W.7X7X7X7X7X8XrXrXrXrXrXrXrXrXrXrXrXrXrXrXrXrXrX9X8X7X7X7X7X7XW.W.T.Q.U.I.P.B.B.B.B.B.m.m.m.m.M.n.N.n.N.m.M.M.C.Y.R.R.6X6X8X9X9XuX9XuXiXiXiXiXiXuXuXuX9X8X!.R.P.P.M.c.k.h.u.} | | ] _ ~ L K K B f f f s u 9 8 * = & # $ $ @ @ @ @ @ @ @ @ @ @ @ $ * % $ $ % % 5 5 5 5 5 5 6 5 5 5 6 5 5 $ $ $ $ $ $ = $ $ $ $ $ $ @ @ $ $ $ $ @ @ @ @ @ @ @ @ @ @ . . . . . . . . X X X . . . . . . . . . . . .   . . . . . . . . . . . . . . . . . . . . . . . . . . @ @ @ @ @ @ @ @ @ @ @ @ # @ # # @ @ # @ # # @ @ # # # # & & # # # # # # # # % @ * * % 5 % % % % 5 5 5 5 5 5 5 q 5 q 0 B B s d W 8.` Q Q Q ' ( Q Q Z C d Z Q Z F A D Z A 1.J.%X*X.XH.G.G.1.X.X. .S.1.W W W ` ' / 1.D.J.H.@X&X&X=X=X=X=X=X=X=X=X=X=X=X=X+XOXOXOXOXXX.X.XXX&X@XoXH..X.XH.F.F.F.#X#X#X#X.XoXH.F.F.D.D.F.D.G.G.D.G.9.9.9.9.9.9.9.q.q.q.0.0.q.q.q.4.4.2.2.,.;.;.;.:.;.-.*.%.&.:.-.%.%.%./ S S S S S D D / S S S %.%.%.%.>.4.2.q.0.0.0.0.0.0.0.)._.).)._._.r.0.0.'.)._.`._._.).e.e.e.4.,.e.0.e.).e.e.e.0.3.2.2.3.q.q.0.0.0.r.e.4.2.4.q.0.0.0.0.0.0.0.0.D.'.D.D.D.'.'.'.'.'.'.'.'.'.'.{.{.'.{.{..X.X.X.X.X.X.X.X.X.XoXXXXX@XXXXXXX@X&X@X#X@X%X%X%X%X%X@X@X@X@X#XXX#X#XH.H.#X#X#XH.H.F.F.G.G.8.1.1.W Z x e d c E c X.h 1 1 a a a 3 O O   o , 1 , , 1 j a 1 1 a g d h a h h g c W !  . . . . . .X.X.......v...S.S.X.s u 9 8 8 9 s s B s 9 8 8 9 9 9 9 9 9 8 8 8 9 0 0 i i i i N N J P L U Y ] [ [ { { { { { } d.d.d.d.d.g.x.b.V.C.Z.U.Q.W.7X7XrXtXtXyXpXpXaXsXkXkXkXkXkXkXzXlXkXkXzXzXzXzXzXzXzXzXzXzXzXzXzXzXkXkXkXkXkXkXkXkXkXkXkXkXkXkXkXkXkXkXkXkXkXkXkXkXkXzXkXkXzXzXzXzXzXzXgXgXzXzXzXzXgXgXgXgXgXgXgXgXsXsXsXsXsXsXsXsXsXsXdXdXaXaXaXaXaXdXpXpXpXpXpXpXiXiXpXpXiXiXiXiXiXiXaXaXiXiXaXaXaXpXpXpXaXaXaXaXaXaXaXaXaXaXaXaXaXaXaXaXaXpXiXiXiXyXtXtXtXtXtXtXtX9XtX9X9X9X9X9X9X",
"x.x.x.x.z.z.z.z.z.z.z.z.x.j.x.x.x.x.j.x.x.x.x.x.x.x.z.z.z.n.n.V.V.V.V.V.B.B.Z.Z.I.U.U.U.Q.Q.W.W.!.!.7X7X7X8X8XrXrXrXrXrXrXrXrXrXrXrXrXrXrXrXrX8X8X7X7X7X7X6XW.W.W.Q.U.I.P.B.B.B.B.B.m.m.m.m.m.n.n.M.N.m.m.m.C.I.R.R.T.7X8X9X9XuXwXuXiXiXiXiXuXuXuXuX9X8X!.R.P.P.c.l.h.u.} | | ] ~ L K K K f f s u i 9 9 8 * = % $ @ @ @ @ @ @ @ @ @ $ $ @ $ $ = % = $ $ 5 5 5 5 6 6 6 6 6 6 6 6 6 5 5 $ $ 5 5 5 $ = $ $ $ $ $ $ @ @ $ $ $ $ @ @ @ @ @ @ @ @ @ @ . . . . . . . . . . . . . . . . . . . . . . .       . . . . . . . . . . . . . . . . . . . . . . . . @ @ @ @ @ @ @ @ @ @ @ @ @ @ @ @ @ @ @ @ # # # # # # # # # # # @ $ $ $ # # # % $ 7 8 % % % 5 % % % 5 5 5 5 5 5 6 6 0 s s B C B X.8.d ` Q Z ' ( Q ^ Z x d Z Z Z A Z ^ D ^ 8.XX-X*X#XF.G.8.1.S.1.S.8.Q ! W ( ' ^ ^ 1.F.oXoX@X*X@X&X=X=X=X=X=X=X=X=X=X=X=X=X=X+XOXOXXX.XF.F..XXX%XXXH.H.#X.XH.H.#X#X#X#XXXXXoXoX.XD.D.D.D.0.9.9.G.9.G.9.9.G.9.9.q.0.0.q.q.0.q.2.4.2.4.2.2.,.,.,.,.<.,.;.;.:.:.:.:.:.:.%.S S S S S D D ) S S S %.%.*.%.;.4.2.2.0.0.0.0.0.0.)._._.).).).).e.0.0._.'._.).).).).e.e.3.,.2.0.0.e.e.0.3.3.3.3.,.2.3.3.3.3.0.0.4.3.2.2.4.4.q.q.q.4.q.q.0.0.0.0.0.0.0.D.D.D.D.D.D.D.D.'.D.{.{.{.oX.X{.'.'..X.XoXoX.X.XoX.X.XoXXX@X$X$X&X&X@X#X@X*X*X*X%X%X#X#X%X@XoXoX#X#XH.H.H.#X#XH.H.H.H.G.G.1.1.-.Z c c e d C g W Q 1 , , 1 a a 3 + O   O , 1 1 1 1 1 a a 1 1 a h h h h h h g g W  . . . .X. .......X...S...8.S...B i 9 9 8 8 9 i s s s 9 9 9 9 u 9 u i i i i i 0 0 i i i i N N J P P I Y ] { { { { } } } d.d.d.d.d.f.j.x.z.n.V.Z.Z.U.Q.W.7XrXtXtXtXpXpXaXaXsXjXkXkXkXkXkXkXkXkXkXzXzXzXzXzXzXzXzXzXzXzXkXkXkXkXkXkXkXkXkXkXkXkXkXkXkXkXkXkXkXkXkXkXkXkXkXkXkXzXzXzXzXzXzXzXzXgXgXgXgXgXzXzXzXgXgXgXgXgXgXgXsXsXsXsXsXsXsXsXsXsXdXaXdXaXaXaXaXaXpXpXaXpXpXiXiXiXpXpXiXiXiXiXiXiXiXiXiXiXiXiXaXaXaXaXaXaXaXaXaXaXaXaXaXaXaXaXaXaXaXaXpXpXiXiXtXtXtXtXtXtXtXtXtXtX9X9X9X9X9X9X9X",
"x.x.x.x.z.z.z.z.z.z.z.z.x.j.x.x.x.x.j.j.x.x.x.x.z.z.z.z.z.b.n.V.V.V.V.V.B.B.B.B.I.I.U.U.U.Q.W.W.W.!.!.7X7X7X8X8XrXrX9XrXrXrXrXrXrXrXrXrXrXrXrX8X8X7X7X7X7X!.W.W.W.Q.U.I.P.B.B.B.B.m.m.m.m.m.m.n.M.n.M.N.m.m.I.I.R.R.4X6X0X9X9X9XuXiXiXiXuXiXuXuX9XuX9X7X!.R.P.m.c.j.u.} [ ] Y ~ L K J f f s u i 9 9 8 > > * & # @ @ @ . . . @ @ @ @ @ $ $ $ $ % $ $ $ % 5 5 7 5 6 6 6 6 6 6 6 5 6 5 $ $ $ $ $ $ $ = $ $ $ $ $ $ @ @ $ $ $ $ @ @ @ @ @ @ @ @ @ @ @ @ @ . . . . . . . . . . . . . . . . . . . .     . . . . . . . . . . . . . . . . . . . . . . . @ @ @ @ @ @ @ @ @ @ @ @ @ @ @ @ # @ @ @ @ @ @ @ # # # # # # $ $ @ @ @ $ $ # % % % % 9 7 % % $ * 7 7 5 5 5 7 7 5 5 7 7 0 s 0 B C C ..` C ` ^ C 1.` Z Q Z x C Z Z ^ Z ^ ^ D ' G.XX*X-X@XG.G.G.S.G.S.S. .X.Q Q ' ( Z ' 9.D.H.%X*X@X&X=X=X=X&X&X=X=X=X=X=X=X=X=X=X=X&X+XOX+X.XD.D..X@X.XH.H..X.X.X.X%X#XXXXXoX.XF.{.D.D.D.q.<.:.-.:.-.-.1.-.1.<.1.1.:.2.9.2.<.2.4.2.4.4.w.2.2.,.,.,.;.<.2.<.,.<.<.,.<.;.,.;.:.*.%.S S S S S S / %.%.%.*.*.;.2.2.4.0.e.).).r.)._._.e.e.e.0.e.e.e.)._._.).e.e.e.e.e.e.3.>.3.0.0.0.0.3.2.2.2.2.2.2.3.2.2.>.4.q.;.2.4.4.2.2.2.2.2.4.q.q.q.q.q.0.0.0.0.q.0.0.D.D.D.D.D.D.D.D.D.'.{.{.{.D.D.F..XoX.X.XoXXXXXoX.X.XoX@X@X@X*X@X@X@X*X*X*X;X;X%X#X%X@X#XoX#X#XH.H.#XH.H.H.H.H.H.G.G.1.1.' Z x d e d c c Q a 1 1 , 1 a a 1 - O X X o , 1 1 1 1 a a 1 1 1 j h h a a a h d E ~ ! ! ! X. ...........S.....S...B i 9 9 9 8 8 8 9 s s s i u u u u i i i i i i i i i i i p N N J P P L Y ] { { u.d.d.d.s.s.s.s.g.s.j.x.x.x.b.V.C.U.U.Q.W.7XrXrXtXyXiXpXpXaXaXjXjXjXkXkXkXkXkXkXkXzXkXzXzXzXzXzXkXkXkXkXkXkXkXkXkXkXkXkXkXkXkXkXkXkXkXkXkXkXkXkXkXkXkXkXkXkXzXzXzXzXzXzXzXzXzXgXjXjXzXzXzXzXsXsXjXjXgXgXgXgXsXsXsXsXsXsXsXsXsXdXaXaXdXdXdXaXaXaXpXpXpXaXiXiXiXiXpXpXiXiXiXiXiXiXiXiXyXyXiXiXiXiXiXiXaXaXaXaXaXaXaXaXpXpXaXaXaXaXaXaXaXiXiXiXyXtXtXtXtXtXtXtXtX9XtX9X9X9X9X9X0X",
"x.x.x.x.x.z.z.z.z.z.z.z.x.x.x.x.x.x.j.x.x.x.x.x.z.z.z.z.z.b.n.n.V.V.V.V.V.V.B.B.B.P.U.U.U.U.T.W.W.W.!.6X7X7X7X8X9X9X9X9XrXrXrXrXrXrXrXrXrXrXrX8X8X7X7X7X7X!.W.W.W.T.U.I.P.B.B.B.B.m.m.m.m.m.M.n.M.N.M.N.m.C.I.I.R.R.4X7X0X9X9X9XuXiXiXiXuXiXuXuX9X9X8X!.T.R.P.M.c.h.} [ ] Y ~ P K J f s i u 9 9 > > * * * * * # @ @ @ . . @ @ @ @ @ @ $ @ @ $ = $ $ $ % 5 6 7 7 5 6 6 6 6 6 5 5 6 5 % $ $ $ $ $ = = $ $ $ $ $ $ @ @ $ # $ $ @ @ @ @ @ @ @ @ @ @ . . . . . . . . . . . . . . . . . . . . . . . .   . . . . . . . . . . . . . . . . . . . . . . . @ @ @ @ # # # # @ @ @ @ # $ @ @ $ $ @ @ @ @ @ @ # # # # # # @ @ @ @ $ $ # # % % # 8 9 8 % $ $ 7 9 7 7 7 7 7 7 7 5 7 q 0 s s B C Q ..( ` ` ` Z 1.^ Z Q C C Z ^ ^ ' ^ ^ Z ^ <.oX%X=X-X%XG.G.1.S.G.1.X. .( Q  .' W ^ 1.G.F.H.@X*X=X=X=X=X=X&X@X&X=X=X=X=X=X=X=X=X=X=X+X+X=XXXD.D.F.#X#X#X.XF.F.H.XX%X%X@XXXoX.XF.D.0.9.2.:./ D v v k 4 4 4 4 e e e l l l v Z ) ) / / -.:.:.<.2.2.2.2.2.2.2.2.2.2.2.2.<.,.,.:.:.;.&.%./ %.S %.%.*.%.%.*.*.;.>.2.0.).).'._.)._._.).0.0.0.3.e._._._.'.e.e.e.e.).e.e.0.,.>.3.3.0.0.0.3.3.2.2.2.2.3.3.2.2.&.2.2.;.4.3.2.;.;.;.<.2.2.2.4.2.2.2.q.0.0.q.q.q.q.0.D.D.0.9.0.D.G.G.G.G.D.D.D.D.D.F.{.'.F.{.XX@XoX{.F.{.oX@X&X&X@X@X@X*X*X;X%X;X%X%X#X#X#XoX#X%X#X#X#X#XH.H.H.H.H.G.G.1.' ' W d e d g d Q g 2 , , , 1 3 a 3 1 O O     O , 1 , 1 1 1 1 1 1 1 a h a 1 , 1 a g g Q ! !  . .X.v...S.........S.7.B i 9 8 9 9 8 8 9 s f B f s s i u i i i i p i i i i i p f N J P P L L Y [ { u.d.d.h.h.h.j.j.j.j.j.j.j.j.x.z.n.B.U.U.Q.W.7X7XrXtXyXiXiXiXpXaXaXjXjXkXkXkXkXkXkXkXzXkXkXzXzXzXkXkXkXkXkXkXkXkXkXkXkXkXkXkXkXkXkXkXkXkXkXkXkXkXkXkXkXkXkXkXkXkXzXzXkXkXkXzXzXgXgXjXjXzXzXzXgXsXsXsXsXsXsXsXsXsXsXsXsXsXsXsXsXdXdXaXaXdXdXdXaXaXaXaXpXpXpXpXiXiXiXiXpXiXiXiXiXiXiXiXiXyXyXiXiXiXiXiXiXiXpXpXaXaXaXaXaXaXpXaXaXpXpXpXpXiXiXiXyXtXtXtXtXtXtX9X9X9X9XtXtX9X9X9X9X0X",
"x.x.x.x.x.x.z.b.z.z.z.z.z.x.x.x.x.x.j.x.x.x.x.x.x.z.z.z.b.b.n.n.V.V.V.V.V.B.B.B.B.B.U.U.U.Q.T.W.W.W.!.6X7X7X7X7X8X8X9X9X9XrXrXrXrXrXrX9X9XrXrX8X7X7X7X7X6X!.W.W.W.Q.U.I.P.B.B.B.V.m.m.n.m.m.M.n.M.M.M.m.m.m.I.I.R.R.4X7X0X9X9X9XuXiXiXiXuXuXuXuX9X8X7X!.R.R.m.z.z.h.} ] ] ~ P K B f s i u 8 8 9 9 8 * * * * * * @ @ @ @ @ @ @ $ $ $ $ $ $ $ $ = % % % * 5 7 5 5 5 5 5 6 6 6 5 5 5 5 % $ $ $ $ $ $ $ $ $ $ $ $ $ $ $ $ $ $ $ $ @ @ @ @ @ @ @ @ @ . . . . . . . . . . . . . . . . . . . . . . . . . . . . . . .   . . . . . . . . . . . . . . . . @ $ # # # # $ $ # # # # # $ $ @ $ $ @ @ @ @ @ $ @ @ @ @ @ @ @ @ # # $ # # % % % # 0 0 # % % # 9 7 7 7 7 7 7 7 7 5 7 7 w 0 s B ~  ...X.! ! ` ^ ' ^ Z ^ Z Z Q ^ ` ` ^ Z D -.D.%X%X*X*X#XG.1. .S.S.(  .` W ` 1.` W ' 1.G.H.XXXX@X-X=X=X=X=X&X&X&X=X=X=X+X+X&X&X+X+X&X+X&X&X+X.X'.F..X#X%X#XoXH.oX#X#X@XXXoX.X'.G.9.2.-.S b v k 4 4 4 4 4 3 3 4 - 4 O O O O + + + + 4 e l v D / -.:.:.2.2.2.2.2.2.2.2.,.,.>.;.;.,.<.;.*.*.%.%.%.;.%.%.*.*.;.>.4.).G.).0.0.0.).).e.3.3.3.3.e._._.).).e.0.e.e.).e.3.3.>.=.3.3.3.3.3.3.3.3.3.2.,.2.3.2.,.*.>.;.;.2.2.>.2.<.;.;.;.-.%.%.&.:.;.2.q.q.q.q.2.2.q.0.0.q.9.0.0.0.0.9.9.0.0.G.D.G.D.D.D.D.D..XoXoX.X{.{.oX&X&X@X@X@X@X*X*X;X%X%X%X#X#X#X#X#X#X#X#XH.#X#XH.H.H.H.H.G.G.1.' ' Z e 3 d d d W 3 + , o , 1 1 w a w , o     O + , 1 1 1 1 1 1 1 1 a h a 1 + , 1 h g E ~ ! !  . .....S...X...X.S...E s 9 8 9 9 9 8 9 9 s B B f f s i i p p p p p p p i p p N J J P L U Y ] { } d.s.s.j.j.j.x.x.x.x.x.x.x.x.x.z.n.B.Z.I.U.W.7X7X7XtXpXiXiXiXiXaXaXaXjXkXkXkXkXkXkXkXzXkXkXkXkXkXkXkXkXkXkXkXkXkXkXkXkXkXkXkXkXkXkXkXkXkXkXkXkXkXkXfXfXkXkXkXkXkXkXkXkXjXjXjXgXzXgXjXjXzXzXzXsXsXsXsXsXsXsXsXsXsXsXsXsXsXsXsXdXaXaXdXdXsXsXdXdXaXaXaXaXpXpXpXaXpXpXpXiXiXiXiXiXiXiXiXiXiXiXiXiXiXiXiXiXiXiXiXpXpXpXpXiXaXaXaXaXiXiXiXiXiXiXyXtXtXtXtXtXtXtXtX9X9XtXtXtX9X9X9X9X9X",
"x.x.x.x.x.x.z.b.z.z.z.z.z.z.x.x.x.x.j.x.x.x.x.j.x.x.z.z.b.b.n.n.V.V.V.V.V.B.V.B.B.B.I.U.U.Q.Q.W.W.W.W.6X7X7X7X7X8X8X9X9X9XrXrXrXrXrXrX9X9X9X9X8X7X7X7X7X6X!.W.W.W.Q.U.I.P.B.B.B.m.m.n.n.m.m.n.n.b.M.m.m.m.m.K.I.R.R.6X7X8X9X9X9XuXiXiXiXuXuXuXuXuX9X7XT.R.R.m.c.k.h.} ] L P K N f s i u 9 > > > > > * * * * * = @ $ $ @ @ @ $ $ # $ % = = = % % % % % * 5 5 5 5 % 5 5 5 6 5 5 5 $ $ $ $ $ $ $ $ $ $ $ $ $ $ $ $ $ $ $ $ $ $ $ $ @ @ @ @ @ @ @ @ . . . . . . . . . . . . . . . . . . . . . . . . . . . X . . . . . . . . . . . . . . . . . . @ @ # # # # # $ $ $ # # # $ $ $ @ @ $ $ @ @ @ @ $ $ @ @ @ @ @ @ @ # # # # % # % % % % s 0 @ % ; * s 7 7 * * 7 7 7 7 7 7 9 s w 9 C  .X.X.` W Q X.W ` ^ Z Q C Z ^ Z Z ( ^ Z ^ 8.@X*X%X%X*XF.1.' X.(.1.X...W ( ` 8.' ( ' 1.G.F.XX&X&X*X=X=X=X=X=X&X=X=X=X&XOX+X&X&X+X+XOX+X&XOXOXOXoXF.F.F..X#X@X@X@X@XoX.X{.D.D.D.9.:./ b l l k 4 4 4 4 k v ^ W e 3 3 j g E h , O O + O + O O 4 e v Z / %.:.2.2.2.2.2.2.,.2.2.,.,.,.,.2.;.;.-.;.*.;.*.;.*.;.>.2.4.).0.0.0.4.4.0.0.0.3.3.3.0.)._.).e.0.e.0.0.e.e.e.3.3.>.=.3.3.3.3.3.3.3.3.2.>.;.>.,.>.;.%.>.%.;.;.%.-.;.-.-.*.%.%.%./ %.%.*.;.,.2.2.w.2.2.4.q.q.4.q.D.0.9.0.9.9.0.0.0.D.0.0.G.D.G.D.{.{.oXXXoXoXoXoX@X@X@X@X*X*X*X*X;X%X%X%X#X#X@X%X#X#XH.H.H.#X#XH.#XH.F.G.G.1.' ^ x e e h e c h - 2 1 o , 3 1 1 w w 1 +     O o , 1 1 j j 1 1 , 1 a h h a , o 1 h g d E Q Q ` ! ....S.....8. .....~ s u 9 9 u 9 8 9 9 s f f f N N f f f f f p p f f p f N J J P P L ] ] { { } d.s.j.x.x.z.z.z.z.z.z.z.z.z.b.b.n.V.B.I.U.W.7X7X7XtXtXiXiXiXiXpXaXaXjXkXkXkXkXkXkXzXzXkXkXkXkXkXkXkXkXkXkXkXkXkXkXkXkXfXfXfXkXkXkXsXsXkXkXkXkXkXkXkXfXkXfXsXfXkXkXfXsXjXjXjXjXgXgXjXjXzXzXsXsXsXsXsXsXsXsXsXgXsXsXsXsXgXsXsXaXaXaXdXdXsXsXdXdXaXaXaXaXpXpXaXaXaXpXpXpXiXiXiXiXiXiXiXiXiXiXiXiXiXiXiXiXiXiXiXiXaXaXaXiXpXpXaXaXiXiXiXiXiXyXtXtXtXtXtXtXtXtX9X9X9X9XtXtXtX9X9X9X9X",
"j.x.x.z.z.z.z.z.z.z.z.z.z.z.x.x.x.j.j.z.z.x.j.x.x.x.z.z.b.b.n.n.V.V.V.V.V.V.B.B.B.B.I.I.U.U.U.U.W.W.!.7X7X7X7X7X8X8X9X9X9XrXrXrXrXrXrXrXrXrX9X8X8X7X7X7X7X6X!.W.T.Q.U.I.B.V.V.m.m.m.m.m.m.M.m.m.N.M.M.N.m.C.I.R.R.T.6X7X8X9X9XuXuXiXiXiXiXiXuX9X8X8X!.E.R.P.M.z.k.} [ ] L K N f s i 9 8 8 > 8 9 8 8 8 8 * * = = $ $ # # # # = * * * * * * * * * * * % % * 5 5 5 7 5 5 5 6 5 % $ % $ $ $ $ $ $ $ $ $ $ $ $ $ $ $ $ $ $ $ $ $ @ @ @ @ @ @ @ @ @ @ . . @ @ @ . . . X . . . . . . . . . . . . . . . . . . . . . . . . . . . . . . . . . . . . . . @ # # # # $ $ $ @ $ $ $ $ $ @ @ @ $ $ $ $ @ @ @ @ @ @ @ @ . . @ $ $ $ # # $ @ $ * 7 s w @ * w 9 s 9 * % 7 7 7 7 7 7 7 9 7 s s w ` X... .( C ` Q Q ! Z Z Z Q Z C Z ^ Z Z ' F.@X%X%X%X%XH.G.' 1.8...8.! X. .(  .( ' -.9.F.H.XX*X*X=X=X=X&X&X=X=X>X:X=X=X=X&XOXXXOXOX+XOX+X+X&X+XoX{.F.F.G.D.F.oX&X@XoX.XG.9.2.:.S b v b b l 4 k v x e c ( 1.1.( ` E  ./.^.S.! a h h a h e - - e e x 4 v S -.;.2.w.2.2.2.2.,.,.>.,.,.;.;.;.;.,.2.;.;.;.;.2.2.4.4.0.0.0.0.0.e.e.3.2.3.3.0.0.0.e.e.e._.).0.e.).e.0.3.3.,.>.>.3.3.3.3.3.3.2.>.;.=.&.&.&.*.*.%.%.*.:.-.*.*.-.%.) S %.%.%.%.%.%.%.;.;.,.,.2.2.4.2.2.2.q.0.0.9.9.9.q.q.q.9.0.9.9.0.G.D.D.D.F.{..XoXXXXX@X@X#X#X%X-X-X%X%X%X%X%X%X#X#X#X#X#XH.H.#X#X#XH.H.H.F.F.G.G.1.' Z x e e d a g w + + + o , 3 a 1 1 a a 1 o X   X o 1 , 1 h a 1 1 , 1 a u a 3 1 , 3 g h c Q ! ! ` ` X.S...X..... .v.~ s s u u 9 9 9 0 i 9 s B N N J f f f f N N N f f N N N J J P L I ] { { } u.s.h.j.z.z.n.n.n.c.n.n.n.n.n.n.n.n.V.B.I.U.W.4X7XrXrXtXtXiXpXaXaXaXaXaXsXsXkXkXkXkXkXkXkXkXkXkXkXkXkXzXkXkXkXkXkXkXjXjXsXsXsXsXkXkXkXkXkXkXkXkXkXkXkXkXfXfXfXkXkXkXsXsXjXjXsXjXjXjXjXjXzXjXsXfXgXzXfXsXsXsXsXsXsXsXsXsXsXsXsXsXsXsXsXsXaXaXaXaXaXaXpXpXaXpXpXiXiXiXpXpXiXiXiXiXiXiXiXiXiXiXiXiXiXiXyXyXyXyXiXaXiXaXpXiXiXiXiXiXyXyXyXyXtXtXtXtXtXtXtXtXtXtXtXtXtXtX9X9XtXtX9X9X9X",
"j.x.x.x.x.x.z.z.z.z.z.z.z.z.x.x.x.j.j.x.x.j.j.x.z.z.z.z.z.b.b.b.V.V.n.V.V.V.V.V.V.B.B.I.I.U.U.U.W.W.!.!.6X7X7X8X8X8X9X9XrXrXrXrXrXrXrXrXrXrX9X9X7X7X7X7X7X!.W.W.W.T.U.I.B.B.B.V.M.n.n.M.n.n.n.n.M.n.M.m.C.C.I.I.R.T.6X7X8X9X9XuXuXiXiXiXiXiXuX9X8X7X!.R.R.P.c.k.h.} ] ~ P J f p i u 9 8 8 8 8 9 8 8 8 8 8 > * = = # & & & = > * * * * * * * 8 6 8 6 * * * 7 7 7 7 5 5 5 5 5 5 $ % $ $ $ $ $ $ $ $ $ $ $ $ $ $ $ $ $ $ $ $ @ @ @ @ @ @ @ @ @ @ @ . . @ @ @ . . . . . . . . . . . . . . . . . . . . . . . . . . . . . . . . . . . . . . . . @ @ @ # # # # $ $ $ $ $ $ $ $ $ @ @ @ $ $ @ @ @ @ @ @ @ @ @ @ @ @ @ $ @ $ # # $ @ # * 9 s w ; 9 0 9 s 9 * * 7 7 7 7 7 7 7 w w 9 h g C ` .. .( Q Q Q ^ Q Z Z Z Q Q Z Z Z Z x -..X*X%X&X@X@X-XG.` 1.X.1.` (  .(  . .( 1.1.G.F.oX@X*X*X*X=X=X=X=X=X=X=X=X=X=X=X&XOXXXOXOXOXOXOX+X+X+X&X@XD.D.9.9.9.G.D.D.D.9.2.<.-.S D S / D b b b S ) ) v c Q S.G...( g ..UX .! ~ g E W c c x h d c c x l k l A %.;.2.2.,.,.,.,.,.,.,.,.>.>.;.;.>.2.2.;.<.2.2.2.4.4.4.0.0.0.0.0.0.0.e._.e.e.0.0.)._.e.0.).e.e.).e.0.3.3.,.>.>.,.3.3.2.,.,.,.>.>.;.;.&.*.S %.%.-.;.:.;.:.%.%.%.%./ S S S %.S S %.-.:.:.,.,.<.2.2.2.2.9.q.0.9.9.9.q.q.2.2.9.9.9.9.G.D.D.D.D.F.F.F.XX@X@XoX@X%X%X%X%X*X;X;X%X%X#X#X#X#X#X#XH.H.#X#X#XH.H.H.H.H.G.G.1.( c d e h h h d 3 , + , + o , 1 a a 1 a 1 , o     o , , 1 a 1 1 1 1 1 a 9 a a 1 1 a d h d E W ! ( Q ! 8.S.....X. .8.~ f i 9 u 9 9 0 u 9 9 p N N K P K N N N N N N J J J J J J P P L Y [ { } d.d.h.j.j.z.n.n.n.n.n.n.V.V.V.B.V.V.V.V.Z.I.U.W.W.7X7XrXtXtXiXpXaXaXaXaXaXsXsXkXkXkXkXkXkXsXkXkXkXfXfXkXkXkXkXkXkXkXkXjXjXsXsXsXsXkXkXkXkXkXkXkXkXkXkXkXkXsXsXkXkXkXkXsXsXjXjXjXjXjXjXjXsXjXsXsXsXsXsXsXsXsXsXsXsXsXsXsXsXsXsXsXsXsXsXsXsXaXaXaXaXaXaXaXpXaXpXpXpXpXpXpXpXiXiXiXyXiXiXiXiXiXiXiXiXiXiXyXyXyXiXiXiXiXiXiXiXiXiXiXiXyXyXtXtXtXtXtXtXtXtXtXtXtXtXtXtXtX9X9X9XtXtX9X9X9X",
"j.x.x.x.x.x.z.z.z.z.z.z.z.z.z.x.x.j.j.x.x.j.j.x.z.z.z.z.z.z.b.b.n.V.V.V.V.n.V.V.V.B.B.I.I.I.U.U.W.W.W.W.!.7X7X8X8X8X9X9XrXrXrXrXiXuXrXrXrXrX9X8X8X7X7X7X7X!.W.Q.W.T.U.I.B.B.B.V.M.M.M.n.n.n.n.n.n.n.M.m.C.C.I.I.R.T.6X7X8X9X9XuXuXiXiXiXuXuXwX8X8X8X!.T.I.m.z.k.h.} ] L J f s i 9 9 9 u u u 9 9 u u u 9 9 8 8 > > * = = = > 8 8 8 8 8 8 8 8 8 8 8 8 8 6 * 7 7 7 7 5 % % 5 5 5 % % % % $ $ $ $ $ $ $ $ $ $ $ $ $ # # # # $ @ @ @ @ @ @ @ @ @ @ @ . . . . . . . . . . . . . . . . . . . . . . . . . . . . . . . . . . . . . . . . . . . @ @ @ $ $ # # = $ $ $ $ $ $ $ $ $ $ $ $ $ $ $ @ @ @ @ @ @ @ @ @ @ @ @ @ @ @ @ $ # $ $ % ; w s w w s s s 9 9 ; ; 7 ; ; 7 7 7 7 w w 9 s B B  ...` Q ` Q C Q Q Z Q Q Q Q Z Z A A v 8.@X*XXX@X&X@X@X8.' 1. .X.(  .` Q `  .1.8.G.G.D.oX%X*X@X$X=X=X=X=X=X=X=X=X=X=X=X=X+XOXOXOXOX XOXOXOXOX+X&X@XXXF.D.D.D.'.D.0.2.:.:.%./ %.:./ D / <.<.1.1.1.) W W  .X.Q c g g a + + O   + 3 h e e 3 e c W c v x l v b D %.;.;.,.,.>.,.,.,.;.>.>.;.;.,.2.2.2.2.2.2.4.4.4.4.0.0.0.0.0.e.).).).e.e.3.0._._.e.0.e.e.e.e.0.3.3.,.,.=.=.,.3.2.2.,.,.,.>.>.;.=.&.%.S %.*.*.%.%.%./ %.%.%.%.%.S D D S S S S / %.:.;.-.-.-.-.-.:.:.:.q.9.2.2.2.<.<.2.2.<.2.9.9.9.0.0.G.D.{.{..X@X#X#X@X%X%X#X%X*X;X%X%X#X#X#X#XH.oXH.H.H.#X#XH.H.H.H.H.#XF.G.8.( c e e h h h h - 1 o o + + + 1 h h w a a w , O X O o , , 1 < 1 1 1 1 u 1 a a w w a h a a g E ! ! ~ ! X.8.8... . .S.` B s 9 u u i i u i i s N J K P L J J J J J J J P J J J P P L I ] { } d.s.h.x.z.z.n.n.m.V.m.V.B.P.B.B.B.B.V.V.B.Z.I.U.W.W.7X7XrXtXtXiXpXpXaXaXaXjXsXsXkXkXkXkXkXkXsXkXkXkXfXfXsXkXkXkXkXkXkXkXkXkXsXsXsXsXkXkXkXkXfXfXkXkXkXkXkXkXkXkXkXkXkXkXkXkXkXjXkXkXjXjXsXsXsXsXsXsXsXsXsXsXjXjXjXsXsXsXsXsXsXsXsXsXsXsXsXsXaXaXaXaXaXaXaXaXpXpXaXpXpXpXpXpXiXiXyXyXyXyXiXiXyXyXyXyXiXiXyXyXyXyXiXiXiXiXiXiXiXiXiXiXtXtXtXtXtXtXtXtXtXtXtXtXtXtXtXtXtXtX9X9XtX9X9X9X9X",
"j.x.x.x.x.x.z.z.z.z.z.z.z.z.z.x.x.j.j.x.x.j.x.x.z.z.z.z.z.b.n.n.n.n.V.V.V.V.V.V.B.B.B.I.I.U.U.U.Q.Q.W.W.!.7X7X8X8X8X9X9XrXrXrXrXiXrXrXrXrX9X8X7X7X7X7X7X7X!.W.Q.T.U.U.P.B.V.m.m.m.m.n.M.n.n.n.n.n.N.M.m.C.C.I.T.T.T.7X7X8X9X9XuXuXuXiXuXwXwX9X8X8X7X!.R.I.m.c.k.p.| ~ P N f s i u 9 u u i i i i i u u i i u 8 8 8 8 > > > 8 9 9 8 9 9 9 9 9 9 9 9 9 8 6 * * 6 7 5 5 % % % 5 % % % % % $ $ $ $ $ $ $ $ $ $ $ $ $ % % % # $ $ @ @ @ @ @ @ @ @ @ @ @ . . . . . . . . . . . . . . . . . . . . . . . . . . . . . . . . . . . . . . . . . @ @ @ @ $ $ # # $ $ $ $ $ $ $ $ $ $ $ $ $ $ @ @ @ @ @ @ @ @ @ @ @ @ @ @ @ $ @ @ $ # $ $ % 8 w 9 9 w s d B 9 9 % % 7 ; ; 7 7 7 9 7 w h h B Q ` ..` Q  .C Z ` ( Q ^ Q Q Q Z Z x x / G.#X@XoX#X@XoX9.1.1.1.1. .( ! ( ! ` 1.S.1.8.G.F..X%X*X&X$X=X=X=X=X=X=X=X=X=X=X=X&X+XOXOXOXOXOX|.`.'.'.'.|.XXXX.X.X|..X|.D.0.9.:.-.-.:.:.<.%.) -.<.<.4.G.G.<.-.( Q  . .E g h 3 3 3 - - 3 e e x x e e ^ 1.-.-.^ v v b b D S ;.>.,.,.,.,.>.;.;.;.;.;.,.2.2.q.4.2.2.q.0.0.0.G.0.).).0.).e.e.e.e.).).e.).0.0.).e.0.e.e.3.3.3.,.>.&.=.,.2.,.>.>.,.>.;.&.*.*.%.S S %.%.%.%.%.%.%./ S S S b v l l b b b b D S / %.S / / / / S S S :.-.-.-.-.-.:.<.<.<.<.<.2.9.9.9.9.9.D..X.XF..X*XXX@X#X%X%X;X%X#X#X#X#X#X#X#XH.H.H.H.#X#XH.H.H.H.H.#XH.G.G.' c e h h h d w - 3 o   - 1 , 1 a h a w a a 1 , o O   , 2 1 , , 1 1 1 1 1 a h a w h h w w d C Q Q Q  . ...S...X. ... .B s u i i i i i s s f f N J K P P P P P P P P P P P P P L L Y [ { d.s.h.j.z.z.n.n.m.V.B.B.P.I.U.B.I.I.I.B.B.Z.I.I.U.Q.W.7X7XrXtXiXpXpXpXaXaXaXjXsXsXkXkXkXkXkXkXkXkXkXkXkXkXkXkXkXkXkXkXkXkXkXfXjXsXsXsXkXkXkXkXsXfXfXfXkXkXfXsXkXkXkXkXkXkXkXkXkXkXkXkXsXjXsXsXsXsXsXsXsXsXsXsXjXsXsXsXsXsXsXsXsXsXsXsXsXsXsXsXsXaXaXaXdXaXdXaXpXaXaXaXaXpXpXiXiXiXiXyXyXiXiXiXtXtXyXyXyXiXyXiXyXyXiXiXiXiXiXiXiXiXyXyXtXtXtXtXtXtXtXtXtXtXtXtXtXtXtXtXtXtX9X9XtX9X9X9X9X",
"x.x.x.z.z.z.z.z.z.z.z.z.x.x.x.x.x.x.j.j.j.j.x.x.z.z.z.z.z.b.n.n.b.n.n.V.V.V.V.V.B.B.B.P.I.U.U.U.U.Q.W.!.6X7X7X7X7X8X9X9X9X9XrXrXrXrXrXrX9X9X8X7X7X7X7X7X7X!.W.Q.T.U.U.P.B.V.m.m.m.m.m.M.n.n.n.M.M.n.M.N.m.m.I.T.T.4X6X7X8X9XrXuXuXiXiXuXwX9X9X8X7X!.R.I.P.M.z.h.} ] L P N p p i i i i i i i p p p p p p i i i 8 9 9 8 8 9 u u u i u u u u u u u 9 9 8 8 6 * 6 8 6 5 % % % % 5 % % % = $ $ $ @ @ $ $ $ $ $ $ % % % % % # $ $ $ @ @ @ @ @ @ @ @ @ @ . . . . . . . . . . . . . . . . . . . . . . . . . . . . . . . . . . . . . . . . @ @ @ @ @ $ $ # # $ $ $ $ $ $ $ $ $ $ $ $ $ $ @ @ @ @ @ @ @ @ @ @ @ @ @ @ @ @ @ @ $ $ $ $ % 8 w 9 w w w d B 9 9 % % ; ; 7 7 ; 7 9 9 s d d C Q C X. .`  .g C ..' Q ( ` Z Z Z Z x x 8.XXXXoX{.{.F.G.<.8.8.1.S.8.( W W W ( 1.1.1.1.D..X#X*X*X=X=X=X=X=X=X=X=X=X>X:X=X&XOXOXOXOXOXOXOX|.`.'.'.D.D.D.D.0.0.D.0.0.q.9.2.-.%.-.-.-.:.2.1.1.<.9.G.F.G.1.1.' W (  .Q W x 4 3 e 3 e e x x x v x x ' 1.1.1.' ) D D D b m S *.>.,.,.;.:.;.;.&.&.&.:.:.2.q.q.4.q.0.G.0.G.D.'.).0.0.).).)._.)._._.).).0.0._.0.0.0.q.3.3.3.>.>.&.;.,.,.;.;.&.>.&.&.#.%.%.@.S @.@.@.S S S S S D S D b b b b b v v v b v b b D D D D D S D S D D S / %.%./ / %.:.:.<.<.<.2.2.2.9.<.4.D..X.X.XXXXXoX#X%X;X%X#X#X#X#X#X#X#X#XH.J.H.#X#X#XH.H.H.H.H.H.H.F.G.' c e h h h g w , w O   o 1 1 1 3 a a a a a 1 1 1 - O , o , o o - o , 1 1 1 h a a g g a a h c W Q Q  . .v.S.8...` X. .B s s i u i i s p f p f J K K P P P P P L P L L L L P L L Y ] { } d.h.j.k.z.n.n.n.m.B.B.I.I.U.U.U.U.Q.Q.U.U.U.U.U.Q.W.W.7X7XrXtXiXpXaXaXaXaXaXaXsXsXkXkXkXkXkXkXkXkXkXkXkXkXkXkXkXkXkXkXkXkXfXfXjXjXsXfXfXfXkXkXsXsXkXkXkXkXsXsXkXkXkXkXkXkXkXkXkXkXkXkXsXsXsXsXkXsXsXsXsXsXsXsXsXsXsXsXsXsXsXsXsXsXsXsXsXsXsXsXsXaXaXaXdXaXaXaXpXaXaXaXpXpXpXiXiXiXiXiXiXiXiXiXtXtXtXtXyXyXyXyXtXtXyXtXiXyXyXyXtXtXtXtXtXtXtXtXtXtXtXtXtXtXtXtX9X9XtXtXtXtXtXtXtX9X9X9X9X",
"x.x.z.z.z.z.z.z.z.z.z.x.x.x.x.x.x.x.x.x.x.x.x.x.z.z.z.z.z.z.b.b.b.b.b.n.n.V.V.V.B.V.B.B.P.I.U.U.U.Q.W.!.6X7X7X7X7X8X9X9X9X9XrXrXrXrXrXrX9X9X8X7X7X7X7X7X7X!.W.Q.W.Q.U.P.B.V.V.m.m.m.M.n.b.b.b.n.M.M.M.M.M.m.I.R.T.T.6X7X0X9XrXuXiXiXiXuXuX9X9X8X!.!.R.I.P.M.k.h.} ] L P f i i u i i p f f f p p f p p p p i i i i i i u i u u i i i p i u i i i u u 9 8 8 8 6 6 6 5 % % % % % % = = $ $ $ $ $ $ $ $ $ $ % % % % = = % % # $ $ $ @ @ @ @ @ @ @ @ . . . . . . . . . . . . . . . . . . . X . . . . . . . . . . . . . . . . . . . . . @ @ @ @ @ $ $ # # $ $ $ $ $ $ $ $ $ $ $ $ $ $ @ @ @ @ @ @ @ @ @ @ @ @ @ $ @ @ @ @ $ $ $ $ % 8 w 9 s w ; d g 9 9 ; ; 7 7 7 9 ; 7 7 s d w C Q C g ` X.X.X.C Z ' ' Q ^ ` Z C C A x ^ XX*XXX.X{.F.F.9.G.G.8.8.S...E W W W  ...( 1.1.D.#X#X@X*X=X=X=X=X=X&X=X=X=X:X>X=X&X+X+X+X+X,XOXOX X|.|.`.'.'.'.'.q.9.9.2.w.2.;.%.%.-.-.%.%.<.G.G.G.G.G.G.D.G.G.G.1.1.-.' ' ' Z e e x e e e x x v c c W 1.G.1.1.1.1.) D m S S b S &.,.,.,.:.;.;.&.#.#.%.%.:.2.9.q.0.0.G.G.D.D.'.).0.).'.).e.'.e.e.e.)._.'.r.'.r.0.0.3.3.3.3.>.&.&.>.>.>.;.;.;.;.&.%.%.%.@.@.S %.S S S b b b b D S S S S / / S v v v v v v v v v b D D D D S S S S S / / / / / -.-.-.-.-.:.1.<.<.<.9.G.D..X.X.X#X.X.X#X%X#X#X%XH.H.H.#X#X#XH.F.#X#X#X#X#XH.H.H.#XH.H.F.G.-.v e h h a h 3 1 3 O o o + 1 w a a h h a w 1 1 1 1 , , o o o o o X o 1 1 1 h a a C g 3 3 a g Q ! Q ! X...8.8...`  . .B s s i u i s s f N N N J P L P P P L L L L L L U L L L Y Y [ { } d.j.k.z.n.n.n.B.B.B.I.U.U.U.Q.Q.T.W.W.W.U.W.W.Q.W.W.7X7X7XrXtXpXpXaXpXaXaXaXjXsXsXkXkXkXkXkXkXkXkXkXkXkXkXkXkXkXkXkXkXkXkXfXfXkXkXkXkXfXsXkXkXsXsXkXkXkXfXsXsXkXkXkXkXkXkXkXkXkXjXkXkXsXsXsXsXkXsXsXsXsXfXsXsXsXsXsXsXsXsXsXsXjXsXsXsXsXsXsXsXaXaXaXaXaXaXpXaXaXaXpXpXpXiXiXiXiXiXiXiXtXyXiXiXtXtXtXtXtXtXtXtXtXtXtXyXyXtXtXtXtXtXtXtXtXtXtXtXtXtXtXtXtXtXtXtX9X9X9XtXtXtXtXtXtXtX9X9X9X",
"x.x.z.z.z.z.z.z.z.z.z.z.x.x.x.x.x.x.x.x.x.x.x.x.z.z.z.z.z.b.b.b.b.b.n.n.n.n.V.V.V.V.B.B.P.I.U.U.Q.Q.W.W.!.!.7X7X7X7X9X9X9X9XrXrXrXrXrXrX9X9X8X7X7X7X7X7X7X!.W.W.T.Q.U.P.B.V.V.m.m.M.M.b.b.b.b.b.M.N.M.M.m.m.K.I.R.T.6X6X7X9X9XuXuXiXiXuX9X9X8X7X!.!.R.P.m.M.k.h.} ] L J p i i i i f N N J J R R J H f f f p p p p p p p p p p f p p f s p i i i i i u 9 9 8 8 6 * 5 5 5 % % % % $ $ $ $ $ $ = $ $ $ = = % % % % = = % # # $ $ $ @ @ @ @ # @ @ @ . . . . . . . . . . . . . . . . . . . X . . . . . . . . . . . . . . . . . . . . . @ @ @ @ # $ $ $ $ $ $ $ $ $ $ $ $ $ $ $ $ @ @ @ @ @ @ @ @ @ @ @ @ @ @ @ @ @ @ $ $ $ $ $ $ % 7 w 9 g w ; s h w 9 ; 9 w w 9 9 ; 7 w B h w W Q g C ! ` ` ` Q W ^ ` Z ` ` Q A C x x 8.%X@XoX{.{.{.{.G.F.G.1.1.1.( g W  .X.G. .( 1.<.F.#X@X*X*X=X=X>X=X=X=X=X:X=X=X:X=X=X=X=X=X=X,XOXOXOX X|.|.|.|.OX'.0.q.2.2.2.:.:.:.:.,.<.:.;.9.D.F.D.9.4.4.9.D.D.G.4.G.G.1.-.) v x e x e e x x x x x c  .S.(.G.S.1.1.' ) ) ) S m D S &.;.;.:.;.;.&.#.#.@.S %.:.q.0.D.D.D.D.'.'.'.'.'.'.'.0.0.0.r.0.0.r.].`._.).r.0.0.q.3.3.3.>.&.&.;.;.&.&.;.;.;.&.@.%.%.@.S S S S S S S D D D D D b b b b v v v v v v v v v v v v b b D D D D S S S D S S / %./ / %.%./ %.-.-.-.<.9.9.9.G.H..X#X#XoX#X#X#X%X%X#XH.H.H.H.#XH.H.#X#X#X#XH.H.H.#X#XH.H.F.G.1.v 4 h h a a 1 3 , O o O o , 1 a h h h h a w 1 1 1 1 , o o X X o X o , < 1 h a a g a , 1 a d E Q Q ! X.......8. . .X.B s i i i i s f N N J J J P L L L L L L L Y Y Y Y Y Y Y ] [ { } u.s.j.z.z.n.m.P.B.B.I.U.T.T.T.T.W.W.W.W.W.W.W.W.W.W.7X7X7X7XrXtXiXpXpXaXaXaXjXkXsXsXkXkXkXkXkXkXkXkXkXkXkXkXkXkXkXkXkXkXkXkXsXsXkXkXkXkXfXsXsXsXsXsXkXkXkXkXjXsXsXfXfXfXkXkXkXsXjXjXkXkXkXkXkXsXkXfXsXsXsXsXsXsXsXsXsXsXsXsXsXsXjXjXsXsXsXsXsXdXaXaXaXaXaXaXpXpXaXpXpXiXiXiXiXiXiXiXiXtXtXtXtXiXtXtXtXtXtXtXtXtXtXtXtXtXtXtXtXtXtXtXtXtXtXtXtXtX9X9X9X9X9XtXtXtXtXtX9X9XtXtXtXtXtXtX9X9X9X",
"x.x.x.z.z.x.z.z.z.z.z.z.z.x.x.x.x.x.x.x.x.x.x.x.x.x.z.z.b.b.n.n.V.n.n.n.n.V.V.V.B.B.B.B.P.I.U.U.Q.Q.W.W.W.W.!.7X7X7X9X9X9X9XrXrXrXrXrXrXrX9X9X8X8X7X7X7X7X!.!.W.Q.U.I.B.V.V.m.m.m.n.M.b.b.b.b.b.b.b.M.M.m.m.m.I.R.T.6X6X7X9XrXuX9XuXuX9X9X9X7X!.!.T.I.B.M.z.h.u.| ] P J p i i i f N N J J J J J J J J J J H H f H N J J N N J J f f f f f f p s i i u 9 9 8 8 * * 5 6 5 % % = $ $ $ $ $ $ $ = = = = = % % % % % * = % # # # $ $ @ @ @ @ # # @ @ . . . @ @ . . . . . . . . . . . . . . . . . . . . . . . . . . . . . . . . . . @ @ @ @ @ # $ # $ $ $ $ $ $ $ $ $ $ $ $ $ $ @ @ @ @ @ @ @ @ @ @ @ @ @ @ @ @ $ @ @ $ $ $ $ $ $ % 8 9 ; B s 9 s w h 9 9 w s w 9 9 ; 7 s B w d Q C C g W ` ` ` ` ( ` Q Z ` ' Q Z C d Z %X@X.X.XF.{.{.D.{.{.G.1.1.G.Q ! Q  ...G.Q 1.1.G.G..X%X=X=X=X>X>X>X=X=X=X>X=X=X=X=X=X=X=X+XOX|. X XOX X`.'.`.|.`.'.0.q.q.q.q.w.q.q.9.2.2.2.2.9.D.'.D.D.{.D.4.4.G.D.4.G.G.1.<.1.' ' Z x x x v x x x c ( 8.G.(.F.G.8.1.1./ ) ) ) ) m b S *.;.:.;.&.&.#.%.@.S S %.9.0.D.D.D.{.{.{.}.OX}.'.D.0.).'.`.).e.'.OX].).0.e.0.0.3.3.q.3.;.;.;.;.&.%.&.&.&.%.@.S @.@.S S S S S S S S S S S S b b b b v v v v v v v v v v b v b b b v b A D D D D D D D / / / / / / / / %.-.-.1.<.9.9.G.D.F..X#X#X.X#X#X%X#X#X#XH.H.H.#X#X#X#X#X#X#XH.H.H.H.#XH.H.F.G.1.x 4 d a j j , w - O o - - o o , a h h h h h a 1 1 1 , X X   X o X o , , 1 h a a h , 1 3 h d c E W ` X.......8. ._  .B s i i i s s f N N J P J P ] L L L L L Y Y Y Y ] ] ] ] [ [ { u.d.h.x.z.n.n.P.P.I.I.U.T.T.W.W.W.!.W.W.W.W.W.6X7X4X7X7X7X7X7XrXtXtXiXaXpXaXjXkXkXsXsXkXkXkXkXkXkXkXkXkXkXkXkXkXkXkXkXkXkXkXkXsXsXkXkXkXkXfXsXsXsXfXsXkXkXkXsXjXkXsXsXkXfXkXkXjXjXjXjXsXkXkXkXkXkXkXfXsXsXsXfXsXsXsXsXsXsXsXsXsXsXjXjXjXsXsXsXsXdXaXaXaXaXaXdXpXpXaXpXpXiXiXiXiXiXtXtXtXtXtXtXtXtXtXtXtXtXtXtXtXtXtXtXtXtXtXtXtXtXtXtXtXtXtXtXtX9X9X9X9X9X9X9XtXtXtXtXtXtXtXtXtXtXtXtXtX9X9X",
"x.x.z.z.z.x.z.z.z.z.z.z.z.x.x.x.x.x.x.x.x.x.x.x.j.x.z.z.z.b.b.b.n.n.n.V.V.V.V.B.B.B.B.B.B.I.U.U.U.Q.W.W.!.!.7X7X7X7X8X8X8XrXrXrXrXrXrXrXrXrX8X7X7X7X7X7X7X7X!.W.W.Q.U.I.B.V.V.n.n.n.n.n.n.b.b.b.b.b.b.m.m.m.m.I.U.T.!.!.8X8X8X8X9X9X9X8X8X7X7X7XT.Q.U.B.n.k.d.} | ] L J p p p f J J J P P L L L P P P P P P J J J P P J J J J J P J J J J f f f s i i u 9 8 8 6 6 6 6 * * % % = $ $ $ $ # # # # % % = = * * = = * * = = = % # $ @ @ @ @ @ @ @ @ . . . @ @ @ . . . . . . . . . . . . . . . . . . . . . . . . . . . . . . . . . . @ @ @ @ @ $ $ $ $ $ $ $ $ $ $ $ $ $ $ $ $ @ @ @ @ @ $ @ @ @ @ = @ @ @ @ @ @ $ = $ # # # # # * 8 9 8 B s ; s w h 1 ; w d w w w ; d g h h C W C C d C ` X.Q ` `  .Z Q Q ` W C C d 1.#XF..XoX'.'.'.'.{.D.*X1.1.1. .Q ! ( 8.X.c 1.1.G.D.#X=X-X*X*X-X=X-X-X-X-X-X-X>X=X:X:X=X+XOXOXOXOXOX Xr.t.r._. X[.'.r.0.0.'.'.0.|.0.q.q.q.9.2.2.2.0.'.'.D.G.G.9.9.9.G.9.<.1.<.<.1.' ) ) W v v v v Z ) 1.<.G.G.G.G.<.1.1./ ) m b m ) / S S %.-.%.%.&.&.%.@.S S S :.9.D.D.F.{.{.{.XXoX}.{.'.'.'.'.`.`.`.`.`.'.'.0.0.0.4.3.q.3.2.,.>.;.&.&.#.@.@.@.%.S b m @.@.S S S / %.S S D D D D b b l l v v v l l v v v v x x x v v v v v v v v v v v v D S / %./ / / / / -.-.<.-.<.9.D.G.G.F..XF..X@X#XH.#X#XH.H.H.#X#X#X.X#X#X#X#X#XH.H.H.%XH.H.F.H.G.1.x 3 d h 3 3 a 1 , o X   X o + o + 1 a a a a a 3 1 1 1 1 , O       X 1 1 o 1 g h 1 1 1 1 a h g ~ ! ! ..X.X.X..... .! B s s i i s f B N J P P P P L ] Y L Y Y Y Y ] [ { { { { { } u.u.h.j.z.n.n.B.B.I.I.U.R.Q.T.T.W.W.W.W.6X6X6X6X7X7X0X0X7X7X9X9XtXtXyXiXaXaXaXsXsXsXkXsXzXzXzXzXzXzXzXzXzXzXjXjXkXkXsXsXjXkXkXkXfXsXkXkXsXjXjXsXsXsXjXjXjXjXjXjXjXkXjXjXjXjXjXjXjXjXsXsXsXsXjXsXjXsXsXsXsXsXjXsXsXjXsXsXsXsXsXsXsXsXsXsXsXsXsXsXsXaXsXsXsXaXaXaXaXaXaXaXiXiXiXiXiXiXtXtXtXtXtXtXtXtXtXtXtXtXtXtXtXtXtXtXtXtXtXtXtXrXtXtXtXtXtXtXtXtX9X9X9X9X9X9X9X9XtXtX9X9X9XtXtXtXtXtX9X9X9X",
"x.x.z.z.z.x.z.z.z.z.z.z.z.x.x.x.x.x.x.x.x.x.x.x.x.x.z.z.b.b.b.n.n.n.n.n.n.V.V.V.V.V.B.B.B.I.U.U.U.Q.T.W.!.!.7X7X7X7X7X8X8X8XrXrXrXrXrXrXrXrX8X7X7X7X7X7X7X7X!.W.Q.Q.U.I.B.V.V.n.n.n.n.n.n.b.b.z.b.b.b.M.m.m.m.B.I.U.T.!.!.8X8X8X9X9X8X8X7X7X7X!.Q.U.P.V.z.j.d.} ] ] L J f p f J J P P P L L U L L L L L P P P P L L L L L L L L L P J J J J f f f s i i u 9 8 8 6 6 * * * % % = $ $ $ $ $ $ # # * = = = * * * * * * = % % % # # @ @ @ @ @ @ @ @ @ . . . @ @ . . . . . . . . . . . . . . . . . . . . . . . . . . . . . . . . . @ @ @ @ $ $ $ $ $ $ $ $ $ $ $ $ $ $ $ $ $ $ @ @ @ = = = @ @ @ @ @ @ @ @ @ $ $ = % $ # = # # = * 8 9 9 B 0 9 B w s 1 1 w h h s w w d g h w C W C C g C ` X.! Q ( X.Q Q C ^ Q Z x d F.*XoX{.`.D.0.0.D.D.F.@X1.' ` X. .Q ( ..W X.1.1.G.D.XX*X-X=X=X-X-X-X-X-X<X<X-X-X=X:X:X=X=X+XOX+X+XOX X'.r.r._.'. X[.'.r.'.`.|.|.|.D.0.'.'.0.q.2.<.w.0.'.|.'.D.9.9.9.<.<.1.<.4.<.1.<.1.' ) ' ' ) ) ) ) ) / ' -.-.-.-./ ) m m m ) S S S ) %.%.%.&.%.&.%.@.S D D S -.9.D.F.{.{.{.{.{.{.{.'.'.'.'.'.'.'.'.'.'.'.).0.G.0.4.4.3.2.2.,.;.&.&.&.&.&.%.%.S S m S @.@.S S S %.%.S S S S D b b b l l l l l l x l l l l e e l l x v v v v v v v v v v v D D / %.%./ / / / -.-.-.-.<.9.G.D.F.H.F..X#XH.H.#XH.H.H.H.H.#XH..X#XH.#X#X#X#XH.H.#XH.H.H.H.G.1.c e h h 3 3 1 - 1 1 o     X o o + , 1 1 3 a h h a w h d h 1 1 o X O o 1 h g h 1 o 1 1 a h d g E ! ! X.X.X.X.....X.` g s B B s s s N N N P P L L L ] ] Y Y Y Y ] [ { { { { { } u.u.d.j.x.z.n.V.B.I.U.U.U.R.R.T.!.W.W.!.!.6X6X7X7X7X0X9X9X9X9X9XtXtXtXpXpXaXaXaXaXsXsXkXjXzXzXzXzXzXzXzXzXzXzXjXkXkXkXsXsXsXkXkXkXfXsXkXkXsXjXsXjXsXsXjXjXjXjXjXjXjXjXjXjXjXjXsXsXsXjXsXsXsXsXjXsXsXsXsXsXsXsXsXsXsXsXsXsXsXsXsXsXsXsXsXsXsXsXsXsXsXsXsXsXsXsXaXaXaXaXaXiXiXiXiXiXiXtXtXtXtXtXtXtXrXrXrXrXrXtXtXtXtXtXtXtXtXtXtXtXtXrX9XtXtXtXtXtXtXtXtXtXtXtX9X9XtXtXtXtX9XtX9X9X9XtXtXtX9X9X9X",
"x.x.z.z.z.x.x.z.x.x.z.z.z.z.z.x.x.x.x.x.x.x.x.x.x.z.z.z.b.b.n.n.n.n.n.n.n.n.V.V.V.V.V.B.P.I.U.U.Q.Q.Q.W.!.6X7X7X7X7X7X7X8X8XrXrXrXrXrXrXrXrX8X7X7X7X7X7X7X7XW.W.Q.U.I.Z.B.V.n.n.n.n.n.n.n.b.z.z.b.z.b.b.n.M.m.B.B.I.Q.W.!.!.8X8X8X8X8X7X7X!.!.!.R.U.B.n.z.j.u.{ ] L P J R R R J P P P L U U U U U U U L L L L L U U Y Y Y U U L U L L P P P J f f f p i u 9 8 8 6 6 * * % % # # # $ $ @ @ $ $ # * = % = * * * * * * % % % % = # # # @ @ @ @ @ @ @ @ . . . @ . . . . . . . . . . . . . . . . . . . . . . . . . . . . . . . @ @ @ @ @ @ $ $ $ $ $ $ $ $ $ $ $ $ $ $ $ $ $ $ @ $ $ = = = @ $ @ @ @ @ @ @ @ $ # = % $ # % % % = * ; 9 w B 9 9 E w s 9 w w w B d w g d g h w C W C g c d Q ( ` C E `  .` Q ^ ` Q x ^ %X*XXX{.'.0.0.4.0.0.D.H.9.^ ( 1.(  . .W ( S.1.8.D.F.oX*X-X-X-X>X>X-X-X>X2X2X>X-X:X:X:X:X:X=X=X,X,X,X+X X`.`._.'.`.'.r.0.0.0.'.'.'.'.'.|.'.0.q.q.0.0.q.q.0.'.{.{.D.G.9.4.4.9.9.4.1.1.1.-./ -.-./ %./ / / / / / / ) ) ) D m m ) *./ S S / %.%.%.%.%.%.%.@.S b b S -.4.D.D.{.{.{.oX{.oXoX{.'.'.'.{.`.].`.'.'.'.).D.).0.0.0.3.4.2.,.>.;.&.&.&.&.#.@.S S S @.@.@.S S S S S S S b b b b b b v v v l l v x x x l l l l x x v v v v v l v v v v v v v D D / %./ / / %.-.-.-.-.-.1.9.D.F.F.H.#X.XF.H.#XH.#XH.H.H..X#X#X#XH.H.#X#X#XH.H.H.#X#XH.F.G.1.c e h h 3 1 , , 1 1 , o     O O O o , , , 3 h h h h a a a a a 3 1 a h h h g h 1 , 1 w a h d g E Q `  . . .X.....X.` B s s s s N s f N N K L L L I ] ] Y Y Y Y ] [ { } } { { i.u.s.s.j.z.n.n.B.P.U.Q.Q.Q.T.W.!.!.6X6X6X6X7X7X7X7X7X7X9X9X9X9XtXtXyXyXaXaXaXaXaXsXsXsXkXkXkXkXkXkXkXkXkXkXkXkXkXkXkXkXsXfXkXkXkXkXsXsXkXkXkXjXsXsXsXsXjXjXjXjXjXjXjXjXjXjXjXjXsXsXsXjXsXsXjXjXsXsXsXsXjXjXsXsXsXsXsXsXsXsXsXsXsXsXsXsXsXsXsXsXsXsXsXsXaXaXaXaXaXaXaXaXiXiXiXiXiXtXtXtXtXtXtXtXrXrX9X9XrXrXrXrXrXrXrXrXtXtXtXtXtXtXtXtX9XrXtXtXrXrXtXtXtXtXtXtXtXtX9X9XtXtXtXtXtXtXtXtXtXtX9X9X9X",
"x.x.z.z.z.z.z.z.x.x.z.z.z.z.z.x.x.x.x.x.x.x.x.x.x.z.z.z.z.b.n.n.V.V.V.V.V.V.V.V.V.V.V.B.B.I.U.U.Q.Q.Q.T.W.!.7X7X7X7X7X7X8X8XrXrXrXrXrXrXrXrX8X7X7X7X7X7X7X7XW.W.U.U.I.B.V.V.n.n.n.n.b.b.b.b.z.x.z.z.z.b.z.b.M.m.m.I.R.T.T.!.7X8X8X8X8X7X!.!.W.T.U.P.B.n.x.h.u.{ ] L P J R R J P P P L L U U Y Y Y Y Y U U U U U Y ] ] ] ] ] ] ] ] ] Y L L L P J f f f p i 9 8 8 * 6 * % % % # # # # $ @ @ $ = = = = = = = * * * * * % % % % % = # # # @ @ @ @ @ @ @ . . . . . . . . . . . . . . . . . . . . . . . . . . . . . . . . . . . . @ @ @ @ @ $ $ $ $ $ $ $ $ $ $ $ $ $ $ $ $ $ $ @ $ $ = $ @ = = = $ @ = = @ @ @ @ $ $ # = = % = = * ; 8 9 B s w E w s w w w w C d s g d g h h C W C d d d C C X.C d Q ` ` ` ` ` Q x 1.-X.X.XD.D.0.4.2.2.2.G.G.9.W X.1.E  .( ! S.1.1.G..XoX&X=X-X-X-X-X>X-X-X>X>X2X>X>X>X:X>X:X:X:X=X=X=X=X=X+XOXOX X X X X`.'.r.0.'.|.|.'.'.'.0.0.0.r.'.0.0.q.9.0.D.D.D.G.9.9.4.4.<.1.<.-.%.-.-.-.%.%./ %.%.*.%.%./ / / / / ) m b b b S ) ) S S %.%.%.%.%.@.S S b b ) -.4.G.D.{.{.{.{.oX@X$XOX{.{.{.].OXOX X`.'.'.).).G.0.0.0.0.4.4.2.2.>.;.;.&.%.@.S @.#.#.@.@.#.@.S S @.@.S S S S D b b b b b v l l l l l l l l x x x x v v v v v v v v v v v v v D D S / %./ / %.-.-.-.-.-.-.9.D.D.F.F..XH.F.H.H.H.H.H.H.H.H.#X#X#X#X#X#X#X#X#X#X#X#XH.H.F.G.1.c e h h 3 - 1 1 1 o 1 o         O O , + o , 1 a h h h h h h h h d C E h a a 3 1 1 1 a a h c E W !  .`  .` ` X...X.! E s i u i s s f N N K L L _ ] ] ] ] Y Y Y ] { { } } } } u.d.j.j.x.z.n.B.P.U.Q.T.W.W.!.!.!.7X7X7X7X7X7X7X7X9X9X9XtXtXtXtXtXyXiXaXaXaXaXaXsXjXkXkXkXkXkXkXkXkXkXkXkXkXkXkXkXkXkXkXkXfXkXkXkXkXsXsXkXkXkXkXjXsXsXsXjXjXjXjXjXjXjXjXjXjXjXjXjXjXjXjXjXjXsXsXsXsXsXsXjXjXsXsXsXsXsXaXsXsXsXsXsXsXsXsXsXsXsXsXsXsXsXsXaXaXaXaXaXaXaXiXiXiXiXiXiXtXtXtXrXrXrXrXrXrXrXrXrXrXrXrXrXrXrXrXtXtXtXtXrXrXtXtXrXtXtXtXtXrXtXtX9X9X9X9X9X9X9X9X9X9XtXtXtXtXtXtXtXtXtX9X9X",
"x.x.z.z.b.b.z.z.z.z.z.z.z.z.x.x.x.x.x.x.x.x.x.x.x.z.z.z.z.b.n.n.n.V.V.V.V.V.V.V.V.V.V.V.B.I.I.U.U.U.U.Q.W.!.6X6X7X7X7X8X8X9XrXrXrXrXrXrXrX8X7X7X8X8X7X7X7X7X!.W.U.U.I.B.B.V.n.n.n.n.b.z.b.z.x.k.z.z.z.z.z.z.b.M.m.P.R.R.T.T.7X8X7X8X!.!.!.W.T.R.U.P.V.z.j.s.i.{ ] L P J R R J P P L U Y Y Y T [ [ [ [ ] ] ] ] ] [ [ { { { [ [ [ ] ] ] L L L L J J N f f p u 9 8 * * * % = = # $ % # # @ @ # = = = * * * % = * 6 * * = = = = = = # # # @ @ @ @ @ @ @ . . . . . . . . . . . . . . . . . . . . . . . . . . . . . . . . . . . @ @ @ @ @ @ @ $ $ $ $ $ $ $ $ $ $ $ $ $ $ $ $ $ $ $ $ $ $ $ $ = % $ $ $ $ $ $ $ $ $ $ % % % * * * * * 8 ; B B 9 C w g h w h h C g g s h d e g Q W d d d d g d 8.W h E W ! ` X.` W x 8.-XD.{.0.0.2.>.;.2.2.0.G.<.W 8. .W W ( F.1.' 1.F.%X*X*X-X-X-X-X-X-X-X>X>X>X-X>X2X3X>X>X>X>X:X=X=X&X=X,XOX+XOXOXOXOX X X|.'.'.'. X X X'.0.0.0.r.`.D.0.q.q.q.9.0.D.D.D.G.G.4.4.2.:.4.-.*.;.5.*./ *.*.*.%.%./ / %.%.) ) ) ) ) m b b v m m b b S *.&.&.%.%.S S D S %.2.9.G.D.{.oX{.{.{.oXoXoX}.}.}.].`.].].'.).0.).).G.0.0.0.0.0.4.4.,.>.;.;.;.&.%.%.&.&.%.@.%.&.*.%.%.*.&.&.%.%.@.@./ / S S D D b v v v l v v v v v v l l v v v v v v v v v v v A D S / / %.%.%.%.-.%.-.-.-.1.<.G.D.G.D.F.H.H.H.H.H.F.H.H.F.F..X.XH.#X#XH.oX#X#X#X%X#XH.H.F.F.1.c h h h a , 1 3 1 , 1 o         O O O O O O O - 1 a h h h d g g g E h a 3 1 , - , 1 h h d C Q ` ` X.`  . .`  .X. .~ g s s s i i i N N J K L _ ] ] ] ] [ ] ] Y ] { { u.u.d.d.d.s.j.z.z.n.n.B.I.R.R.!.!.!.!.7X7X8X7X7X7X7X7X7X9X9X9XrXtXtXtXtXyXiXiXaXaXaXaXsXsXkXkXkXkXkXkXkXkXkXkXkXkXkXkXkXkXkXkXkXkXkXkXkXkXkXkXjXkXkXkXkXsXsXsXkXjXjXjXjXjXjXjXjXjXjXjXjXjXjXjXjXjXsXsXsXsXsXsXsXsXsXsXsXsXsXaXaXsXsXsXsXsXsXsXsXaXaXaXaXaXsXsXsXaXaXaXaXaXaXaXaXiXiXiXiXtXtXtXtXrXrXrXrXrXrXrXrXtXtXrXrXrXrXrXrXtXrXrX9X9XtXtXtXrXtXtXtXtXrXrXtX9X9X9X9X9X9X9X9X9X9X9X9XtXtXtXtXtXtX9X9X9X",
"z.z.z.z.b.b.z.z.z.z.b.b.z.z.x.x.x.x.x.x.x.x.x.x.x.x.z.z.z.b.n.n.n.n.V.V.V.V.V.V.V.V.V.B.B.P.I.U.U.U.U.Q.W.!.!.6X7X7X7X8X8X9XrXrXrXrXrXrXrX8X7X7X8X8X7X7X7X7X!.W.U.U.I.P.B.V.n.n.n.n.b.z.z.z.x.j.z.x.z.z.z.z.b.M.m.P.I.R.R.T.!.7X!.!.!.!.W.R.Q.Q.P.P.n.z.j.d.} [ ] L P J J J P P L Y Y Y Y T [ [ [ [ [ [ [ [ [ [ { { } } i.} } } { { [ ] U U L P J J f f p u 9 8 * % = % = # $ $ # # # # # = = = = * 6 * * = * 6 * % % % * * = = # # # @ @ @ @ @ @ @ @ . . . . . . . . . . . . . . . . . . . @ @ . . . . . . . . . . . . . @ @ @ @ @ @ @ $ $ $ $ $ $ $ 5 5 5 5 5 $ $ 5 $ $ $ $ $ $ $ $ = = % = = $ = % % % % = = % % * * * * * * 9 & s C 9 g h C h w h g C B g w e d d C Q C d d d c d g ..` g E Q Q ( ( ^ Z Z J.%XD.D.0.3.>.&.&.;.2.9.4.1.( S.W W W 1.F.W 1.G.H.*X*X*X=X=X=X=X=X=X=X=X=X=X=X>X>X-X>X>X>X>X:X:X=X=X=X&X+X+X+X+X+XOX X X X|.`.|.|. X|._.0.0.0.r.'.0.q.2.9.0.D.D.D.{.D.D.D.0.q.q.4.2.<.;.;.-.*.*.-.;.-.-.*.%.%.*.-.) ) ) ) ) %.%./ b b b z z b %.;.:.;.%.S S S %.-.2.9.G.G.{.oX@X@XoXoX}.oXOXOXOX].`.`.`._.'.'.'.'.G.).).0.0.0.4.4.,.2.,.,.;.:.&.&.&.&.%.%.&.;.;.;.;.>.,.>.;.;.;.;.-.-.-.%.%.%.%./ S D D A v v v v v v l l l l l l l l v v v v A D D S / / %.%.%.-.%.-.-.-.-.1.<.<.9.G.G.F.H.H.H.H.F.H.H.H..XH.H.H.oXH.oX#X#XH.H.#XH.F.H.H.F.1.W x h h h 1 1 1 1 a 1 < o X           X o O X O + 1 , 1 a a h h h h 1 1 1 , - o , 3 a g C C !  .` ` ! X... .` X.X.` g s s s i s s f N N K L _ ] ] ] ] [ [ ] Y Y [ { u.u.d.d.d.s.j.x.c.n.B.P.U.R.W.!.!.7X7X7X8X8X9X9X9X9X9X9X9X9XrXrXtXtXtXyXiXiXaXaXsXsXsXsXsXfXfXfXkXkXkXkXkXkXkXkXkXkXkXkXkXkXkXkXkXkXkXkXkXkXkXkXsXkXkXkXsXsXkXkXjXjXjXjXjXjXjXjXjXjXjXjXsXsXsXjXsXsXsXsXsXsXsXsXsXsXsXsXsXsXsXaXsXsXsXsXsXsXsXaXaXaXaXaXaXaXaXaXsXsXsXsXaXaXaXaXiXiXiXtXtXtX9X9XrXrXrXrXrX9X9X7XrXrXrXrX9X9X9X9X9X9X9X9X9XtXtXtX9XrXtXtXrX9X9X9X9X9X9XtX9X9X9X9X9X9X9X9X9X9XtX9XtXtX9X9X9X",
"z.z.z.z.b.b.z.z.z.z.b.b.z.z.z.x.z.x.x.x.x.x.x.x.x.z.z.b.b.b.n.n.n.V.V.V.V.V.V.V.V.V.V.B.B.I.I.I.U.U.Q.W.W.!.6X7X7X7X7X7X8XrXrXrXrXrXrXrXrX8X8X7X8X8X7X7X7X6XW.W.Q.U.U.I.B.V.n.n.n.n.b.z.z.x.k.j.k.j.k.k.k.k.z.b.m.m.P.P.R.R.T.!.!.!.E.T.T.Q.R.R.P.B.n.x.j.s.} { ] U P P J P L U U Y ] [ [ T [ [ [ [ { { [ { { { i.u.u.u.u.u.u.u.u.} { [ ] U L L P J f f i u 8 8 * * % = # $ # # # # # # # = = = % * * * * * * * = = % * * * = = # # # @ @ @ . . @ @ @ . . . . . . . . . . . . . . . . . @ @ @ @ @ @ @ @ @ @ @ @ @ @ @ @ @ @ @ @ @ @ @ @ $ $ $ $ $ $ 5 5 5 5 5 5 5 5 5 5 $ $ $ $ = = $ $ $ $ % % % % % % % % * * * * * * * * * * 8 ; a C s B d E d h d g B C g w e d d C Q C d c d c C C ! ` ~ E ` ! W Z c Z ' -XoXD.0.0.2.>.&.=.;.>.4.1.1.1.S.E W X.H.X.^ G.H.#X%X*X*X*X*X*X=X=X&X$X@X@X@X&X=X=X=X>X2X2X3X=X>X>X>X=X=X=X=X=X=X+X+XOXOXOXOXOXOX X`.'.0.q.q.q.0.0.q.2.4.0.'.D.0.0.D.D.0.q.q.q.0.q.4.4.2.2.<.;.;.5.-.-.-.-.*.*.*.*.*.%.%.) ) ) ) ) ) m m m b b m %.;.,.;.%.%.%.-.<.1.4.9.G.{.oX@X$X$X$X$XOXOXOXOX`.`.`.`.'.'.'.'.'.0.'.'.0.0.0.q.4.4.2.2.,.;.:.&.&.&.&.&.:.;.>.,.>.,.2.2.2.2.2.,.<.;.;.:.:.:.:.:.:.-.%.%.S S D A A v v l l l v v v l l v v v v b D b A D D ) / / / / / / / %.-.-.-.1.8.G.G.F.H.H.H.H.H.H..X.XH.F.H.oXH.oXoXH.H.H.H.H.F.H.F.F.1.^ c d d d w 3 3 1 a a a 1 , o       X O o o o o + , , 1 3 1 3 3 1 - 1 1 o O , , 1 a a C E W ` ` ! ` ! X... .` X... .~ s a i s B f s N N K L _ ] ] [ ] [ [ ] Y Y [ { { u.d.d.d.d.j.j.n.n.P.I.R.R.!.!.7X7X8X8X9X9X9X9XrXrX9X9X9XrXtXtXiXiXiXiXiXaXaXaXsXsXsXsXsXkXkXkXkXkXkXkXkXkXkXzXkXkXkXkXkXkXkXkXsXjXkXkXkXkXfXkXsXfXsXsXsXkXkXkXjXjXjXjXjXjXjXjXjXjXjXjXsXjXsXjXsXsXsXsXsXsXsXsXsXsXsXsXsXaXaXaXsXsXsXsXsXsXaXaXsXsXsXaXaXaXaXaXaXaXaXaXaXaXaXaXiXiXiXtXtXtX9X9X9X9X9X9X9X9X7X7XrX9X9X9X9X7X7X7X9X9X9X9XtXtXtXtX9X9XtXtXrX9XrX9XtX9X9X9X9X9X9X9X9X9X9X9X9X9X9X9X9X9X9X9X9X",
"z.z.x.z.z.b.z.z.z.z.b.b.z.z.z.z.z.x.x.x.x.x.x.x.x.z.z.b.n.n.n.n.V.V.V.V.V.V.V.V.V.B.B.B.B.I.I.I.U.Q.W.W.W.!.7X7X7X7X7X7X8X8XrXrXrXrXrXrXrX8X8X7X8X7X7X7X7X!.W.W.W.Q.U.I.B.V.n.n.n.n.n.z.z.k.j.k.j.h.j.j.j.j.k.z.M.m.B.P.I.R.R.T.T.T.T.R.Q.R.R.R.B.V.n.x.h.s.u.{ ] U L P P L U Y Y Y [ { { { { { i.i.u.i.i.i.u.u.u.d.s.s.s.s.s.s.u.u.} { [ Y U L P J J f p i 9 8 * * % = # $ @ @ @ @ @ # # = = = * * % * 6 6 * = = = * * * * = = # # # @ @ @ . . . @ @ @ . . . . . . . . . . . . @ @ @ @ @ @ @ @ @ @ @ @ @ @ @ @ @ @ @ @ @ @ # # @ @ @ = $ $ $ $ 5 5 5 5 5 5 5 $ 5 5 5 5 $ $ $ $ $ $ = $ $ $ = % % % % % % % % % * * * * * * ; ; * 9 9 B g E d E d g d g B E g w h C C C W C x C c c E W g ! ! C Q W Z c e x -.<XoX.X0.0.,.>.&.>.;.;.2.-.1.G.1.Q  .S.H. .1.G.F.%X*X*X=X*X&X&X&X&XXXXXoXoXoXOX$X&X=X-X2X2X3X>X3X3X=X=X=X=X=X=X=X&X=X,XOXOXOXOXOX`.'.0.q.2.w.q.q.0.0.q.q.q.q.9.q.0.D.0.9.q.4.q.q.4.q.2.2.2.2.;.;.;.;.;.-.-.*.*.-.-.*.*.*.) ) ) ) ) %.) S S m b b S :.2.2.:.-.-.:.1.<.9.G.D.{.oX@X$X$X$X$X$X+X+XOXOX].].`.'.'.'.'.'.0.'.'.).0.0.0.0.q.2.2.,.;.:.&.&.;.;.;.;.;.>.,.,.2.2.2.2.2.2.2.2.2.2.2.2.2.2.2.,.2.,.:.:.%.%.%.%./ D b b b b A D D b v v v v v b v v A A D D D D D S S S / -.-.-.1.8.8.8.G.H.H.H.#XH.H..XoXF.F.H..XoXoX.XH.H.H.H.H.H.#XF.F.8.` W c d d h h a 1 1 a a a 1 , o + + o o O O o + - - o 1 1 o - 1 + X O o O O 1 1 1 a g E Q  .X.! Q  .Q  .X.! ` .... .E d s s i s s f N N K L _ ] ] | { { { { ] ] [ { { i.d.d.d.s.x.x.n.n.P.U.R.T.!.!.8X8X9X9XrXrXrXrXrXrXrXrXrXtXtXtXiXiXaXpXaXaXsXsXaXaXsXsXkXkXkXkXkXkXkXkXkXkXkXzXkXkXkXkXkXkXkXkXsXkXkXkXkXkXkXkXsXsXsXsXkXkXkXkXkXjXjXjXjXjXjXjXjXjXjXjXjXjXjXjXsXsXsXsXsXsXsXjXaXaXsXsXsXsXaXaXsXsXsXsXsXsXaXaXsXsXsXsXaXaXaXaXaXaXaXaXaXiXaXiXiXiXiXtXtX9X9X9X7X0X7X7X9X9X9X9X9X9X9X7X7X7X7X7X9X9X9XrXrXrX9X9XrXtXtXtXtXtXtXtX9X9X9X9X9X9X9X9X9X9X9X9X9X9X9X9XrX9X9X9X9X",
"z.z.z.z.z.z.b.b.z.z.z.z.b.b.z.z.z.z.z.x.x.x.x.z.z.z.z.z.b.b.n.n.n.V.V.V.V.V.B.B.V.V.B.B.B.I.I.U.Q.Q.T.W.W.!.7X7X7X7X7X7X7X8XrXrXrXrXrXrXrXrX8X7X8X8X7X7X7X7X!.W.W.Q.U.I.B.V.n.n.n.b.b.z.k.j.j.j.j.f.u.f.h.j.k.x.c.M.m.P.P.I.R.R.T.T.T.R.R.U.U.P.B.n.n.x.h.d.} [ [ Y L P L U Y Y T T { { i.i.i.u.u.u.u.u.u.u.s.s.s.s.f.j.k.j.f.d.h.d.u.{ [ ] Y U P J J f p u 9 > * = = @ @ @ @ @ @ @ # # = = % % = * * = = * * = = = * * 6 * = = # @ @ @ @ @ @ @ @ @ @ . . . . . . . . . . . . @ . . @ . . . @ @ @ @ @ @ @ @ @ @ @ @ @ @ @ @ @ @ @ @ @ = $ $ $ $ 5 5 5 5 5 $ $ 5 5 5 5 $ $ $ $ $ $ $ % $ $ % % % = = = = % * * * = * * * * ; ; ; ; 9 > s E Q g C C d w g g C g d d d Z c Q c c d C C E Q d E ` g E ( c d c c 8.%XoX'.0.q.,.>.=.&.>.&.>.<.1.G.8. . .(...S.8.G.%XXX*X@X@X*X*X@XXXXXOX'.D.'.'.'.|.+X&X>X2X2X>X2X>X>X=X=X:X:X=X=X=X:X:X:X$X+X$XOX X'.r.0.0.0.r.'.r. X`.0.q.q.q.q.0.'.'.0.q.0.0.0.q.0.q.q.4.2.2.;.;.:.<.;.;.;.;.-.-.*.*.*.*.*.-.*.%.) ) ) / / ) S S S / ;.2.<.<.-.%.1.<.9.D.D.{.@X$X$X=X$X$X$X$X+XOXOX`.].`._.'.'.'.).0.'.'.0.0.0.0.0.q.2.2.,.;.%.%.&.&.:.;.;.,.,.2.2.2.2.2.2.q.q.2.2.2.2.2.2.2.,.,.,.,.:.:.:.;.:.:.:.:.-.%./ S S / / %.%.%./ D D D / / ) ) D D A D D D D ) / %.-.-.1.<.' 8.G.8.F.H.H.H.#X#X.XH.F.F.F.H..XoXH.H.H.#XoXH.H.H.F.G.8.` Z C g h a a 3 1 1 1 r 1 1 , 1 1 1 o o o O O o - + - , , , , o   o + O O - 1 1 a d E ~ X.X.` Q W  .Q ` .. .` .... .` g s s s s s B N J P L L ] ] ] ] { { { { { { { { d.d.d.d.j.z.z.n.n.P.R.T.!.!.8X8X9X9XrXrXrXtXiXiXiXiXtXtXtXiXiXiXpXaXaXaXaXaXaXjXsXsXsXkXkXkXkXkXkXkXkXkXkXlXzXkXkXkXkXkXkXkXsXkXkXkXkXsXsXjXjXkXkXkXsXsXsXkXkXkXkXjXjXjXjXjXjXjXjXjXjXjXjXjXsXjXjXjXaXaXaXsXjXaXaXaXaXaXaXjXjXaXaXaXaXaXaXaXaXkXsXsXaXaXaXaXaXaXaXaXaXaXiXiXiXtXtXtXtXtXtX9X9X7X9X9X7X7X7X7X9X7X7X7X7X7X7X7X7X9X9X9X9X9X9X9X9XtXtXtXtXrXrXrX9XtX9X9X9X9X9X9X9X9X9X9X9X9XtXtX9XrXrX9X0X0X",
"z.z.z.b.b.z.z.z.z.z.z.z.z.z.z.x.x.z.z.x.x.x.x.z.z.z.z.b.b.n.n.V.n.V.V.V.V.V.V.V.V.B.B.B.B.I.I.U.Q.Q.Q.T.W.!.7X7X7X7X7X7X7X8XrXrXrXrXrXrXrXrX8X7X8X8X7X7X7X7X!.W.Q.U.U.I.B.V.V.n.n.b.z.z.j.j.f.s.f.u.u.u.s.f.j.k.z.b.M.B.P.I.R.R.R.R.R.I.I.I.P.P.n.n.z.x.h.d.} [ [ Y L L U U Y Y T T { { i.i.i.u.u.u.u.d.u.s.s.s.f.f.j.k.x.k.j.f.s.u.u.i.{ [ Y U L P J G p u 9 > = = = @ @ @ @ @ @ $ # # # = % = * * * * * * * * * * * * * = = = @ @ @ @ @ @ @ @ @ @ @ . . . . . . . . . . . . . @ @ @ @ @ @ @ @ @ @ @ @ @ @ @ @ @ @ @ @ @ @ @ @ @ @ @ @ $ $ $ $ $ 5 5 5 5 5 5 5 5 5 5 5 5 $ $ $ $ $ % % % % % % = = % % % * * * * * ; ; ; ; ; ; * 9 9 s B E g g C d w g C C g g e C Q C W d d d d C W Q d C ! C E Q c x c x 8.%X.X'.0.q.,.=.&.&.&.=.2.<.-.8.X.W ..(...(.8.G.#X@X*X*X*X@XXXoXXX$X+X+X+X`.0.q.0.|.&X-X-X2X2X>X>X>X>X&X&X>X>X>X:X=X:X=X=X=X=X+XOX X`._.'.r.`.`.r. X[.0.0.'.'.D.D.0.q.9.2.q.q.2.2.2.2.2.2.2.,.:.:.;.;.:.;.:.;.;.-.*.;.;.-.-.*.*.%.) ) ) %.%.%.%.%.%./ -.<.2.9.<.1.<.2.G.F.F.F.@X$X$X=X=X=X$X$XOX].].].].].`.`.'.'.'.'.'.'.'.0.0.0.0.4.2.,.%.S @.%.%.%.&.;.;.;.,.,.,.,.,.2.2.2.2.2.2.2.2.2.2.2.2.2.2.2.<.;.,.<.,.;.:.<.<.;.:.:.-.-.-.-.-.-.-.%./ / S S D D D D D A D D D ) ) D ) / -.-.' -.' ' 8.H.#XH.H.H.H.H.H.F.F..X.XoX.XH..XH.H.H.H.F.F.G.8.' Z c g d h a 3 1 1 1 1 1 1 1 j 1 1 1 1 1 , , , , , + 1 , - o o , , o o + 1 a a h g E ( .. .! Q Q ` Q ! X. .` X.X. . .B s s s s s N N N P L _ ] ] ] ] { { { { { { { u.d.d.d.s.j.z.c.n.V.I.R.E.!.7X8X8X9X9XrXuXiXiXpXiXiXiXiXtXiXiXiXaXpXaXaXaXaXaXsXkXkXsXkXkXkXkXkXkXkXkXkXkXkXkXkXkXkXkXkXkXkXkXkXkXkXkXkXsXsXkXkXkXkXkXsXfXfXkXkXkXjXjXjXjXjXjXjXjXjXjXjXjXjXsXsXjXjXjXaXaXaXaXaXaXaXaXaXaXaXjXjXaXaXaXaXaXaXaXaXsXaXaXaXaXpXaXpXiXiXaXiXiXiXiXtXtXtXtXtXtX9X9X9X7X7X7X7X7X7X7X0X7X7X7X7X7X7X7X7X9X9X9X9X9X9X9X9XtXtXtXtX9X9X9X9X9X9X9X0X0X9X9X9X9X9X9X9X9X9X9X9X9X9X0X0X0X",
"z.z.b.b.n.b.z.z.b.b.b.b.b.z.z.z.x.x.x.x.x.x.z.z.z.z.z.b.b.n.n.V.V.V.V.V.V.V.V.V.B.B.B.P.P.I.I.U.Q.Q.Q.W.W.W.6X7X7X7X7X7X7X7X8XrXrXrXrXrXrXrX8X7X8X8X7X7X7X7X!.W.Q.U.U.I.B.V.n.n.z.z.z.k.j.s.s.u.u.u.u.u.u.u.f.j.x.z.z.M.P.P.I.R.P.I.I.P.P.P.P.m.n.z.z.j.s.u.{ [ Y Y U U U U Y T [ [ { i.i.i.u.u.d.f.f.f.f.f.f.f.k.j.k.z.z.z.k.j.s.u.u.i.i.[ Y U L P J G p i 9 * & # & # @ # @ @ # # # # # = % % * * * = * 6 6 * * * * $ $ $ $ = @ @ @ @ @ @ . . . . . . . . . . . . @ @ . . . . @ @ @ @ @ @ $ $ @ @ @ @ @ @ @ @ @ @ @ @ @ @ @ @ @ @ @ @ $ $ $ $ $ $ 5 5 5 5 5 5 5 5 5 5 5 5 $ $ $ $ % % % % % % * * * * * * * ; * ; ; ; ; ; > > ; 9 9 9 g E E g C s 1 g C C h C e C ( C C d d e e d W W d g C W W W c x x e 1.*X.X'.0.q.,.=.&.&.&.&.>.;.-.1.( C (.(.1.F.8.J.XX&X@X@X#XoXoX$X=X>X:X:X:X+X'.0.q.4.oX=X=X>X>X=X:X:X=X+X$X:XOXOX:X:X:X=X=X=X:X=XOX X X`.'.r.'.r.0.0.'.'._._.'.0.0.2.2.4.q.q.q.2.2.2.2.2.<.,.:.;.:.:.-.-.-.-.-.*.-.-.;.;.-.-.-.-.*.%.) %.*.-.*.*.-.:.-.:.<.2.9.9.9.<.4.D.{.{.F.oX$X=X=X=X:X,X$XOX].`.'.`.[.[.`.`.`.'.'.'.'.'.'.'.0.0.q.;.*.S S S @.%.%.&.;.;.:.;.;.,.:.<.2.2.2.<.2.2.2.2.2.2.2.<.,.2.2.,.<.<.2.2.2.2.2.2.2.<.<.<.:.:.-.%.%.%.%.%./ S D D D D b b v v v v D D D Z D ) ^ ' ' ' ' 1.F.H.#XH.H.H..XH.F.F..XH.H.oX.XH.H.H.H.H.H.F.G.8.( c C c d a 3 3 a a r r 1 1 1 1 3 3 w a w 1 1 1 1 1 - , o - + 1 h - O + , w h a h g E ! X.` ( ! Q ` ` ( X.X.`  .X.` X.E g s s s s f N N P L _ ] ] ] ] { { { { { { } d.d.d.d.h.j.z.n.n.B.U.Q.!.!.8X8X8X9XrXuXiXpXpXpXiXiXiXiXiXiXiXpXpXpXaXaXaXaXsXsXkXkXkXkXkXkXkXkXkXkXkXkXkXkXkXkXkXkXkXkXkXkXkXkXkXkXfXkXkXkXkXkXkXkXkXkXfXkXkXkXjXjXjXjXjXjXjXjXjXjXjXjXjXjXsXsXjXjXaXaXaXaXaXaXaXaXaXaXaXaXaXaXaXaXaXaXaXaXpXpXaXaXaXaXpXiXiXiXiXiXiXiXiXtXtXtXtXtX9X9X9X9X9X9X7X0X7X7X7X7X7X7X0X0X0X0X7X7X7X7X9X9X9X9X9X9X9X9X9X9X9X9X9X9X9X9X9X9X0X0X0X0X0X0X9X9X9X9X9X9X9X9X9X0X0X7X7X",
"z.z.b.b.b.b.b.b.b.b.b.b.z.z.z.z.x.x.x.x.x.x.z.z.z.z.z.b.b.n.n.V.V.V.V.V.V.V.V.V.B.B.B.B.P.I.I.I.Q.Q.Q.W.W.W.!.7X6X7X7X7X7X8X8XrXrXrXrXrXrX8X7X7X8X7X7X7X7X7X!.W.W.Q.U.I.V.n.n.n.z.z.z.j.j.s.u.u.u.u.i.u.i.u.u.h.j.k.z.z.M.m.K.K.P.P.P.P.B.P.B.m.n.z.z.j.s.u.{ [ Y U U U Y Y T T [ { i.u.u.u.u.d.f.f.f.f.f.f.k.f.j.j.k.x.z.k.k.j.s.u.u.i.i.[ T U L P J G p u 9 > & # # # # # $ @ # # # # # = % % * = = = = = * = = = = $ = $ $ = @ @ @ . @ . . . . . . . . . . . . . @ @ @ @ . . @ @ @ @ $ @ $ $ @ @ @ @ @ @ @ @ @ @ @ @ @ @ @ @ @ @ $ $ $ $ $ $ $ 5 5 5 5 5 5 5 5 5 5 5 5 5 $ $ $ $ % % 5 6 6 * 8 6 ; * ; ; ; 8 * * ; > * * > > 9 9 9 1 h E ~ d g h 1 d C C h g h E ! C c d d e e e Z C d d g Q Q Z Z d x 4 8.=XoX.X'.q.,.=.&.&.#.&.=.*.-.1.` ! /.(.1.S.8..X@X@XoX.XF.{.$X>X>X:X:X:X:X,X,X X0.2.0.=X>X=X=X$X=XOXoX|.OXOX`. X:X:X:X:X:X=X=X+XOX X X`._.r.r.t.q.q.0.0.r.r.0.w.2.2.2.q.q.q.q.q.w.2.2.2.2.2.2.<.<.;.;.<.<.;.;.;.;.;.;.;.;.;.-.;.-.-.%.*.-.-.*.*.;.;.<.:.<.2.9.9.9.9.4.D.oXoXoX@X$X=X=X=X=X$X$XOX].]._._.`.`.`.`.`.'.`.'.'.'.'.'.0.q.2.S m S S S S @.%.&.&.:.;.:.;.:.:.:.:.:.%.%.%.%.-.-.-.-.:.;.;.;.,.<.2.,.,.2.2.2.2.2.2.2.2.2.2.<.:.:.-.-.-.-.%./ ) ) D D b b v l v v v A D D ^ ) ^ ' ' 1.1.1.G.H.H.H.J.J.H..X.XF.H.H.H..XoXH.H.H.H.H.H.H.F.8.( d c c g h w 3 a a h h a a 1 1 3 a a a w 1 1 1 1 1 1 - w a 1 h a O + , 3 a h h h g E W (  .` Q Q  .` ` X.X.`  .X.!  .~ B s s s f f N N K L _ I ] ] ] [ { { { { { } d.d.d.s.h.j.z.c.n.B.U.Q.!.!.8X8X9XrXuXuXiXiXiXpXiXiXpXiXaXaXpXaXaXpXaXaXaXsXsXsXkXkXkXkXkXkXkXlXkXkXkXkXkXkXkXkXkXkXkXkXkXkXkXkXkXkXfXfXkXkXfXkXkXkXkXkXfXfXkXkXjXjXjXjXjXjXjXjXjXjXjXjXjXjXsXsXjXjXaXaXaXaXaXaXaXaXaXaXaXaXaXaXaXaXaXaXaXaXpXiXiXiXpXaXpXiXiXtXiXiXiXiXtXtXtX9XtXtX9X9X9X9X9X9X7X7X7X7X0X0X7X7X0X0X7X0X0X7X7X7X9X9X9X9X9X9X9X9X9X9X9X9X9X9X9X9X9X9X0X0X0X0X0X0X9X9X9X9X0X0X9X9X0X0X0X7X7X",
"b.b.b.b.b.b.b.b.z.z.z.z.z.x.x.x.x.x.x.x.x.x.z.z.z.z.z.b.b.b.n.n.V.V.V.V.V.V.V.V.B.B.Z.B.Z.P.I.U.Q.T.W.W.W.W.!.7X6X7X7X8X8X8XrXrXrXrXrXrXrX8X7X7X7X7X7X7X7X7X!.W.W.Q.U.P.B.n.n.n.z.x.k.j.f.d.u.i.i.i.i.i.{ { u.u.h.h.k.z.M.M.M.M.m.K.P.K.B.B.m.n.n.z.x.j.d.u.{ [ Y U U Y Y T [ [ i.i.i.u.d.d.d.g.k.k.j.j.j.j.j.j.k.k.k.k.k.k.j.j.h.u.u.i.i.[ T Y L P J G i u 9 > & & & & # # # @ # # # # # = % * = $ $ = = = = = $ = = = = $ @ @ @ @ @ . . . . . . . . . . . . . . . @ @ @ @ @ @ . @ @ @ $ $ $ @ @ @ @ @ @ @ @ @ @ @ @ @ @ @ @ @ @ @ $ $ % $ $ $ 5 5 5 5 5 5 5 5 5 5 5 5 5 5 5 5 $ % % 5 6 6 7 8 8 8 ; ; > > 8 8 * * ; > > > 8 9 9 9 9 , w B ~ d g d w d C C h g h Q ` C d d d e e e Z C d d c ( ( Z W e d e G.1XXX.X'.0.3.>.&.&.&.#.&.%.-.1.(  .nXS.1.1.G.F.#X@XoXF.{.@X>X>X:X:X:X:X:X,X+XOX_.0.2.+X:X:X=X+XOX'.'.'.'.'.'.OX:X+X>X>X:X=X+XOXOXOX X]._.r.r.r.t.q.2.2.q.0.0.q.q.q.4.9.q.9.9.q.q.4.q.9.2.2.2.2.2.;.2.2.2.<.<.<.;.;.;.;.;.;.;.;.5.5.-.*.-.*.%.-.-.:.-.-.<.9.9.9.9.9.9.D.oXXXoX@X$X=X=X$X$X$X$XOXOXOX`.`.`._.'.`.`.`.`.'.'.'._.r.q.4.;.m z m S S S S S @.%.%.%.&.&.&.%.%.D v l l v v l l l v v b D D -.:.<.<.:.<.2.2.2.,.,.,.,.<.2.2.<.<.<.<.<.:.-./ S S D D D D A v A v v v Z ^ ) ' ' -.' 1.8.1.G.H.F.F.F.F.F..X.XoXoXH.H.oX#XoXH..XH.H.H.H.F.1.^ x g g g d a a r a a h h h a a 3 a a 3 1 , , 1 1 1 1 1 E g 1 a , o 1 w a h d d d c W Q ! X.X.Q W  .` ` X.X.!  ...! _ ~ K g f f f B N N J L L L I ] ] ] [ { { { } } d.d.s.s.j.j.z.c.n.V.I.Q.W.!.7X8X9X9X9XiXiXiXiXpXiXpXaXaXpXpXaXaXaXaXaXaXsXsXsXsXkXkXkXkXkXkXlXlXkXkXkXkXlXlXlXkXkXkXkXkXkXkXkXkXkXkXkXkXkXkXfXsXkXkXkXkXjXjXjXkXjXjXjXjXjXjXjXjXjXjXjXjXjXjXjXsXjXaXaXaXaXaXaXaXaXaXaXaXaXaXaXaXaXaXaXaXaXpXaXiXiXiXpXaXaXiXiXyXtXtXtXtXtXtXtX9XtX9X9X9X9X9X9X9X7X7X7X7X0X0X0X7X7X7X7X7X0X0X7X7X0X0X9X9X9X9X9X9X9X9X9X9X9X9X9X9X9X9X0X0X0X9X0X0X9X9X9X9X0X0X0X9X0X0X0X7X7X",
"n.n.b.b.z.z.z.z.b.b.b.z.z.z.z.z.x.x.x.x.x.x.z.z.z.z.b.b.z.b.n.n.V.V.V.V.V.B.B.B.B.B.Z.Z.I.I.I.U.Q.T.W.W.W.W.!.7X6X7X7X8X8X8XrXrXrXrXrXrXrX8X7X7X7X7X7X7X7X7X!.W.Q.U.I.B.B.n.n.n.z.x.j.j.s.u.i.{ { { [ { { { } u.u.u.h.k.c.M.M.M.M.m.m.m.m.m.n.M.n.z.k.j.d.u.{ [ Y U U Y T T [ [ i.i.i.u.d.d.g.g.j.k.j.k.x.k.k.x.k.k.k.k.k.k.j.j.h.s.u.i.i.[ T Y L P J f p u 9 * = & & & # # @ @ # # # = = = % % = $ $ = = = = = $ = = = = @ @ @ @ @ @ @ . . . . . . . . . . . . . . . @ @ @ @ @ . . @ @ $ $ @ @ @ @ @ @ @ @ @ @ @ @ @ @ @ @ @ @ @ $ $ $ % $ $ $ 5 5 5 5 5 5 5 5 5 5 5 5 5 5 5 5 5 5 5 5 7 7 7 8 8 8 > > ; ; > ; > > > > > 1 9 9 1 9 a 1 9 d E g d d w d g B h d h `  .W d d d e e e C x d x C Q ^ Z W d x e G.2X@X.XD.0.3.,.=.=.=.#.#.%.-.1.( ..nXS.1.1.F.F.XX&XF.{.@X-X>X=X:X:X:X:X:X:X,X,X X[.q.D.+X:X>X:X+X X`.`.e.3.3._.OX+X:X3X>X:X$X+X+XOXOXOX]._.r.r.r.q.2.,.2.0.0.0.0.0.q.9.9.9.9.q.q.q.q.4.2.2.2.2.2.;.2.>.;.;.;.;.;.;.;.;.;.;.;.;.;.;.-.-.*.*.-.-.:.;.-.1.<.<.<.<.<.9.G.F..X.X{.@X$X=X:X=X$XOXOXOXOXOX X X].`.`.`.`._.`.'.'.'.'.0.4.;.S b b b m S S S S S S S S S S D v l k 4 4 4 4 4 4 + + 4 4 4 4 4 v b S / %.-.;.<.2.2.2.2.2.,.;.;.<.2.2.2.<.-.%./ S S D D b b b A v b A A Z D ^ ^ ' -.' ' 1.8.G.F.J.J.F.F.F.F.{..X.XH.H..XoXoXH..XH.H.H.F.G.1.( c c g d d a 1 j a h h a h h h h h a 1 , , 1 1 1 1 w h E d w a , , w a a h g g g c E ! !  . .Q Q ` `  . . .!  .X.! ` ! K B B s f N N N K P L L L ] ] ] [ { { { } } d.d.s.h.j.x.z.n.n.V.P.U.T.W.6X7X8X9X9XiXiXpXpXaXiXpXaXaXaXaXaXaXaXaXaXsXsXsXsXkXkXkXkXkXkXkXkXkXkXkXkXkXlXlXlXkXkXkXkXkXkXkXkXkXkXkXkXkXkXkXsXsXkXkXkXkXjXjXjXkXjXjXjXjXjXjXjXjXjXjXjXjXjXsXsXsXaXaXaXaXaXaXaXaXaXaXaXaXaXaXaXaXaXaXaXaXaXpXaXiXiXiXaXaXiXiXyXtXtXtXtXtXtXtX9X9XtX9X9X9X0X0X0X0X6X7X7X7X7X7X0X0X0X7X7X7X7X0X0X0X0X0X9X9X9X9X9X9X9X9X9X9X9X9X9X9X9X9X0X0X9X9X0X0X0X9X9X0X0X0X0X7X0X7X0X7X7X",
"z.b.b.b.b.b.b.z.n.n.n.b.z.z.z.b.x.z.z.x.x.x.x.z.z.z.b.b.b.b.n.n.V.V.V.V.V.B.B.B.V.B.B.Z.Z.I.U.U.Q.W.W.W.W.W.!.!.!.7X7X8X8X8X9X9XrXrXrX8X9X8X7X7X7X7X7X7X7X7X!.W.Q.U.I.B.V.n.n.n.z.x.j.j.s.u.{ [ [ [ [ [ [ [ { { i.u.h.h.k.c.c.M.M.M.M.M.n.m.M.n.z.k.j.h.u.u.{ [ Y Y Y Y T T [ [ i.i.i.u.s.s.s.f.j.j.j.j.j.k.k.k.k.k.z.k.k.k.j.j.h.s.u.i.i.[ T Y U P J f i u 9 * * * = & # @ @ @ @ # = = = = = = = = $ $ = = = = = = = $ $ @ @ @ @ @ @ @ . . . . . . . . . . . . @ . . @ @ @ @ @ . @ @ $ $ $ $ @ @ @ @ @ @ @ @ @ @ @ @ @ @ @ @ @ $ $ $ $ $ $ $ $ 5 5 5 5 5 5 5 5 6 5 5 5 5 5 5 5 5 6 7 7 7 7 8 8 8 8 > > > * * > > > > > > 1 9 9 9 u a 9 w d C B h h h h h g d d h !  .Q g d e e e e C d d x Z Z ^ Z W x x e 8.2X=XXX'.0.q.2.>.=.=.#.#.%.-.1.X.S./.S.S.S.H.H.XX$XoX@X=X>X>X=X:X:X:X,X,X:X:X,XOX].0.0.=X>X>X>X:X,XOXOX[.0.3.3.3.].=X>X>X>X=X+X+XOXOXOX[._.0.0.r.q.q.,.2.q.0.0.D.0.0.0.9.9.q.q.9.0.q.4.2.2.2.>.;.;.>.>.>.>.;.;.;.;.;.;.;.-.-.-.-.*.-.*.*.%.-.-.-.:.-.1.<.1.<.<.<.9.F.F.{.{.oX@X=X=X=X=X$XOXOXOXOXOX XOX X].`.`.'._.'.'.'.0.e.0.2.%.b z z z z b b m S S b z z z z l k k k 4 4 4 4 + + + + + + + 4 4 4 4 4 k l v D / &.;.,.2.2.<.2.2.2.2.2.<.:.:.:.-.-.%.S S D D D D b A D Z v v v v W ^ ' ' ' 8.G.G.H.H.F.F.D.D.D.F.F..X.XH.H.H.H..XH.H.H.H.G.1.^ c c d h d h 1 1 h h a a a h h h h 1 1 1 1 3 1 3 w a E g a a a a w h h h h g g g c E ` ! ` ` Q Q ` X.X. . .! `  .! ` ! B B B f f N N K P P P L L L ] ] [ { { { } } d.s.s.h.j.k.z.n.n.V.P.U.Q.W.!.7X8X9X9XiXiXpXpXaXiXaXaXaXaXaXaXaXaXaXaXsXsXjXkXkXsXkXkXkXkXkXkXkXkXkXkXkXzXzXkXkXzXkXkXkXkXkXkXkXkXkXkXkXkXfXsXsXkXkXkXfXjXsXkXkXkXjXjXjXjXjXjXjXjXjXjXjXjXsXsXsXsXaXaXaXaXaXaXaXaXaXaXaXaXaXaXaXaXaXaXaXaXpXiXiXiXiXaXaXiXiXtXtXtXtXtXtXtXtX9X9X9X9X9X9X9X0X0XqX5X7X0X7X5X4X6X7X0X7X7X7X7X7X0X0X0X0X0X9X9X9X9X9X9X9X9X9X9X9X9X9X9X0X0X0X0X0X0XqX0X0XqXqX0X0X0X7X7X7X7X7X7X",
"x.x.z.b.n.n.n.b.z.z.z.z.z.x.z.z.z.z.z.x.x.x.x.z.z.z.b.b.b.n.n.n.n.n.V.V.V.V.B.B.V.B.B.Z.I.I.U.U.U.Q.T.W.W.W.W.!.!.7X7X8X8X8X8X8XrXrXrX8X9X7X7X7X7X7X7X7X7X7X!.W.Q.Q.I.B.V.n.n.z.z.x.j.f.s.u.{ [ [ ] Y T ] [ [ [ { i.u.h.h.k.z.z.c.M.M.M.M.M.M.c.c.k.j.h.u.u.{ [ T Y Y [ [ [ [ [ i.i.i.u.u.u.s.f.f.f.f.f.f.j.j.j.k.k.x.k.k.j.j.j.f.s.u.u.i.[ T U U L P J i u 9 > * > * & = @ @ @ @ # = = = = = = $ $ = $ $ = = $ = $ $ @ $ @ @ @ @ @ @ @ . . . . . . . . . . . . @ . . @ @ @ @ @ . @ @ $ $ $ $ $ @ @ @ @ @ @ @ @ @ @ @ @ @ @ @ @ = $ @ @ @ $ $ 5 $ 5 5 5 5 5 5 6 6 5 5 5 5 5 5 5 6 6 7 7 7 7 7 8 8 9 > > > > > > 8 8 > > ; ; > 9 a u 1 9 a g g g d h h d h d d g w Q ` W c d e e e e Z x d C Z C ^ Z W x d 4 1.2X3X&X'.0.q.3.>.=.=.&.#.S / -.X.(.(.(.S.S.F.@X@XoX=X-X>X>X>X>X=X$X:X+X+X,X,XOXOX+X'.'.2X2X:X>X:X:X,X,XOX].[.3.>.3.+X>X>X>X=X$XOXOX].OX_.r.q.0._.q.2.2.2.2.q.0.0.D.0.0.9.0.9.9.9.q.4.2.2.>.>.>.;.;.;.;.;.;.;.;.;.;.;.;.;.;.-.-.-.*.-.-.*.%.*.-.-.-./ -.1.1.9.<.<.9.F.F.{.{.@X$X=X$X$X$X$X$XOX].}.OX].].].[.`.`._._._._.'.0.0.q.;.S S l z b m m b m b b z l k k l l v l l 4 4 4 4 + 4 + + + + + 4 4 4 4 + 4 4 4 k x v b / :.;.;.<.2.4.2.2.2.2.2.2.<.2.:.-.-.-.%./ / ) D Z v v v v x Z Z ^ ( ' 1.G.F.F.D.D.D.D.D.F..XF..X.XH.H..X#X#XH.H.H.H.F.1.^ c h h d c g w 1 u 1 a a h j , + - 1 1 a a a w w a a ! g 1 a w h h g d h d c c g g E ` ! ( ` W Q ` X.X. . .! !  .` ` ! g B B B B B K P P K K P L L I ] [ { [ { } d.d.d.s.h.j.j.z.n.n.V.P.U.Q.W.W.7X9X9XiXiXiXiXpXaXiXaXaXaXaXaXaXaXaXaXaXsXsXjXkXkXsXkXkXkXkXkXkXkXkXkXzXzXzXkXkXkXzXzXkXkXkXkXkXkXkXkXkXkXkXsXjXsXkXkXkXfXfXsXkXkXkXkXjXjXjXjXjXjXjXjXjXjXjXsXsXsXsXsXaXaXaXaXaXaXsXaXaXaXaXaXaXaXaXaXaXaXaXaXaXiXiXiXaXiXiXtXtXtXtXtXtXtXtXtX9X9X9X9X9X9X9X9X0X6X5X7X0X7X4X4X4X6X0X7X7X7X5X7X7X0XqXqX0X0X9X9X9X9X9X9X9X0X9X9X0X0X0X0X0X0X0X0X0X6XqX6X5X5XqX0X0X6X7X7X6X7X7X",
"z.b.b.b.n.n.n.b.b.b.z.z.z.z.z.z.z.z.x.x.x.x.z.z.z.z.z.n.n.n.n.n.n.n.n.V.B.B.B.B.V.B.Z.I.I.I.I.U.U.Q.W.W.W.W.!.7X7X7X7X8X7X7X7X9X8XrXrXrX8X8X8X7X7X7X7X7X7X7XW.W.U.U.U.B.n.n.n.n.z.k.h.s.u.u.{ [ Y Y Y Y Y Y ] [ { } u.d.h.j.x.b.c.c.c.M.M.M.z.z.x.j.h.s.u.i.{ [ T [ [ T T T [ [ i.i.i.u.u.d.f.f.f.f.f.f.f.f.k.k.k.k.j.j.k.k.j.f.f.s.u.i.i.[ T U U L J f s u u > > * = = & & # @ @ @ @ @ = $ = $ $ $ $ $ $ $ = $ % = $ $ # # @ @ @ . @ . . . . . . . . . . . X . . . . . . @ @ @ @ @ # # @ @ $ $ $ $ $ $ $ $ $ $ @ @ @ @ @ @ @ @ $ $ = $ $ $ $ $ $ $ $ 5 5 5 5 5 5 5 5 6 6 7 7 7 q 7 6 6 8 9 9 7 8 8 1 1 9 8 8 > 9 9 1 > ; 1 > ; 1 9 w a B C a d g d h w h d d g d C Q W c d e e e e x C c Z Z x Z ^ Z x d + ' 2X=X&X|.0.q.3.>.=.=.$.#.%.S ' 1.S.X.S.S.G.H.#X@X=X>X-X-X=X=X=X:X:X$XOXOX+XOXOXOXOX=X>X2X>X:X:X,X+X,X:X:XOX X[.3.&.e.+X:X>X>X=XOX+XOXOX]._.r._.r.0.3.,.,.2.q.q.q.2.q.0.D.0.0.0.0.9.4.2.2.;.>.2.>.;.;.;.;.;.;.*.*.;.;.;.;.;.*.*.*.-.-.*./ %.%.-.-.-.' 1.<.1.1.8.9.9.F.{.{.XX@X$X$X$X=X$X$XOXOXOXOXOXOX].].].].`.'._._._.`.e.0.0.;.S m b b m S S b b M b l k l l l l v b e 4 4 4 3 Z g - O + + - 3 - 3 3 3 e e - 3 3 e l v v S %.;.>.2.2.2.2.2.;.,.2.<.<.:.:.<.:.-.-.-./ / / / / ) D ) ) ' ' 1.8.9.9.D.D.D.D.D.'.F.F..X.X.XF.H.#X#X#XH.#XH.H.F.1.( c d h h ! W , 1 1 1 1 1 1 1 1 1 1 1 1 1 a h h a a E E a a a h h d d g a a c c g E !  .! ! Q W W ` X... .` ` !  .` _ ! B B B B s B N K K K P P P I I ] ] [ { { i.u.d.d.s.j.j.j.z.n.n.n.P.Q.W.W.!.!.9X9XrXuXtXiXiXpXaXaXaXpXaXaXaXjXaXaXaXjXjXkXjXkXkXkXkXkXkXkXzXzXkXkXkXkXkXkXkXkXlXlXzXzXkXkXkXkXkXkXkXkXkXkXkXkXkXkXkXjXkXkXkXkXkXkXjXjXjXjXjXkXjXjXjXjXjXjXjXjXaXaXaXaXaXaXaXaXsXaXaXaXaXaXpXiXaXaXaXaXaXaXpXpXiXiXiXiXiXyXtXtXtXrXrXrXrXrXrX9X9X7X7X7X0X0X7X6X6X5X5X4X5X6X6XqXqX0X0XqX6X6X0X0X0X0X0X0X9X0X0X0X9X9X9X9X9X9X0X9X0X0X0X0XqX6X5X5X5X5X5X6X6XqXqXqXqX7X6X7X6X",
"z.z.z.b.b.b.b.b.b.b.z.z.z.z.z.z.z.z.x.x.x.x.z.z.z.z.z.n.n.n.n.n.n.n.V.V.B.B.B.B.B.B.B.P.Z.I.I.U.I.U.U.Q.T.W.W.!.7X7X7X8X7X7X7XrXrXrXrXrXrX8X8X8X7X7X7X7X7X7X!.W.U.U.U.B.n.n.n.n.z.x.h.s.u.u.{ [ ] Y U U U U U Y ] [ } u.u.h.j.x.z.c.l.c.z.c.c.z.x.j.h.s.u.i.{ [ [ [ [ T T T T [ i.i.i.i.u.u.f.f.f.g.g.g.f.g.f.f.f.f.j.j.j.j.f.f.u.u.u.i.i.[ T Y U L J f p p u 9 > = & & = & @ @ # # @ $ $ $ $ $ $ $ $ $ $ $ $ = $ $ $ $ $ $ @ @ @ . @ . . . . . . . . . . . X . . . . . . . @ @ @ @ @ @ @ @ $ $ @ @ $ @ $ $ @ @ @ @ $ $ $ $ @ @ @ $ # # $ $ $ $ $ $ $ 5 5 5 5 5 5 5 5 5 6 7 7 q q 7 6 6 8 8 7 9 9 9 9 9 9 9 9 1 > 1 > ; ; ; ; & , 1 1 s C d a a h h h e d g d d d C Q Q C d e w e w d Q Z C C Z Z Q Q c d + ( mX<X=X|.0.q.3.,.>.=.=.@.n %.<.8.H...S.S.G.%X=X=X2X3X1X=X=X>X=X$X$XOXOXOXOXOXOX+X&X>X>X>X:X$X$X,X+X,X,X:X,XOX Xr.3.>. X:X3X>X=X$X,XOXOX X_._._.r.0.3.2.,.>.>.,.2.2.0.D.'.D.G.G.0.9.q.2.2.2.2.2.>.;.,.;.;.;.;.;.*.%.;.;.;.;.*.*.*.*.%./ / / / / / / -.1.1.<.9.G.D.D.D.{.{.oXXX$X$X$X=X=X$XOXOXOXOX].].].].].].`.'.'.].[.].).0.4.&.S S S D D S b b b b M k l l l l l v D x 3 3 e W 8.X.c a h h h C W c c g W ( W c e 3 x v v l z m %.%.&.;.;.2.2.<.;.:.<.:.:.<.1.1.1.1.-.-.-.%./ %.' / / ' ' -.1.8.9.9.9.9.0.D.'.D.D.'..XH.H.H.H.#XH.H.H.H.H.H.8.( C d h h Q E 1 a a a j 1 1 1 1 1 1 , 1 1 a h h h a g g a a h h h d h d a a c c c Q ( ( Q ! ! E Q  . ... .` ` Q ` ` ! ! B B B B s B N P K K P P P L I ] ] [ [ } u.u.d.d.s.s.j.j.x.z.n.n.P.U.T.W.W.W.7X9X9XrXtXiXpXpXaXaXaXaXaXaXaXjXaXaXaXjXjXkXjXkXkXkXkXkXkXkXzXzXkXkXkXkXkXkXkXkXlXlXzXzXkXkXkXkXkXkXkXkXjXkXkXkXkXkXkXjXkXkXkXkXkXkXjXjXjXjXkXkXjXjXjXjXjXjXjXjXaXaXaXaXaXaXaXaXaXaXaXaXaXaXaXpXpXpXpXpXaXaXaXaXyXiXiXiXiXtXtXtXrXrXrX7X9X9X9X7X7X7X0X0X0X0X7X6X5X5X4X4X4X5X6X6XqXqXqX6X6X6X0X0X0X0X0X0X0X0X9X0X9X0X0X0X0X0X0X0X0X0X0XqX6X5X5X5X6X6X6X6X6X6X6X6X6X5X5X5X5X",
"x.z.z.z.b.b.b.z.b.b.b.b.z.z.z.z.z.z.x.x.x.x.z.z.z.z.n.n.n.n.n.n.n.n.V.V.B.B.B.B.B.B.B.B.B.Z.I.U.U.U.Q.W.W.W.!.!.7X!.7X8X7X7X7XrXrXrXrXrXrX9X8X8X8X7X7X7X7X7X!.W.Q.U.I.B.V.n.n.n.z.j.h.s.u.i.[ ] ] U L L L L L U ] ] [ } u.s.h.j.z.z.x.z.z.z.z.x.j.j.h.d.u.{ { { [ [ [ [ [ [ T T [ i.i.i.i.u.u.u.d.g.f.g.f.f.f.f.f.f.j.k.k.j.f.f.u.u.u.i.i.[ T Y U L J H f i u u > > = = = & # @ # = = = $ @ @ $ $ $ $ $ $ $ $ $ $ $ @ @ $ @ @ @ @ @ @ . . . . . . . . . . . . . . . . . . . @ @ @ @ $ $ @ @ $ $ @ @ @ @ @ @ @ @ @ $ @ @ $ @ @ @ @ $ $ # $ $ $ $ % $ $ 5 5 5 5 5 5 5 5 5 7 7 q q 7 6 6 8 8 8 9 9 9 9 9 9 9 8 9 9 > 1 1 ; ; ; > & > 1 1 h g w w w h h e w h g d e d c Z W W C e w e e x Z W Z C Z C W ( Z d 3 A -X<X&X|.'.0.w.,.>.=.#.#.#.@.:.<.F.1.1.8.H.=X=X:X3X>X=X=X=X=X=X$XOX}.OXOXOXOXOX=X>X>X>X>X=X=X$X$X=X=X=X:X:X,X,X Xr.%.).3X>X=X=X$X$XOXOXOX X X`._.0.3.q.3.>.;.;.2.q.0.0.0.0.9.0.9.q.q.2.2.2.2.2.<.;.,.;.;.;.;.;.;.*.;.;.;.*.%.%.%.%.%.%.%./ / / / -.1.1.<.2.9.G.D.D.D.{.{.XX$X$X$X$X=X=X$XOXOX X].].].].[.].`.`.'.'._.`._.0.0.4.%.%.%./ / S S S m m b z M l l l v v ) ) e 4 3 3 d ( c a h W W c d g c E c ( S.1. .C e e e l l v b b b S %.-.;.<.<.;.:.:.:.:.<.<.:.1.<.1.1.-.) ) ) ) / ' ' ' ' 1.8.9.9.9.0.D.D.'.D.D.F.{..XH.#X#X#XH.H.H.H.J.H.S.Q E d h d E g 1 3 a h a a j 1 < 1 1 , 1 3 a h g g h h d h h d h d d d d h a d g c W ! Q Q  .X.E ! ! ` X. .` ` E ! ! E ~ B B B B s B N K K K P P P L I Y ] ] [ } u.d.u.d.d.s.j.j.x.x.n.n.P.U.Q.W.W.W.7X7X9XrXtXiXpXpXaXaXaXaXaXaXaXjXaXaXaXjXjXkXjXkXkXkXkXkXkXkXkXzXkXkXkXkXkXkXkXkXxXlXlXkXkXkXkXkXkXkXkXjXjXkXkXkXkXkXkXkXjXkXjXjXkXkXkXkXkXkXkXkXjXjXjXjXjXjXjXjXsXaXaXaXaXaXaXaXaXaXaXaXaXaXaXaXiXiXiXiXiXyXiXiXtXtXyXtXyXtXtXtXrXrX7X7X9X9X9X7X7X7X0X7X7X0X6X6X4X4X4X4X4X4X5X6X6X6X6X6X5X6X6X0X6X0X0X0X0X9X9X9X0X0X0X0XqXqX0X0X0X0XqX6X6X5X5X5X6X6X6X6X6X5X5X4X5X5X5X5X4X",
"z.z.b.b.b.b.b.b.b.b.b.b.b.z.z.z.z.z.x.x.x.z.z.z.z.z.z.n.n.n.n.n.n.n.V.V.V.V.B.B.B.B.B.B.B.Z.I.U.U.U.W.W.W.W.!.!.!.!.7X8X7X7X7X9X8X8X8X8X8X8X7X7X8X8X7X7X7X7X!.W.W.Q.I.B.V.V.n.z.z.j.s.u.u.{ [ Y Y U P P P L L L U ] [ } u.u.s.h.k.k.k.z.z.x.x.x.j.j.h.d.u.{ { { [ [ [ T [ [ T T [ i.i.i.i.i.u.u.i.u.u.d.d.u.d.d.f.f.j.k.j.j.f.s.u.u.u.i.i.[ [ Y U L P J f p p u 8 > = = = & # # # # # = = $ $ $ $ $ $ $ $ $ $ $ @ @ @ @ $ @ @ @ @ @ @ . . . . . . . . . . . . . . . @ . . . @ @ @ @ @ @ @ @ @ $ @ $ $ @ @ $ $ @ @ @ @ $ $ @ @ @ @ $ # $ $ $ $ $ 5 $ $ 5 5 5 6 6 5 5 7 7 q q q q 6 8 7 7 9 9 9 9 9 8 9 8 > 8 1 1 1 1 ; ; ; ; > & & 1 1 a a 1 w w a h e w h d d d h d x Z Q W d e e d d d c Q W c c C ( Q x e e G.<X&XoX|.'.q.2.>.=.#.#.@.S <.<.<.<.9.D.&X=XOXOX+X&X$X+X+X$X+XOXOX}.OXOXOX+X+X=X3X>X>X>X>X:X=X$X$X:X=X:X:X:X,XOX].&.0.:X>X=X-X:XOXOXOXOX X X X_.e.0.q.q.3.,.,.2.q.q.q.q.4.2.4.4.2.q.2.>.>.<.;.;.;.;.;.;.;.;.;.;.;.*.*.*.*.%.%./ ) *.%./ / / -.-.<.<.<.2.9.G.G.G.G.F.{.oXOX$X$X$X=X=X=X$XOX}.].].[.[.[._._.`.`.'._.).).0.0.0.2.%.%.%.%.%.%.%.S b b l b m v k l m m ) ) k 4 e 3 3 3 + O O + - 3 3 3 h c d Q 1.S.1. .W d 3 4 x m m b v l b S %.;.;.,.:.:.:.:.<.<.<.<.1.-.-.-.-.-.-./ -.-.' ' -.1.<.9.9.G.D.'.'.'.D.D.{..XXX#X#X%X#XH.#XH.H.F.F.S.W W g d g c d a 1 a a h g h j 1 1 1 , 3 a h d g g h h g g h d h g g c d h a h d c C Q W Q X.X.W ! ! ! X. .` ` E Q ! B B B B B B B B N K K K P P L L L Y ] ] [ { u.u.u.d.d.s.j.j.x.x.z.n.B.U.Q.T.W.W.!.7X8X9XrXiXiXpXpXaXaXaXaXaXaXjXaXaXjXkXjXkXjXkXkXkXkXkXkXkXkXkXkXkXkXkXkXkXkXkXlXlXlXkXkXkXkXkXkXkXkXkXkXkXkXkXkXkXkXkXjXjXjXjXkXkXkXkXkXkXkXkXjXjXjXjXjXjXjXjXjXjXjXjXjXjXjXjXaXaXaXaXaXaXpXiXiXiXiXiXyXiXtXtXtXtXyXyXyXtXtXtXrXrXrX7X9X9X7X7X0X7X7X7X7X6X6X4X4X4X4X4X4X4X4X5X5X6X6X5X4X5X6X0X5X5X5X0X0X0X0X9X0X0X0X0X0X0X0X0X0XqX6X5X5X5X5X5X6X6X6X6X5X4X4X4X5X5X4X4X4X",
"z.b.b.b.b.b.b.b.b.b.b.b.b.z.z.z.z.x.x.x.x.z.z.z.z.z.z.n.n.n.n.n.n.V.V.V.V.V.V.B.B.B.B.B.B.Z.I.U.I.U.U.W.Q.W.W.!.!.!.7X7X7X7X7XrXrX8X8X8X7X7X7X7X8X8X7X7X7X!.W.W.W.T.U.B.V.V.n.z.x.j.s.u.i.{ ] U U L P J P P P L L U ] [ { i.u.u.h.j.j.x.x.k.k.j.j.j.j.d.u.{ { { [ [ T T T T T T [ i.i.i.i.i.i.i.i.i.u.u.u.u.u.u.f.f.f.f.f.f.f.u.d.u.u.i.i.[ [ Y U L P J G f p p u 8 > = = & & # # # # = = = = = $ $ $ $ $ $ $ $ $ $ $ $ $ $ @ @ @ @ @ @ @ . . . . . . . . . . . . . . . . . . @ @ @ @ @ @ @ @ $ @ $ $ $ $ $ $ $ $ $ $ $ $ $ $ $ @ $ $ # $ $ $ $ 5 $ 5 5 5 5 6 7 7 7 7 7 q 9 9 9 9 9 8 7 9 9 9 9 > > > > > > > 1 1 ; & & & & & & & ; 9 1 1 a w w w w w h d d d d e h e c W W c d d e e e c Z C C C x ( ^ x d 4 ' 1X-XXXoX'.0.0.,.&.#.#.#.#.%.S <.D.oX$X=X+XOXOXOXoXOXXXoXOXOXOXOX+X+XOXOX+X,X:X>X>X>X>X>X=X=X=X:X:X$X+X:X:X,X,X[.>.3.:X:X>X=X:X$X+X+XOX X X`._.e.t.q.q.3.3.3.3.q.q.q.q.q.9.9.2.2.q.2.<.;.;.;.;.;.;.;.>.;.;.;.;.;.%.%.%.%.%.%.*.*.%.) / %.-.<.<.9.9.9.9.D.D.D.D.D.{.{.XX@X$X=X=X=X$X$X$XOX].`.`._._._._._._._.'.'._.'.0.4.4.;.%.%.%.%.%.%.%.S b l M l b l k l m m m ) x e e e e 3 + - 3 3 w e d e d h e W 1.1.S.1.1.` c e e l v b D b k l m %.;.;.;.<.:.:.<.<.<.<.1.-.-.1.1.1.1.-.-./ / ' ' -.-.:.9.0.D.'.'.D.{..X.XoXXX#X%X%X#X#X#XH.H.F.F.8.E W E g g g h h a a 1 a h h h a 3 3 3 a h d g g g h h d g d d h E c c d h h d c E C Q Q W  .` Q ` ` ` X.X. .` E Q ! B B B d s B B s N B K P L P L I L Y ] [ { { } i.u.d.d.s.s.j.j.j.z.n.V.I.U.T.W.W.6X7X7X9X9XrXtXiXiXaXaXaXaXaXaXjXjXjXkXkXjXkXkXkXkXkXkXkXkXkXkXkXkXkXkXkXkXkXkXkXlXlXkXkXkXkXkXkXkXkXkXkXkXkXkXkXkXkXkXkXkXkXjXjXjXjXjXkXkXkXjXjXkXkXjXjXjXjXjXjXjXjXjXjXjXjXjXjXaXaXaXaXpXpXaXyXaXaXaXiXyXiXtXtXtXtXtXtXtXtXtXtXtXtX9X9X9X9X0X0X0XqX6X6X6X6X4X4X4X4X4X4X4X4X5X5X4X5X5X4X4X4X5X6X6X6X6X6X0X0X0X0X0X0X0X0X0X0X0X0X6X6X6X5X4X4X4X6X6X5X5X5X5X5X5X5X4X6X4X4X4X",
"z.z.b.b.b.b.b.b.b.b.b.b.b.z.z.z.x.x.x.x.x.x.z.z.z.z.n.n.n.n.n.n.n.V.V.V.V.V.V.B.B.B.B.B.B.Z.I.U.U.U.U.W.Q.W.!.!.!.!.7X7X7X7X7X8XrXrX8X8X8X8X8X8X8X8X7X7X7X!.W.W.W.W.U.B.V.n.n.z.z.j.h.u.i.[ ] U U P J J J J P L L U ] [ { } u.u.d.s.j.j.j.j.j.h.j.j.s.d.u.{ { { [ [ T T Y T T [ [ i.i.i.i.i.i.i.i.i.i.u.i.i.u.u.u.d.f.f.f.f.s.s.u.u.u.i.i.[ [ Y U L P J J f f p i 9 > > = = & # # # = # = = = = @ @ $ $ $ $ $ $ $ $ = = = $ $ $ @ @ @ @ @ @ . . . . . . . . . . . . . . . . @ @ @ @ @ @ @ @ @ $ $ $ # # # # $ $ @ $ @ @ @ $ $ @ @ $ $ $ @ $ $ = $ $ 5 5 5 5 6 q q q 9 q 9 0 9 9 9 9 8 8 9 9 9 8 8 8 1 > > > 1 1 1 ; & & & & & & & 1 a , ; a ; 1 9 9 w h d d d c h e e d c C c d d e e d x C C C C x Q Q x d 4 Z #X<X&XXX|.'.'.q.=.#.#.#.S S %.|.=X=X+X+XOXOX+XOXOXOXOXOXOX XOXOX+XOXOX X+X:X:X3X2X>X>X=X=X=X:X>X$X+X+X:X,X,XOX[.>.,.:X>X>X=X:X,X,X+XOX X X`._.r.t.t.q.3.q.q.q.q.q.q.q.q.q.q.9.q.q.2.2.<.;.;.;.;.*.;.;.;.;.;.;.;.-.-.*.-.%.%.%.%.) / -.<.9.G.G.9.9.9.G.D.{.D.D.{.{.oX@X$X$X$X=X=X$X$XOXOX].`._._._._.r._._._._.'._.).0.4.2.;.%.%.%.%.%.%.%.S b z b l M l l l v v v D x 4 4 e e e e e e e e e x x x d d ( S.S.S.S.S.1.` Z e 4 k v D D b k k b %.;.;.,.,.:.:.<.:.:.<.<.4.<.1.-.-.-.-.-.-.-.-.:.:.:.9.0.D.D.D.D.{..XoXoXXXXX#X#X#X#X#XH.H.F.F.1.E E E g g h h h h a j r j a h d h a a h d g c C c d d g g g d d C c c d h d g C E c E Q Q ` ! ! ! ` `  . .X.` C ~ ! B s B s 0 B B B N K K P L L L I I ] { { { { i.u.u.d.d.d.s.s.j.j.z.n.n.B.U.Q.W.6X6X7X7X7X9X9XrXtXiXpXpXaXaXaXaXjXkXkXkXkXkXkXkXjXkXkXkXkXkXkXkXkXkXkXkXkXkXkXkXkXkXkXkXkXkXkXkXkXkXkXkXkXkXkXkXkXkXkXkXjXkXkXjXjXkXkXkXkXkXkXkXkXkXkXkXkXjXjXjXjXjXjXjXjXaXaXaXaXsXaXaXaXaXaXaXiXpXpXaXiXyXyXtXtXtXtXtXtXtXtXtXtXrX9X9X9X0X0X0X0X0XqX6X6X6X6X4X4X4X4X4X4X4X4X4X4X4X4X4X4X4X4X5X6X6X6X6X6X5X0X6X6X6X0X0X0X6X6X6X6X6X6X5X4X4X4X4X6X4X4X4X4X5X5X5X5X4X4X4X4X4X",
"z.z.b.b.b.b.b.b.n.b.b.b.b.b.z.z.x.x.x.x.x.x.x.x.z.z.n.n.n.n.n.n.n.V.V.V.V.V.V.B.B.B.B.Z.Z.P.I.U.U.U.U.U.T.W.!.7X!.!.7X7X7X7X7X8XrXrX8X8X7X7X7X8X8X7X7X7X7X7XW.W.W.W.U.B.n.n.n.z.x.j.s.u.} [ ] U L P J J H J J P L L U ] [ { u.u.u.s.h.j.j.h.h.j.j.j.g.s.u.i.{ { [ [ [ T Y T T [ [ [ [ T T i.i.i.i.i.i.i.i.i.i.i.u.u.f.f.f.f.f.f.u.u.u.i.i.[ [ T U U L P J J f p i i 8 > > = & # % # = = = # = $ @ $ $ $ $ $ $ $ @ $ = = = @ @ = @ @ # @ @ @ @ . . . . . . . . . . . . . . . @ @ @ @ @ @ @ @ $ $ @ $ $ $ $ $ $ $ @ @ $ $ @ @ @ @ @ @ $ @ @ $ $ % $ % 6 6 6 5 7 q 9 9 0 0 0 0 9 9 9 9 9 9 9 9 9 9 9 9 9 1 > > > > 1 ; ; ; , & & & & a 9 ; 1 1 - & 1 w w h d d g c d e e h h c C h w e h h d C W c x x Q W d e e e 8.-X*XXXXXoXOX`.3.&.@.@.#.r.:X3X:X:X+X+X,X+X:X,X=X=X=X+XOXOX X XOX]. XOX+X:X:X3X>X>X>X=X=X:X:X=XOX+X=X:X,X,X}._.>.>.,X>X>X=X:X:X,XOXOXOX X`._._.r.e.t.q.q.q.q.q.q.q.q.q.q.q.q.q.q.q.4.2.2.<.;.;.;.;.;.;.;.<.;.;.;.:.-.-.%.%.%.*.-.;.<.G.D.F.D.D.D.D.D.D.D.D.{.{.oXXX$X$X$X$X$X=X$X$X$XOX].`._.r.r.r.r._._._._._.r.0.0.q.2.<.-.%.%.%./ %.%.%.S S ) m v v b v v b v b x l k e l e e e x x x x x x x d Z 1.G.S.G.S.8.1.1.' v e 4 k l D S b l k b %.%.:.;.;.;.<.:.<.4.2.4.2.<.<.<.8.9.4.<.<.9.9.9.9.D.D.D.D.D.{..X.XoX.X{.H.H.H.#X#XH.H.H.H.G.' W W W c h h a a h a a j 3 a h d d h d h d g c C C C C C g g h g C c C c d h d c c c C W ! ! ! ! ~ `  .`  .X.` C ~ E g s B s 9 s B B N N K P L L L I Y ] { { { { u.u.d.d.d.d.s.g.j.j.z.z.M.B.I.U.T.W.6X6X6X7X0X9XrXtXiXiXpXaXaXaXaXaXkXkXkXkXkXkXkXkXkXkXkXkXkXkXkXkXkXkXkXkXkXkXkXkXkXkXkXkXkXkXkXkXkXkXkXkXkXkXkXkXkXkXkXjXkXkXkXkXkXkXkXkXkXkXkXkXkXkXkXkXjXjXjXjXsXjXjXaXaXaXaXaXaXaXaXaXaXaXpXpXpXaXaXiXiXtXtXtXtXtXtXtXtXtX9X9X9X9X9X0X0X0XqXqXqXqXqXqX6X6X4X4X4X4X4X4X4X4X4X4X4X4X4X4X4X4X5X6X6X6X6X6X5X5X5X5X6X6X6XqX6X6X6X5X6X5X4X4X4X4X4X6X4X4X4X4X4X4X4X5X4XW.W.W.W.",
"b.b.b.b.b.b.n.n.n.b.b.b.b.b.z.z.z.z.z.x.x.x.z.z.z.z.z.n.n.n.n.n.n.V.B.V.V.V.V.B.V.B.Z.P.P.I.I.U.U.U.U.U.U.Q.W.!.7X!.7X7X7X7X7X8X8X8X7X7X7X7X7X7X7X7X7X7X7X7X7XW.Q.T.U.B.n.n.n.z.k.j.s.u.{ [ ] U L P J H H H J J P P L U ] [ } u.d.s.h.h.h.h.j.j.j.j.g.s.d.u.{ { [ [ [ [ T Y T T T [ T T T T i.T i.i.i.i.i.i.i.i.i.u.u.u.u.u.u.s.u.u.u.i.i.i.[ T Y U L P P J G f p i u 8 > > = & = = = = # # = = @ $ $ $ $ $ $ @ @ $ = = = @ @ = # # # # # @ @ . . . . . . . . . . . . . . @ @ @ @ @ @ @ @ @ $ # @ @ $ $ $ $ $ $ @ @ @ @ @ @ @ @ @ @ @ @ @ $ = % $ % 6 6 6 5 6 9 9 9 0 0 0 0 0 9 9 9 9 9 9 9 9 9 9 9 9 9 > > ; > ; & & ; , & & & & a ; & 9 ; ; ; ; w h h d d h e c h e h 3 d C e e 3 e h d Z Q c x x Q Q d e e 3 ' #X*XXX+XOX+XOX_.q.,.[.3X3X,X:X,X:X,X,X,X+X,X:X+X,X+XOXOX X X X_._. X,X:X:X3X:X>X>X>X=X:X>X:XOXOX$X:X:X,X,X}._.>.&.OX:X>X>X>X$X+XOXOXOXOX|.`.`.r.t.e.e.q.3.3.3.q.q.q.q.q.q.q.0.9.0.0.4.4.4.2.<.2.2.2.<.;.:.:.:.:.:.:.-.-.-.;.;.4.9.G.D.F.D.F.{.D.D.D.D.D.'.oXoXoXoX$X$X$X$X$X=X=X$X$XOX X]._.r.r.r.r._._._._._._.0.'.q.2.<.-./ %./ / / / / S S S S m b b b b ) S ) v l k 4 e l e l x l x x x c x c ( G.G.S.G.S.S.8.1.1.) l 4 k l l D / D k k b S &.;.;.,.2.2.q.9.<.<.<.<.9.G.G.D.0.9.2.<.<.9.9.D.0.0.0.D.|.XXXX.X{.F.F.F.H.#X#X#XH.F.F.G.' W W E E g h h a h a a a a a a h d d g d h g c c C E C C d g h c W Z c c d h d c c c E E ! W ! ~ E  .X.`  ...` B ~ E s 9 B s 8 0 s V B N B P L I I Y Y [ { { { { u.u.d.d.d.d.s.g.j.j.z.z.M.m.B.I.T.W.6X6X6X6X7X9XtXtXyXiXpXaXaXaXaXaXkXkXkXkXkXkXkXkXkXkXkXkXkXkXkXkXkXkXkXkXkXkXkXkXkXkXkXkXkXkXkXkXkXkXkXkXkXkXkXkXkXkXkXjXkXkXkXkXkXkXkXkXkXkXkXkXkXkXkXkXkXjXjXjXjXjXjXjXsXjXaXaXaXaXaXaXaXaXaXaXiXiXiXiXtXtXtXtXtXtXtX9X9X9X9X9XtX9X9X0X0X0XqXqXqXqX6XqXqX6X4X4X4X4X4X4X4X4X4X4X4X4X4X4X4X4X5X6X6X6X6X5X5X5X5X5X6XqXqXqX6X6X5X5X6X5X4X4X4X4X4X4X4X4X4X4X4X4X4X4XW.W.W.W.W.",
"b.b.b.b.n.V.n.b.b.b.b.b.b.b.z.z.z.x.x.x.x.x.x.x.z.z.z.n.n.n.n.n.V.V.n.n.n.V.B.B.B.B.B.I.I.I.U.U.U.U.U.U.Q.Q.R.T.!.!.7X7X!.6X7X8X8X7X8X8X8X7X7X7X7X7X7X7X7X!.W.W.W.Q.I.B.V.n.z.z.x.j.s.u.{ ] U L P J H H H H H J P P L U ] [ } u.u.u.s.j.j.g.f.j.s.s.d.d.d.u.{ { [ [ T T T T T T T T T T T T T T a.a.i.i.i.i.i.i.i.u.u.f.f.u.u.u.u.i.i.i.i.i.[ [ T Y U L L P J H p p u u 8 > = = = = = = = = = = $ @ @ $ $ @ @ $ $ $ @ = = = = = = = = # # @ @ @ . . . . . . . . . . . . . . . . @ @ @ @ @ @ $ $ $ $ $ $ $ $ @ $ $ $ $ $ @ @ @ @ $ @ @ @ @ $ = = % % 6 6 6 7 7 7 9 9 9 9 0 0 0 0 9 9 9 9 9 9 u u 9 9 9 9 1 > > & , & & & & & & = ; a & , ; & ; ; ; ; w h d h w e h h h h e h h h w w e w e d c c Z Z Z Z c c e e x 8.*X@X@X=X+X+X|.OX:X3X:X:X:X:X:X,X,X:X:X,X+X+X,X,XOX XOX X`.OXq.[.OX,X:X:X:X:X>X>X=X:X:X=X=X=X:X:X=X:X,XOX].e.=.&.}.:X>X=X>X=X,X+X+XOXOX X].[.).r.e.e.t.q.3.3.3.3.3.q.q.q.q.q.0.0.9.9.q.9.4.2.2.2.<.<.2.2.:.:.;.;.;.;.-.-.;.2.D.D.D.D.{.'.{.D.'.'.'.D.D.'.{.oXOX$X$X$X$X$X$XoXOX$X,X+X].`._._.t.r._._._.r._._.0.).0.q.2.:.-.%.%.%./ D S ) ) S %.S S S S m m S ) ) ) D v k 4 k k x x x x c x d c  .S.G.G.G.S.S.G.8.1.-.) l k k 4 k v D D v l l b @.;.:.:.,.2.q.9.9.<.<.9.G.D.D.G.2.2.9.9.<.2.w.2.2.0.'.`.OXoXD.G.G.G.G.F.H.F.H.H.F.F.G.1.( W W E E E g g g h g h a h h a h h d e c g g g d c C W c h d d c c E W g h d g d d d C W E E ! Q W  . .` X.X.! C ` C s 0 s B 9 9 s s i N N K P I I Y [ [ { { { i.u.d.u.d.d.g.g.g.j.j.x.z.b.m.B.B.I.T.6X6X7X7X0X7XrXtXtXyXaXaXaXaXaXaXjXjXaXkXjXkXkXkXjXkXkXkXjXjXkXkXkXkXkXkXkXkXkXkXkXkXkXkXkXkXkXkXkXkXkXkXkXkXjXsXkXkXkXkXkXkXkXkXkXkXkXkXkXkXjXjXjXkXkXkXkXjXjXjXkXjXjXaXjXaXaXaXaXaXaXpXpXpXaXaXiXiXiXyXyXtXtXtXtXtX9X9X9X9X9X9X9X0XqXqX0X9XqX5XqXqX5X5X4X4X4X4XT.T.T.T.T.4X4X4X4X4X4X4X4X4X4X4X6X5X5X6X6X6X6X6X5X5X5X5X5X5X6X6X4X4X4X4X4X4X4X4X4X4X4X4X4X4X4X4X4XW.W.W.Y.",
"b.z.b.b.b.b.n.b.b.b.b.b.b.b.z.z.z.x.x.x.x.x.x.x.z.z.z.n.n.n.n.n.V.V.n.n.n.V.B.B.B.B.B.P.I.I.I.U.I.U.U.Q.W.W.T.T.!.!.!.!.6X7X7X9X8X7X8X8X8X8X7X7X7X7X7X7X7X6X!.W.T.U.I.B.B.n.n.z.x.j.s.u.{ [ Y U P J H H H H H J J P L U ] ] } u.u.u.d.h.j.s.s.j.s.s.d.u.u.u.i.{ [ [ T T T T T T T T T T T T T T a.a.a.a.i.i.i.i.i.i.i.i.u.i.i.u.d.u.i.i.i.i.[ T [ Y U U L L P J J f p u u 8 > = = = = = = = = = = $ @ $ $ @ $ $ $ $ = = = = * * * = = # # @ @ @ @ . . . . . . . . . . . . . . . @ @ $ $ @ @ $ $ $ $ $ $ $ $ $ $ $ # # # $ @ @ @ $ @ @ @ @ # = = % * 6 6 6 8 7 9 9 9 0 0 0 0 9 0 0 0 9 9 9 9 9 9 9 9 9 9 > ; > > & ; & & ; & & & , a & & & ; ; ; & & w h d h w e h h d h e w w e h w 3 3 w h d c d Z Q Q c c e e e ^ #X-X.X=X3X+X=X:X3X3X:X:X:X:X:X,X,X:X:X=X+X+X,XOXOXOX X X X0.r. X+X,X,X,X,X+X=X+X+X$X=X=X=X=X:X:X:X:X,XOX].t.&.&.].$X:X=X>X,X$X+XOXOXOX X].]._.r.e.t.t.q.3.3.3.3.3.3.q.q.0.0.0.0.q.2.9.9.9.9.9.9.2.2.9.9.2.2.2.,.;.;.:.-.<.9.{.{.{.{.oX{.{.'.`.'.'.'.'.`.OXOXoX$X$X$X$X$X$X$XoX$X$X+X].`._.r.r.r._._._.e._._.0.0.0.q.2.:.-.-.%./ / D S S S / %./ S S S S S ) / / / ) D v l l e e l x x e x c ( 1.S.G.G.G.G.G.G.<.1./ m l 4 4 l e e v / / b l b b S :.<.<.<.2.9.9.9.0.G.9.9.2.9.4.9.9.2.<.<.:.:.0.'.'. X'.0.D.D.G.9.G.G.H.F.G.H.F.F.G.1.( E E C E E E g g g g g g g g h a h h h c d d g c C c E g h g c C C Z E g h d g g g c E C C Q ! W !  . .`  . .! C _ E s 0 B B 9 6 0 V i N N J P I I Y ] [ { { i.d.d.d.d.d.s.g.g.j.j.j.x.z.b.n.m.B.I.T.W.6X7X7X7X9XrXrXtXyXaXaXaXaXaXaXjXjXaXjXjXkXkXkXkXkXkXkXjXjXkXkXkXkXkXkXkXkXkXkXkXkXkXkXkXkXkXkXkXkXkXkXkXkXkXkXkXkXkXkXkXkXkXkXkXkXkXkXkXkXjXjXjXjXkXkXkXjXjXjXkXjXjXaXjXaXaXaXaXaXaXpXpXpXaXaXiXiXyXyXyXtXtXtXtXtX9X9X9X9X9X9X9X0XqXqX0X0XqX5XqX5X5X4X4X4X4X4XT.T.T.4XT.4X4X4X4X4X4X4X4X4X4X4X5X5X6X6X6X6X6X6X4X4X4X4X4X4X4X4X4X4X4X4X4X4X4X4X4X4X4X4X4X4X4X4X4XW.W.W.W.",
"z.z.z.b.b.b.b.b.n.b.b.b.n.n.z.z.z.z.x.x.x.z.x.z.z.z.z.n.n.n.n.n.V.V.V.V.V.V.V.V.V.B.B.B.Z.I.I.I.I.I.U.W.W.W.W.T.!.!.!.!.6X7X7XrX8X8X8X8X8X8X7X7X7X7X7X7X7X7X!.!.Q.U.P.B.V.n.n.z.x.j.s.u.{ [ Y U J J H H f p f G J J P L Y ] [ i.u.u.d.s.f.f.h.j.j.h.s.u.u.i.} { [ T T T Y Y T T T T T T T T T T T T T T T T T T i.i.i.i.i.i.i.u.u.i.i.i.i.i.i.[ [ ] Y Y U L P P J J f p u u 8 > > > = = = = = = = $ @ $ $ $ $ $ = = $ $ = * = * * * = # # # # # @ @ @ @ . . . . . . . . . . . . @ @ @ @ @ @ @ @ $ $ $ # $ $ $ $ $ # # # $ @ $ @ $ @ @ @ @ # # = * * 6 6 8 8 9 9 9 9 i i i i 9 9 u u 9 9 u 9 9 9 9 9 8 > > > ; > & & & ; , & & & 1 a & & # # ; ; 1 1 h d d d w h e e h e e e w w h 3 , 3 3 e d d x Z W W Z Z x d e x G.-X*X3X>X:X:X:X:X:X:X:X:X:X:X:X:X:X=X=X=X+XOXOXOX X'. X'.2. X,X,X,X+X+XOXOXOX XOXOX+X=X:X:X:X:X:X:X,X X[.6.&.&._.+X:X=X:X$X$X+XOX+XOXOX].]._._.r.e.e.e.3.3.3.,.3.3.q.0.0.0.0.0.q.9.4.q.q.q.9.2.2.2.2.2.4.2.2.:.:.<.<.<.q.'.{.{.{.{.].{.`.'.'.'.'.`.`.].OXOXOX$X$X$X$X$X$X$XoX$X$X+XOX]._.r.r._._.r._._.'.'.'.0.0.q.<.<.:.-.-./ / ) S D S %.%./ / ) S S S / ) %.%.%./ ) m v l e e x x x W ' S.G.G.G.G.G.G.G.4.1.) m v v v v k k e k v ) / D b l b S &.;.2.q.0.0.9.9.2.9.9.9.9.4.<.:.-.-.:.:.q.q.'.OX'.q.0.|.oX%X#XG.G.F.H.F.F.F.D.G.1.( W E E E g E E h g g d d g c d h h d c c c c C c E E C g d g C C C C C g h d d d g c E c E Q Q !  . . . .` ` ~ C ! ~ s 9 s B 0 6 0 V V V N N P I I Y Y ] { { i.d.d.d.d.s.g.j.j.j.k.x.x.z.z.n.n.V.U.T.W.6X7X7X9X9XrXrXtXtXaXpXaXaXaXaXjXjXkXjXjXkXkXkXkXjXkXkXjXkXkXkXkXkXkXkXkXkXkXkXkXkXkXkXkXkXkXkXjXkXkXkXkXkXkXkXkXkXkXkXkXkXkXkXkXkXkXkXkXkXkXkXkXkXkXkXkXjXjXjXkXjXjXaXjXaXaXaXaXaXaXpXpXpXpXpXiXiXyXtXtXtXtXtXtXtX9X9X9X9X9X9X9X0XqX5X7X0X6X5X6X6X5X4X4X4X4X4X4X4X4X4X4X4X4X4X4X4X4X4X4X4X4X4X6X6X6X6X6X6X6X6X4X4X4X4X4X4X4X4X4X4X4X4X4X4X4X4X4X4X4X4X4X4X4X4X4X4X4X4X4X",
"z.z.z.b.b.b.b.b.b.b.b.b.n.n.z.z.z.z.z.x.z.z.z.z.z.z.z.n.n.n.n.n.V.V.V.V.V.V.V.V.V.V.V.V.B.B.B.I.I.U.U.Q.T.W.T.T.W.!.!.!.6X7X7X8X8X8X8X8X8X7X7X7X7X7X7X7X7X7X!.!.T.U.P.B.V.n.n.z.j.j.u.i.{ ] U U J J H f p p f G G J P L U ] { } u.u.s.s.h.h.j.j.j.h.s.u.u.i.} { [ [ T T U U T T T T T T T T T T T T T T T T T T [ i.i.i.i.i.i.u.i.i.i.i.u.u.i.i.[ [ [ ] Y U L P P J J f p i 9 > > > > = = = = = * = $ @ $ $ $ $ $ $ $ $ = = = = * * = = # # # # # # @ @ . . . . . . . @ @ @ @ @ @ @ @ @ @ @ @ @ $ $ $ # $ $ $ $ @ $ $ $ @ @ @ @ # @ @ @ $ $ # = * * 6 6 8 9 9 9 9 9 9 9 9 9 9 9 9 9 9 u u u 9 9 9 9 > ; * > > > & & & ; , ; & & 9 9 o & # # ; w h h g d h h h h e w 3 e h e e w e w 3 3 3 w h e d c Z Q W Z e e x v 1.oX=X>X+X3X:X=X=X=X+X=X:X:X:X:X:X:X=X=X+X+XOXOX[.'.[.0.q.r.,X:X:X,X+XOXOXOXOXOXOX+X=X:X:X:X=X:X=X:XOX].r.,.#.&._.OX:X=X:X$X,X$X+X+XOXOX].}.].[._.r.e.t.t.3.3.3.3.3.q.0.0.0.0.0.0.0.q.q.q.q.q.2.2.2.;.<.2.2.2.,.,.2.4.q.D.|.`.`.`.`.].`.'.'.'.'.'.`.]. XOXOXOX$X$X$X$X$X$X$X$X$X$XOXOX]._._._.r.r.r._._.'.`.'.0.0.q.<.<.<.-.-.%./ / S S S / / ) / / S S ) / ) ) %.*.-.-.%.) ) ) D m ) ) 1.1.1.G.1.1.1.1.1.1.-.*.) ) ) ) ) D D v l k v D / S S S S D D @.:.:.:.:.:.-.-.-.:.:.-.-.-.-.-.:.2.q.r._._.q.,.0.OX|.=X<X<X#XG.G.F.F.F.F.G.G.1. .! E g C E E ! g h h d h d d h a d c E E C W E h g W E g d g c C c C c g d d d d g c C C C E Q  . .` X.X.! ! ~ B E C B 9 s B 0 0 0 0 V N N N P I I Y ] [ { { { i.d.d.g.g.f.j.j.j.k.k.x.x.x.z.n.m.I.T.W.6X7X7X9X9XrXrXtXtXaXpXaXaXaXaXjXkXkXkXkXkXkXkXkXkXkXkXkXkXkXkXkXkXkXkXkXkXkXkXkXkXkXkXkXkXkXkXkXkXkXkXkXkXkXlXkXkXkXkXkXkXkXkXkXkXkXkXkXkXkXkXkXkXkXkXkXjXjXjXkXjXjXaXjXaXjXaXaXaXaXpXpXpXpXpXiXiXiXtXtXtXtXtXtXtX9X9X9X9X0X0X9X0XqX5X7X6X6X6X4X5X4X4X4X4X4X4X4X4X4X4X4X4X4X4X4X4X4X4X4X4X4X4X4X4X4X6X6X6X6X6X6X6X6X4X4X4X4X4X4X4X4X4X4X4X4X4XT.4X4X4X4X4X4XT.4X4X4X4X4X",
"z.b.b.b.b.b.b.b.b.b.b.b.b.b.z.z.z.z.z.z.z.z.z.z.z.z.n.n.n.n.n.n.n.n.V.V.V.V.V.V.V.V.V.V.B.B.I.I.U.U.U.U.U.Q.T.W.W.!.!.!.6X7X7X7X8X8X8X8X8X7X7X7X8X8X7X7X7X!.W.W.W.U.P.B.V.n.z.x.j.j.u.} [ ] U U J J G f p p p G G J P L U ] [ } u.u.s.h.h.j.j.j.h.h.s.u.u.i.{ { [ [ T T Y U Y T T T T T T T T T T T T T T T T T T [ i.i.i.i.i.u.u.u.u.u.u.u.i.i.i.[ [ [ Y U U L L P J J f p u 9 8 8 > * > = * * * * = = $ = $ $ $ $ * = = = = = * * * = = = = = & # @ @ @ . . . . . . . . . @ . @ @ @ @ @ @ @ @ @ $ $ # # # # # @ @ $ $ @ @ @ @ # @ @ @ # # # = * 6 6 6 8 9 9 9 9 9 9 u 9 u 9 9 9 u u u u u 9 9 9 9 > > * * * ; & & & & & & & @ ; 9 & & # ; 9 h s s d w w w h g e e w w w e w w 3 e h w 3 3 e e e c W W W Z e e e x 8.&X=X3X=X:X:X:X:X=X+X+X+X+X:X:X:X:X:X:X+XOXOX Xt.r.0.2.q.:X:X3X:X+X+X+X+X,X,X,X,X:X:X:X:X:X=X:X=X+XOX[.e.>.+.=.).OX=X=X=X$X,X$X+XOXOXOX}.}.].[._.r.t.e.t.t.t.w.3.3.q.q.0.q.q.q.0.q.q.q.q.q.0.q.3.,.;.,.q.q.q.q.w.2.q.0.'.`.`.`.`.`.`.`.'.'.'.'.`.}.}.OXOXOXOXOX$XOXoXoX$X$X$X$X$XOXOX].`._._.r.e.e._._.'.`.`.0.0.0.2.<.<.:.-.-./ S S ) ) ) D S S S S S %.%.%.) %.*.*.%.%.%.) / / ) ) / -.) ) ' -.-.-.-.%.%.*.-.-.5.5.5.-.%.' ^ D v v v b S %.%.S S S @.%.S S %.%.-.-.-.-.%.-.:.<.2.9.9.0.'._.r.,.&.3._. XOX3X2X<X-X#XG.F.G.G.F.G.8.X.` Q E g E ! E ! ~ g g g h a a a a g E c C c E C h d E E g d d c c c c g d d d d d c C c E C C ` X. .! X.X.! ~ ~ B B B B s s s 0 0 0 0 V B N N J L I Y ] [ { { { i.d.d.f.f.x.x.x.x.k.k.x.k.k.z.b.m.C.U.4X6X7X7X7X9XtXtXtXtXiXaXaXaXaXjXjXjXjXkXkXjXkXkXkXkXkXkXkXkXkXkXkXkXkXkXkXkXkXkXkXkXkXkXkXkXkXkXkXkXkXkXkXkXkXkXkXkXkXkXkXkXkXkXkXkXkXkXkXkXkXkXkXkXkXkXkXjXjXjXkXjXjXaXaXaXaXaXaXaXaXpXpXpXpXpXiXiXyXtXtXtXtXtXtXtX9X9X9X0X0X0X9X7X5X5X5X5X6X6X4X4X4X4X4X4X4X4X4X4X4X4X4X4X4X4X4X4X4X4X4X4X4X4X4X4X4X4X4X6X6X6X6X6X4X4X4X4X4X4X4X4X4X4X4X4X4X4X4X4X4X4X4X4X4X4X4X4X4X4X4X",
"b.b.b.b.b.b.b.V.b.z.b.b.z.b.z.z.z.z.z.z.z.z.z.z.z.z.n.n.n.n.n.n.n.n.n.V.V.B.B.B.V.V.V.V.B.P.I.I.U.U.I.I.U.U.T.W.W.!.!.!.6X7X7X7X7X8X8X8X8X7X7X7X8X8X7X7X7X!.W.W.W.Q.P.V.n.n.z.x.j.j.u.i.[ ] U L J J G f p p p f G J P L U ] [ } } u.s.s.s.h.h.h.h.s.s.d.u.i.{ [ [ T T T Y Y Y T T T T T T T T T T T T T T T T T T T [ [ i.i.i.i.i.i.u.u.u.u.u.u.i.i.{ [ [ Y U U L L P J J f p u 9 8 8 8 > > > > * * * = $ $ % $ 6 6 6 6 * * * * * * * * = = = = & # @ @ @ . . . . . . . . . . . @ @ @ @ @ @ @ @ @ $ $ # # # = # $ # # # $ @ @ @ # @ @ @ # # # = = * * 6 8 8 9 9 9 9 9 u u u u i u u u u u 9 9 9 9 9 > > * * & * & & & & & & & . & s 9 @ . 9 9 w 9 9 w 1 1 w h g d d d e 3 3 3 e w d d w 3 3 3 e e Z Z c Z Q e 3 e -.%X3X3X3X=X:X:X:X:X:X+X+X+X=X:X:X:X:X:X,XOX X X_.r.w.,.0.,X3X:X3X:X+X=X:X=X:XOX,X,X:X:X:X:X:X&X:X$XOX].r.3.&.n =.).OX$X$X$X,X$X$X+XOXOX].}.}.].`._.r.t.e.t.t.t.t.t.q.q.q.q.q.t.q.q.q.q.q.0.q.t.q.3.3.,.3.q.t.q.0.q.q.q.'.`.'.'.'.'.`.'.'.`._.`.`.].].}.OXOXOX$X$XOXOXoXoXoX$X$X$X$X$XOX].`.`._._.r.).'._.'.'.'.0.0.0.2.<.2.:.-.-./ S S ) ) S D S S ) / %.%.%.) ) ) %.%.) ) %.) *.-.*.*.%.*.*./ *.*.*.5.*.*.5.5.5.5.5.5.5.1.1./ -.-.D l v D S S %.%.*.;.;.:.2.2.2.2.<.2.2.9.9.0.q.0.D.D.D.'.r.e.&.@.2.[.r.[.:X3X<X<XMXmXG.G.F.G.G.G.8.X.` ! E h E ~ E g o.c h d h h h d d c c c E c c E c E E c g d d c C c d g g g g d d c C C C g C  .X.` ` X. .~ ~ E C B B B B B s 9 q 0 0 V N N N J L I ] ] { { { i.d.d.g.f.j.x.x.x.x.x.x.x.k.k.z.b.m.B.I.W.4X6X7X7X9XtXyXtXtXiXaXaXaXjXjXkXjXjXkXjXkXkXkXkXkXkXkXkXkXkXkXkXkXkXkXkXkXkXkXkXkXkXkXkXkXkXkXlXkXkXkXkXkXkXkXkXkXkXkXkXkXkXkXkXkXkXkXkXkXkXjXjXjXkXkXkXjXjXjXkXjXjXaXaXaXaXaXaXaXaXpXpXpXpXpXyXyXyXtXtXtXtX9XtX9X9X9X0X0X0X0X9X9X7X5X5X4X6X6X4X4X4X4X4XW.W.W.4X4X4X4X4X4X4X4X4X4X4X4X4X4X4X4X4X4X4X4X4X4X4X4X4X4X4X4X4X4X4X4X4X4X4X4X4X4X4X4X4X4X4X4X4X4X4X4X4X4X4X4X4X",
"z.b.b.b.b.b.n.V.b.b.b.b.b.z.z.z.z.z.z.z.z.z.z.z.z.b.z.n.n.n.n.n.n.n.m.V.V.V.V.B.B.B.B.V.B.B.P.I.I.I.I.I.U.U.Q.W.W.W.!.!.6X7X7X7X7X7X7X7X8X7X7X7X7X7X7X7X6X!.W.W.W.U.I.V.n.n.z.x.j.j.u.i.[ ] U L J G f p p p p f G J P L L Y [ } } u.s.s.s.h.h.h.j.h.s.u.u.i.} [ [ T T Y Y Y T Y T T T T T T T T T T T T T T T Y T T T [ i.i.{ i.i.i.u.u.u.u.u.u.u.i.i.[ [ [ ] Y U L P P J J f p p i i u 9 8 8 8 8 8 6 = = * * % 6 6 6 6 6 6 6 6 * * * * * * = = & # @ @ @ @ @ . . . . . . . . . @ @ @ @ @ @ $ $ @ $ # # # = = = $ # # # $ @ @ @ # @ @ @ # # & = = = * 6 8 8 8 8 9 9 9 u 9 u 9 9 i u u u 9 9 9 9 8 8 * > & & & & & & & & & & . . . w 9 * # 1 ; ; ; ; w 9 w g g g c C c e w w w w e e d e 3 - 3 e e C Z c Z Z e x G.<X2X=X:X+X+X:X,X,X+X,X+X+X=X=X:X:X:X:X+X,XOX X[.r.t.2.q.,X2X:X:X3X:X=X:X=X+X=XOX,X:X:X:X:X:X=X$X=X+XOX`.0.>.+.+.3._.OX$X=X$X$X$X$XOXOX X].}.}.].'._.r.t.t.t.t.t.t.t.t.t.q.t.t.t.6.3.3.t.t.t.t.t.t.3.3.3.3.q.e.q.0.q.q.0._.`._.'.'._._._._._._.].}.].}.}.OXOXOX$XOXOXOXOXOXOX$X$X$X$X$XOX].'._._._.).).'._.'.'.).r.0.q.2.2.<.<.:.-.%.) ) ) ) S S S ) / / / ) ) S S S ) ) S ) ) ) ) %.*.%.%.*.-.-.5.5.5.<.5.;.<.-.5.<.<.<.<.5.-.1.-.-./ / :.;.S b %.%.S %.S S %.<.2.w.q.0.0.0.9.D.0.0.0.0.'.'.0.&.@.=.t.r.].,XOX=X<X<XMXMXG.G.F.G.G.G.1.X.` ! W a g E ! E ! E j h g g c c c c g g E c c E W W E C g d d c c g d g g d d d d c C C C C W  .X.` ` X. .E ~ E C B d B s B V 0 0 0 V V N N N J L ] [ [ { d.d.d.d.g.f.f.j.x.z.b.z.z.z.x.k.x.b.n.m.B.Z.Y.W.6X7X9XrXtXtXiXiXaXpXaXaXjXjXkXkXkXkXkXkXkXkXkXkXkXkXkXzXkXkXkXkXkXkXkXkXkXkXkXkXkXkXkXkXkXkXkXkXkXkXkXkXkXkXkXkXkXkXkXkXkXkXkXkXkXkXkXkXjXjXjXjXjXkXkXjXjXjXkXjXjXaXaXaXaXaXaXaXaXpXpXpXpXpXtXyXtXtXtXtXtX9X9X9X9X0X0X0X0X9X9X9X7X5X5X4X6X7X4X4X4X4XW.W.W.W.4X4X4X4X4XT.4X4X4X4X4XT.T.T.4X4X4X4X4X4X4X4X4X4X4X4X4X4X4X4X4X4X4X4X4X4X4X4X4X4X4X4X4X4X4X4X4X4X4X4X4X4X4X",
"z.b.b.b.b.b.n.V.n.b.b.b.b.b.z.z.z.z.z.x.z.z.z.z.z.z.z.n.n.n.n.n.V.V.m.V.V.V.V.V.B.V.V.V.V.V.B.B.B.B.I.I.U.Q.Q.R.T.W.W.!.7X7X7X7X7X7X7X7X8X8X7X7X7X7X7X7X6X!.W.W.W.U.I.V.n.n.z.x.j.s.u.} [ ] U L J G f p p p p f G J J L L Y [ } u.u.s.u.s.h.j.j.j.h.s.u.u.i.{ { [ T Y U Y T T Y T T T T T T T T T T T T T T T Y T T T T { i.{ i.i.u.d.d.s.u.u.u.u.u.i.i.{ { [ ] Y U L L P P J J f f p p i u u 9 8 8 8 * * * 6 % % % 6 6 6 8 8 8 * * * * * * = = = # @ @ @ @ @ . . . . @ @ @ @ @ . @ @ @ @ @ $ $ $ $ # $ # $ = = @ @ @ @ @ @ @ @ $ @ @ @ # # & = = = * 6 8 8 8 8 9 9 9 9 9 9 9 9 u u 0 0 9 9 9 9 8 > > > & & & & & & & & & o . . . ; 1 9 ; ; . ; ; 1 w h g E C B C C C d e d e w h e e h e - , w e c c x x Z ' *XMX2X=X3X3X=X3X+X:X,X,X,X+X+X=X=X:X:X:X+X,XOX X X Xq.2.r.:X3X:X3X:X3X:X:X:X=X+X+X,X:X:X:X:X:X:X=X$X=XOX].).3.=.n #.6.`.OX$X$X$X$X$X$X+XOXOX}.}.}.].`._.r.r.t.t.t.t.t.t.t.t.t.e.e.3.3.3.3.6.t.t.t.3.t.t.q.t.q.3.t.t.0.0.r._._._.r._._._.`.`.[.].].].}.OXOXOXOXOXOX$XOXOX$X$XOXOXoXoX$X$X$XOX`._.)._.r.).)._.'.`.`.0.).0.4.2.2.2.2.2.:.%.%./ ) S S S S S ) %.%.%.) %.%.%.) ) ) / ) ) %.%.%.*.*.%.) %.*.5.5.<.5.*.;.<.<.<.1.<.<.1.-.<./ %.<.2.<.*.S %.<.;.%.:.:.@.S %.:.;.2.q.q.q.9.0.0.0.0.0.0.q.>.S &.3.t._.].OX:X2XmX-XmXPXF.G.G.F.G.G.1.' ( W C g a g E ! E o.E E E E c d c c g g c g c E E E E E g d d g g g d g d d d d d g C C C E Q ` X.X.` .. .E ~ C C B d s 0 B B B 0 0 i V N N N P I ] [ { i.d.d.g.d.g.g.f.j.x.z.b.b.b.b.z.x.z.b.n.m.B.Z.Y.W.4X7XrXrXtXtXaXpXpXaXaXaXsXaXjXkXkXkXkXkXkXkXkXkXkXkXkXzXkXkXkXkXkXkXkXkXkXkXkXkXkXkXkXkXkXkXkXkXkXkXkXkXkXkXkXkXkXkXkXkXkXkXkXkXkXkXkXkXjXjXjXjXjXjXkXjXjXjXkXjXjXaXaXaXaXaXaXaXaXpXpXpXpXpXtXtXtXtXtXtXtX9X9X9X9X0X0X0X9X9X9X9X0X7X5X4X7X6X4X4X4X4XW.W.W.4X4X4X4X4XT.T.4X4X4X4X4XT.T.T.T.T.4X4X4X4X4X4X4X4X4X4X4X4X4X4X4X4X4X4X4X4X4X4X4X4X4X4X4X4X4X4X4X4X4X4X4X4X4X",
"b.z.z.b.b.n.b.b.n.n.b.b.n.b.b.z.z.z.z.z.z.z.z.x.z.z.z.z.b.n.n.V.n.n.n.V.V.V.V.V.V.V.V.V.V.B.B.B.B.B.I.I.U.U.U.U.T.T.W.W.W.6X6X7X8X8X7X7X7X7X8X8X7X7X7X7X7X!.W.W.U.I.B.V.n.n.z.b.j.h.u.{ ] Y U P J G f p p p p f f G P L U ] [ { i.u.s.s.s.s.h.j.h.s.s.u.u.u.i.{ T T T Y T T T T T T T T T T T T T T T T T T T T T T T T [ i.i.i.i.u.f.f.f.f.u.u.u.u.u.u.i.i.{ [ [ Y U U U P P P J J f p p i i i 9 9 9 8 6 6 6 6 6 6 6 6 6 8 8 6 8 8 8 * * > * * & = # $ @ . @ @ @ . . . . @ @ @ @ @ @ @ @ @ @ @ $ $ $ $ $ $ = % $ $ $ $ $ $ @ $ # # @ @ # # & = & & * * > 8 8 8 9 9 9 u u u 0 0 u u 9 9 9 8 8 8 > & & * & & & & & & & & o o = & & . & 9 9 9 w 9 a w g B E Q C B C C c d g C g B h w w 3 w , 3 1 w x x d ^ H.2X1X=X3X3X3X3X:X:X:X:X:X:X:X,X,X+X+X+X:X,X+XOX X Xr.0.w.`.3X:X:X3X:X:X:X:X:X:X=X=X=X:X:X:X>X=X=X=X=X=XOXOX].).3.#.n >.0.}.OXoX@X@X$X$X+XOXOXOX$XOX}.}.`.].].[._.r.e.t.t.t.t.t.e.e.e.3.3.3.t.e.t.3.3.3.3.t.q.t.t.t.e.e.e.e.e.e.e.e.e.)._.`.`.`.`.`.`.OXOXOXOX}.}.OX$X$XOXoX$X$XOXoX$XoXOX$X$XOX`._._._.r.r.e._.[.].`.'.0.0.q.4.2.2.2.4.<.-.-./ ) S S m S %.%.%.%.%.%.%.S S %.%.S S S S S %.%.*.%.%.S %.%.*.;.;.;.-.;.<.;.-.5.<.<.:.:.:.<.4.q.2.%.S %.2.2.9.4.2.>.;.b k b %.;.2.2.<.<.2.0.q.4.q.3.=.n #.=.3.r._.`.+X>XmX-X%XMXPX#X1.G.G.G.G.1.( ( E g a 1 h h ! ~  .o.c g c E c h e d c E c c W E C Q ! C d d d d d d c c d w w h c C C C E !  .` `  ...X.E ~ E B B B s s s s B B V V i N N P L I ] { u.d.d.g.f.j.j.j.j.x.z.z.b.V.V.n.b.b.b.b.n.m.B.C.Y.T.5X9XtXtXyXpXpXpXpXpXaXaXsXsXjXkXkXkXkXkXkXkXkXkXkXkXkXkXkXkXkXkXkXkXkXkXkXkXkXkXkXkXkXkXkXkXkXkXkXkXkXkXkXkXkXkXkXkXkXkXkXkXkXkXkXkXkXkXkXsXkXkXkXsXjXsXkXkXaXaXaXaXaXaXaXaXpXpXpXpXpXyXiXyXyXtXtXtXtXtX9X9X9X9X9X0X0X0X0X0X0X0X7X7X0X7X6X5X4X5X6X5X4X4X4X4X4X4X4X4X4X4X4X4X4X4X4X4XY.Y.4X4X4X4X4X4X4X4X4X4X4X4X4X4X4XT.T.T.T.4X4X4XT.T.4X4XT.4X4X4X4XT.4X4X4X4X4X4X4X",
"z.z.z.b.b.n.n.b.n.n.b.b.n.b.b.z.z.z.z.z.z.z.z.z.z.z.z.z.b.n.n.n.n.n.n.V.V.V.V.V.V.V.V.V.V.B.B.B.B.I.I.I.I.U.U.T.T.T.W.W.W.6X7X7X8X8X8X7X7X8X8X8X7X7X7X7X7X!.W.W.T.U.B.V.V.n.z.z.j.h.u.[ ] Y U P J G f p p p p p f J P L U ] | } i.u.u.u.s.h.h.h.f.s.d.d.u.u.{ { [ T T T T T T T T T T T T T T T T T T T T T T T T T T T [ { i.i.i.u.u.f.f.f.f.u.j.f.j.f.u.u.i.i.[ ] Y Y U U L P P J J f p p i i i u 9 9 8 6 6 * 6 6 6 6 6 8 8 8 8 8 8 * * > * * = = $ @ @ @ @ @ . . . . @ @ @ @ @ @ @ @ @ @ @ @ $ $ $ $ $ $ $ % $ $ $ $ $ @ @ $ # # @ @ @ @ & & & * * > 8 8 8 8 9 9 9 u u u 0 0 9 9 9 9 9 8 8 8 > & * ; > & & & & & & & & & & # # . & & & & 1 9 1 h d g ~ C g C C C g g E W g s w w g h 1 1 w w 3 3 c 8.<X2X=X3X3X:X:X:X:X:X:X:X:X:X:X:X:X=X,X,XOX,X+XOXOX Xr.0.w.|.3X3X:X:X:X:X:X:X:X:X:X:X=X=X:X:X>X:X=X=X=X&X$XOX].].3.,.n +.,.0.}.OX{.oXoXoXOXOXOXOXOXOX}.}.`.{.].].]._.e.e.e.e.e.t.t.e.6.e.3.3.3.t.t.t.3.3.3.t.e.t.t.e.e.e.e.t.e.e.e.e.e.e._._.`.`.`.].].}.}.}.OXOX}.}.}.$X$X$XoX$X$X$X$X$XoXOXOXOX].`.).r._.r.t.r._.[.].`.'.D.0.q.4.2.2.2.q.2.:.-.%.) S S ) %.%.%.%.%.%.%.%.%.%.%.%.%.%.%.%.%.%.%.%.%.%.%.%.*.*.;.;.;.-.;.;.<.2.2.<.<.2.9.2.9.4.2.,.;.;.;.9.2.9.0.'.>.n M m %.2.0.G.D.0.4.<.;.2.4.2.&.@.+.&.,.0.r._.|.$X=X2X<X;XMXPX%XS.G.G.G.G.1.( Q E g w 1 h h ! ~ ~ E c g c c x e x W Q W c c W E E ( ! E g g d d d d c d d e e d C C C E Q ! ` ` `  ...X.~ ~ E B B B B B s s B B B B N N J P I Y [ { d.d.g.j.x.x.x.x.x.x.b.b.b.V.V.n.n.b.n.n.n.m.B.Z.Y.T.5X9XtXyXyXyXpXpXaXaXaXaXjXjXjXkXkXkXkXkXkXkXkXkXkXkXkXkXkXkXkXkXkXkXkXkXkXkXkXkXkXkXkXkXkXkXkXkXkXkXkXkXkXlXkXkXkXkXkXkXkXkXkXkXkXkXkXkXkXsXkXkXkXsXkXsXkXkXkXkXfXfXaXaXaXaXpXpXpXpXpXpXiXiXiXtXtXtXtXtX9X9X9X9X9X9X9X0X0X0X0X0X7X7X7X7X6X5X4X5X6X5X4X4X4X4X4X4X4X4X4X4X4X4X4X4X4X4XY.W.4X4X4X4X4X4X4X4X4X4X4X4X4X4X4X4X4X4XT.4X4X4XT.T.4X4XT.4X4X4X4X4X4X4X4X4X4X4X4X",
"z.b.b.b.b.n.n.n.n.n.b.b.b.n.b.z.b.z.z.x.x.z.z.z.z.z.z.z.b.n.n.n.n.n.n.V.V.V.V.V.V.V.V.V.V.V.B.B.I.P.P.B.P.I.U.W.Q.T.W.W.W.!.7X7X8X8X7X7X8X8X8X8X7X7X7X7X!.!.W.W.T.U.B.V.n.b.x.x.j.h.u.{ ] Y U P J G f p p p p p G J P L U ] { } u.u.u.u.s.h.h.h.s.s.s.d.d.u.{ { [ [ T T T T T T T T T T T T T T T T Y Y Y U T T T T T T T [ i.i.i.u.u.f.f.f.k.k.j.j.j.j.u.u.u.u.{ [ [ ] Y Y U L L P J J N p p i i i u 9 8 8 6 $ 6 6 6 6 6 8 8 8 8 8 8 8 * * * * * = $ @ @ @ @ @ @ . . . @ @ @ @ @ @ @ @ @ @ @ @ $ $ $ $ $ $ % % $ $ $ $ $ $ @ # @ @ @ @ @ @ # # & * * > * 8 8 8 9 9 9 9 u 9 9 9 9 9 9 9 8 8 8 * * * * > ; & & & & & & # # # # # # & # . # # & ; 1 g g E C a g E C B B E Q C d g C d C W c c g h 3 / XX<X-X3X2X+X3X3X:X:X:X:X:X:X:X:X:X:X:X+X,X+X,X XOX Xr.r.r.,.0.:X3X:X3X3X:X:X:X:X:X:X:X:X:X:X:X:X>X:X=X=X&X$XOX}.{.).3.&.z #.,.0.`.{.{.{.{.}.OXOX].}.}.OXOX}.{.}.].].[._.r.e.e.e.e.t.e.6.e.e.e.t.t.t.t.t.6.3.6.e.t.e.e.t.r.r.r.e.e.e.e.e.e.e._._.`.`.].].}.}.{.}.}.OXOX}.}.oX$XOXOXoXOXOXOX$XOXOXOXOX]._._.e._.t.e._._._.[.`.'.D.0.q.q.4.2.2.q.9.2.<.-./ ) S ) %.%.%.%.%.%.%.%.%.%.%.*.%.%.%.%.%.%.%.%.%.*.;.;.;.;.;.>.;.;.;.;.;.<.<.2.4.q.q.2.<.;.:.2.2.,.2.:.<.0.'. X*.l S >.3.e.0.'.oXoX'.4.:.;.>.&.S n #.=.,.e.r.`. X$X=X<XmX;XmXPX-XG.G.G.G.G.1.( W c h h a a h ! ~ ~ E c c c c x v W ( ( W c c E E W ` ! E C C c c x d d d h e d c C C g W ! ! ! `  .X... .~ ! ~ B B B B B s i V B B B K J P L I ] { { d.g.j.x.z.z.z.z.z.b.b.b.b.V.V.V.V.V.m.n.m.N.C.C.Z.T.5X9XtXyXyXyXpXaXaXaXaXjXkXkXjXkXkXkXkXkXkXkXkXkXkXkXkXkXkXkXlXlXlXzXkXkXkXkXkXkXkXkXkXkXkXkXkXkXkXkXkXkXlXlXkXkXkXkXkXkXkXkXkXkXkXkXkXkXkXkXkXkXkXsXjXjXsXkXkXkXkXfXfXaXaXaXpXpXpXpXpXpXiXiXiXtXtXtXtXtX9X9X9X9X9X9X9X9X0X0X7X7X0X7X7X6X6X6X5X5X6X5X4X4X4X4X4X4X4X4X4XW.4X4X4XW.Y.Y.W.4X4X4X4X4X4X4X4X4X4X4X4X4X4X4X4X4X4X4XT.4X4X4X4XT.4X4XT.4X4X4X4X4X4X4X4X4X4X4X4X",
"z.b.b.b.b.b.n.n.n.n.b.b.b.n.z.z.z.z.z.z.z.z.z.z.z.z.z.b.b.n.n.n.n.n.n.n.V.V.V.V.V.V.V.V.V.V.B.B.P.P.P.B.P.P.U.Q.Q.T.W.W.W.!.7X7X7X7X8X8X8X8X7X7X7X7X7X7X!.W.W.W.U.I.B.V.n.z.x.j.j.s.u.{ [ Y U P J H p p p p p p f J P L U ] [ } u.u.u.u.s.h.j.j.j.j.s.s.d.d.i.{ i.i.{ { { i.i.i.T i.i.T T T T T U T Y T U U T T T T T T T T i.i.i.i.u.u.f.f.k.k.k.k.k.k.h.u.u.u.} } { [ [ [ [ Y U L P P J N p p i i u 9 9 9 6 = 6 6 6 6 6 6 8 8 8 8 8 8 * * * * * = = @ @ @ @ @ @ @ @ @ @ @ @ @ @ @ @ @ @ @ $ $ $ $ $ $ $ $ % % $ $ $ = $ $ $ # # @ @ @ @ @ # # & & = * * * 8 8 9 9 9 9 9 9 9 9 9 9 9 9 8 8 * * * * * * * & & & & & & & & # & # # & . . & # & ; h g E ~ h a E C C E E E C g g C d c ` ' C W Q ^ 8.1XMX3X3X3X3X3X3X3X3X:X:X:X:X:X:X:X:X:X:X,X+X+XOX X[.[.r.q.3.2.:X3X3X:X3X3X:X:X:X:X:X:X:X:X:X3X>X:X:X=X=X=X$X$X$X'.`.0.3.n n &.3.0._.'.'.'.{.'.}.}.].}.}.}.}.}.}.}.].`._._._._.r.e.e.e.e.e.t.e.t.t.t.t.e.t.t.e.t.t.e.e.e.r.r.t.r.r.e.e.e.e.).).[._.`.`.].].`.`.}.}.OXOXOX}.}.OX$XOX}.OXoXOXOXOXOXOX}.`.`._.r.r._.t.e._._._._.`.'.D.0.q.0.0.4.q.4.9.9.2.;.%.) S %.%.%.@.@.%.%.%.*.%.%.%.*.%.%.%.%.*.-.*.*.%.*.;.-.;.-.;.<.2.<.2.>.;.;.;.2.2.2.;.:.:.-.,.q.2.2.2.-.2.0.D.r.@.n >.3.e._.).'.+X=X=XXX0.<.;.%.n @.=.>.3.e._.].OX$X=X<XmX-XmXPXnXG.G.G.G.8.X.( Q E h h h a h ~ ! Q ! c C c c c D ) ^ W C g c W W W ! ! E C C C C c x d d h e d C C C d Q ` ! !  .X.X. ._ ! _ ~ B B B B B B B B B N B P P L I ] { { d.g.f.x.b.n.n.n.n.b.b.b.b.n.V.V.V.V.V.B.V.V.B.Z.U.Y.T.5X9XtXyXyXpXpXaXaXaXsXjXkXkXkXkXkXkXkXkXkXkXkXkXkXkXkXkXlXlXlXlXlXlXkXkXkXkXlXlXlXkXkXkXkXkXkXkXkXkXkXkXkXlXlXlXkXkXkXkXkXkXkXkXkXkXkXkXkXkXkXkXkXkXsXsXsXsXkXfXfXaXaXaXaXaXaXaXpXpXpXpXpXiXiXtXtXtXtXtX9X9X9X9X9X9X9X9X0XqX7X0X0X7X6X4X5X6X5X5X5X4X4X4X4X4X4X4X4XW.W.W.4X4X4XW.Y.Y.4X4X4XW.4X4X4XT.4X4X4X4X4X4X4X4X4X4X4X4XT.T.4X4X4X4X4X4X4X4X4X4X4X4X4X4X4X4X4X4X4X",
"b.b.V.n.b.b.b.n.n.n.b.b.b.b.b.z.z.z.z.z.z.x.x.x.z.z.z.b.n.n.n.n.n.n.m.V.m.m.m.n.m.m.m.m.V.V.V.B.B.B.B.B.P.P.U.U.Q.Q.W.W.W.!.7X7X7X7X8X8X8X8X7X7X7X7X7X7X!.W.W.Q.U.P.V.V.n.z.x.j.j.s.u.{ [ Y U P G f p p p p p f f J P L U ] [ } i.u.u.u.s.h.j.j.x.j.j.s.s.s.d.u.u.u.u.u.i.i.i.u.i.i.i.i.[ T T T U T Y T U U Y T T T T T T T [ i.i.i.u.u.f.f.k.k.k.k.z.k.k.j.f.u.u.u.u.{ { { { [ Y Y L P J N f p i i u u u 9 8 * 6 6 8 6 8 8 8 8 8 8 8 8 * * * * * * = # @ @ @ @ @ @ @ @ @ @ @ @ @ @ @ @ @ $ $ $ $ $ $ $ = $ % % % $ $ = % # $ = # # # @ @ @ @ # & & * * * * * 8 9 9 9 9 9 9 9 9 9 9 9 9 9 > * * * * * & & & & & & & & & & & & # . # . # ; # & a g g ~ C a g E g E ! E g d C C d Z c ( ` c ' 8.%XMX=X=X2X3X3X3X3X:X:X:X3X3X3X:X:X=X=X=X=X,X,XOX X[.[.t.r.r.,.;. X3X3X3X:X:X,X,X:X:X=X:X:X:X=X:X3X:X>X>X=X=X&X$XOXOX'._.3.=.z #.=.3.0.e.).).'.'.'.].[.`._.}.}.}.oX}.}.]._._._.).[.r.e.e.r.r.e.e.e.r.e.r.r.r.r.r.e.e.e.e.e.r._._.e._._._._.)._._._.].].`.`.].].`.'.}.}.}.OX}.}.}.OXOX}.}.}.}.}.oXOXOX}.`.).e.e.r.e.r.r.r._._.e._.'.'.'.0.q.0.0.q.q.4.q.q.4.<.-.) S S @.%.@.%.%.%.&.*.*.&.&.&.&.&.*.*.*.;.;.;.;.;.*.%.*.*.*.;.;.;.2.;.;.;.;.<.;.;.;.:.,.2.2.q.0.q.2.2.q.q.0.3.@.*.3.0.).'.}.OX&X-X-X>X=XG.;.S m &.>.3.3.e._.].OX+X$X-XMXmX<XMXMXG.G.G.G.1.( Q Q E a 3 h a g E ! Q W E W Z v Z ) / W C C c c W ! ! W Q C c c c c c c d h h h C C C g g Q ` ! `  .X. .! ! _  .! B B B B B B N P P P P I I I ] { u.d.d.x.x.b.n.V.V.V.V.n.b.b.n.V.V.V.V.m.V.B.Z.C.Z.Z.U.Y.4X5X0X9XtXpXaXpXaXaXaXjXjXkXkXkXkXkXkXkXkXkXlXkXkXkXlXkXkXkXkXlXlXkXlXlXlXkXkXlXlXlXlXkXkXkXkXkXkXkXkXkXkXkXkXlXlXkXkXkXkXkXkXkXkXkXkXkXkXkXkXkXkXkXfXkXsXsXsXfXaXsXaXaXaXaXaXaXaXpXpXpXiXiXiXiXtXtXtXtXtX9X9X9X9X9X9X9X9X0X0X7X0X0X7X6X4X6X6X6X4X4X4X4X4X4X4X4X4XW.W.W.W.W.W.4XY.Y.Y.4X4X4XY.T.T.T.T.T.4X4X4X4X4X4X4X4X4X4X4XT.4X4X4X4X4X4X4X4X4X4X4X4X4X4X4X4X4X4X4XW.",
"b.b.n.n.b.b.b.b.n.n.b.b.n.b.b.z.z.z.z.z.z.x.x.x.z.z.z.z.b.b.b.b.n.n.V.V.m.m.n.n.m.m.m.m.V.V.B.V.V.B.B.B.B.P.I.U.U.Q.Q.W.W.!.7X7X7X7X8X9X8X8X7X7X7X7X7X7X6XW.Q.U.U.I.V.V.n.z.x.x.j.s.u.{ [ Y L P H p p p p p p f f J P L Y ] [ } } u.u.h.s.s.j.k.x.j.j.j.j.s.s.s.f.f.g.d.u.u.u.u.u.u.i.i.i.i.T T T T Y U U U Y T T T T T T T T [ i.i.u.u.f.k.k.k.k.k.z.z.k.k.k.j.u.u.u.u.u.u.} { [ ] Y L P J H p f p i i i 9 8 6 6 6 8 8 8 8 8 8 8 8 8 * * * 6 6 = * = # @ @ @ @ $ $ @ @ @ @ @ @ @ @ @ @ $ = = $ $ $ $ $ $ $ % % % = $ % = # # = & # # @ @ @ @ @ & & & * * * * 8 9 9 9 9 9 9 9 9 9 9 9 9 > > * * * * * & & & & & & & & & & & & # . # # # # . 9 g g E ~ h w g C E ! ~ C B C C c d C A ' ^ -.*XmX2X&X3X3X=X3X3X:X3X:X:X:X3X3X3X:X:X=X=X=X+X+XOX X Xr.t.t.q.;.,.`.3X3X:X3X3X,X,X:X+X:X:X:X:X:X:X:X3X:X>X>X=X&X$X$XOX{.'.e.3.n z &.>.3.q.0.0.e.0.).).).).).)._.`.}.}.}.}.}.]._.).).e._.e.e.r.r.r.e.e.r.r.r.e.e.e.r.e.e.r._.).e.e.).)._._._._._._.`.`.}.].].]._._._._.}.{.}.}.}.{.{.}.}.{.`.}.}.}.oXOX{.]._.e.0.t.r.e.r.r.r.r.r.r._.'.{.'.G.q.0.0.q.q.q.q.0.q.2.;.%.S n S @.@.@.%.*.*.*.*.&.&.&.&.&.&.*.&.;.;.;.;.;.;.*.;.;.;.;.;.;.,.;.;.2.2.2.;.;.2.2.q.q.q.q.q.3.3.q.q.4._.3.S >.3.e.).{.OX$X=X=X-X-X2X{.%.z m &.>.3.3.e._.].OX+X$X-XmXmXmXMXMXF.S.G.1.1.^ W W E h h h h g c ! ! Q W W b v D / ) Z c C C c E Q Q E Q C c c c c c x d h e d Z Z c d C ! ` ! `  . .! ! ~ _  ._ B B B B P P J P L I ] I I ] { } d.d.j.z.b.n.B.B.B.B.B.V.n.n.m.V.V.V.V.n.V.B.Z.Z.Z.U.U.4X4X5X0X9XtXpXaXaXaXaXjXjXjXkXkXkXkXkXkXkXkXkXlXlXlXlXlXkXkXlXlXzXzXkXkXkXlXlXlXzXlXlXlXlXkXkXkXkXkXkXkXkXkXkXkXlXlXkXkXkXkXkXkXkXkXkXkXkXkXkXkXkXkXsXsXkXkXsXsXkXfXfXsXaXaXaXaXpXpXpXpXiXiXiXyXiXtXtXtXtXtX9X9X9X9X0X0X0X9X9X0X0X0X0X7X6X6X6X6X6X4X4X4X4X4X4X4XW.W.W.Y.W.T.W.W.W.Y.Y.Y.4X4X4X4XT.T.T.T.T.T.4X4X4X4X4X4X4X4X4X4X4X4X4X4X4X4X4X4X4X4X4X4X4X4X4X4X4X4X4X4XW.",
"z.z.b.b.b.n.b.b.n.n.b.b.n.n.b.b.z.z.z.z.x.x.x.x.z.z.z.b.b.b.n.n.n.m.V.V.m.n.n.n.V.V.m.n.m.V.B.B.V.B.B.B.P.P.I.U.U.U.Q.W.W.W.6X7X7X7X8X9X8X8X8X7X8X8X7X7X7XW.W.Q.U.I.V.V.n.z.x.x.h.d.i.{ [ U L P G p p p p p p f G J P L U ] [ } } u.u.h.h.h.j.k.k.j.j.j.j.j.j.j.j.j.j.f.s.d.d.d.f.f.d.u.i.i.{ T T T Y U U U T T T T T T T T [ [ i.i.u.u.f.k.k.k.k.k.z.z.z.k.k.j.f.s.s.s.s.d.u.i.{ [ ] L L J N f f f p i i 9 8 6 * 6 8 8 8 8 8 8 8 8 6 6 6 6 6 6 * * = $ @ @ @ @ @ @ @ @ @ @ @ @ @ @ @ @ $ = $ = $ $ $ $ $ $ % % % = = % % # # % & # # @ @ @ @ @ # & & & & * * * > 1 9 9 9 9 > > 9 9 9 > > > * * * * * & & * ; & & & & & & & & # . # # # # ; a g h E E a a g ~ ! ~ E C E C d d C A x 8.%X2X1X&X3X3X:X3X3X:X3X3X:X:X3X3X3X3X3X:X:X=X=X=X+X+X Xy.r.r.w.q.,.;._.2X3X:X:X:X:X=X:X:X+X=X:X:X:X:X:X:X3X:X:X>X&X$X$X+XOX'.).3.&.z +.&.>.2.2.3.3.3.3.3.e.e.e.).)._.`.}.oX}.}.}.].[._.).).[._.r.r.r.e.e.r.r._.r.e.e.r._._._._.[._.).e.).[._.'.'.`.`.[.].].}.}.}._._._._._.`.'.`.}.}.}.`.`.`.'.'.{.}.].].}.'.`._.e.e.e.r.t.t.t.r.r.r.r._.'.oX{.D.9.0.0.0.0.q.q.0.q.4.2.;.@.n n n S S @.%.%.%.%.&.&.&.&.&.&.;.;.;.;.;.;.;.;.>.>.;.;.>.2.2.2.2.,.2.4.4.2.2.2.t.q.q.0.0.,.,.q.q.q.0._.,.S ,.0._.}.OXOX$X=X-X=X-XmX*X/ l m *.,.3.3.0.r.`.OX+X$X*XmXmXmXMXPXH.S.S.1.1.( W E Q E E d g g E W ( ( Z b v b D D D A c C C c c E E E Q C c c c c x d e w h c W C d c Q ( ( ! `  .` ! _ ~ !  ._ ~ B B K P L P I I ] ] ] ] { } d.d.j.x.b.n.V.Z.I.I.I.B.I.B.V.B.B.V.m.n.m.N.C.Z.Z.U.Y.Y.4X5X5X0X9XtXiXaXaXaXjXjXjXjXkXkXkXkXkXkXkXkXkXkXlXlXlXzXzXzXlXlXxXzXzXzXlXxXxXxXzXlXlXlXzXlXlXkXxXlXkXkXkXkXkXkXkXkXkXkXkXkXlXlXlXkXkXfXkXkXkXkXsXsXsXkXkXkXjXsXfXfXaXaXaXaXaXaXpXpXpXpXiXyXyXyXiXtXtXtXtXtX9X9X9X9X0X0X0X9X9X9X7X0X7X7X7X7X6X6X6X5X4X4X4X4X4X4XW.W.Y.Y.Y.Y.Y.Y.Y.Y.W.W.4XW.4XW.T.T.T.T.T.4X4X4X4X4X4X4X4X4X4X4X4X4XT.4X4X4X4X4X4X4X4X4X4X4X4X4X4X4X4XT.T.",
"z.z.z.b.n.n.n.b.n.n.n.n.n.n.n.b.z.z.z.z.x.x.x.z.z.z.b.b.n.n.n.n.n.m.V.V.m.n.n.n.V.V.V.n.m.V.V.B.B.B.B.B.B.P.U.R.I.U.Q.T.W.W.!.7X7X7X8X9X8X8X7X7XrXrX8X7X!.W.W.T.U.I.V.n.n.x.x.j.s.d.i.{ [ U L P G p p p p p p f J J P L L ] [ } u.u.u.h.j.k.k.k.k.k.k.x.z.z.k.j.k.x.x.k.j.j.j.j.f.f.f.d.u.u.i.i.T T T U U Y T T T Y T T T T [ [ i.i.u.u.f.k.k.k.z.z.b.b.z.k.k.k.j.h.h.j.j.f.d.d.{ [ ] Y L P J N f p p i u 9 8 8 * 6 8 8 8 8 8 6 8 8 6 6 6 6 6 6 * % $ @ @ @ @ @ @ @ @ @ @ @ @ @ @ @ @ @ = = = = $ $ $ $ $ $ % % % = = % % = # % & # # @ @ @ @ @ @ @ & & & & * * > > > 9 > > > > 9 9 > > ; ; ; ; * * * * & ; ; & & & & & & & & & # # # # ; h g a B g d h a E  .~ C E C C C d d x ' 8.2X1X=X2X3X3X3X3X:X:X:X:X:X:X3X3X3X3X3X3X>X>X=X=X=X+XOX Xr.t.w.w.;.,.OX:X=X:X+X+XOX,X=X+X,X:X,X:X:X:X>X:X:X3X:X:X>X&X$X$XOX].'.3.,.z z &.&.=.>.>.2.3.4.2.3.6.6.e.).)._.{.}.oX}.}.}.].[.[.[.].[.[._.r.e.e.e._.e.).r.e.e._.[.[.[.[.).).).).)._.`.`.`.].].].].].].].]._.).).)._.'.'.'.}.}.}.`.`.`.`.`.{.}.{.{.{.)._._.e.e.t.r.r.t.t.r.r.r.r._.`.oX{.D.9.0.).0.0.q.q.q.q.q.4.>.*.S @.S n n @.@.%.*.&.&.&.&.&.;.;.;.5.;.;.;.;.;.;.>.>.;.;.2.4.2.2.2.2.4.4.3.q.q.q.t.t.0.0.0.3.,.2.q.0._.e.>.%.2.e.'.}.$XOX$X-X-X*X-XmXmX-.b *.%.,.3.3.e.).`. XOX$X=X-XMXmXMXPX/.S.S.1.1.( Q E ! ` E h g E E E ( W v v l D S D A A c g C C g C E E E c g c c c d e w 3 h Z W c d c ( ` ! ! ` ` _ _ o.~ ~ | | ~ K P P I ] I ] ] ] { { { } d.d.s.j.z.n.V.Z.U.U.U.I.I.Y.Z.B.Z.Z.V.n.n.m.B.C.Z.Z.U.Y.Y.4X5X7X9XrXtXiXaXaXaXjXkXkXkXkXkXjXkXkXkXkXkXkXkXlXlXlXzXzXzXlXlXxXzXzXzXxXxXxXxXzXzXzXlXlXlXlXzXxXxXlXlXkXkXkXlXkXkXkXkXkXlXlXxXlXkXkXkXkXkXkXkXsXsXsXkXkXkXsXsXaXaXaXaXaXaXaXpXpXpXpXpXiXyXyXyXiXtXtXtXtXtX9X9X9X9X0X0X0X9X9X9X7X0X7X7X7X7XqX6X6X6X4X4X4X4X4X4X4XW.Y.Y.Y.Y.Y.Y.Y.Y.4X4XW.Y.W.4X4XT.T.T.T.4X4X4X4X4X4X4X4X4X4X4X4X4XT.4X4X4X4X4X4X4X4X4X4X4X4X4X4X4XT.T.T.",
"b.b.b.b.b.b.n.n.n.n.n.n.b.n.n.b.n.b.b.z.z.z.z.b.z.b.n.n.n.n.n.n.M.n.n.n.n.V.B.P.B.V.m.n.n.n.V.B.B.B.n.B.B.B.P.U.Q.Q.Q.W.W.!.!.7X7X8X8X8X7X7X7X7X7X7X7X7X7X!.W.Q.U.B.B.n.z.x.x.x.j.d.} [ ] U L J G f p p p p f f J J P L U ] [ { u.u.u.h.k.k.k.z.z.z.x.z.z.z.c.z.n.b.z.z.z.z.k.k.k.j.j.f.u.u.i.i.T T T Y Y T T Y T T T T T T [ [ i.i.u.d.u.u.f.k.z.z.b.b.b.b.k.k.k.k.x.z.z.k.h.s.u.{ [ Y L P J J N N p p i i 9 6 6 6 6 6 8 8 8 6 8 8 * * * * * * = = = = $ @ @ @ @ @ @ @ @ @ @ @ @ @ $ $ $ $ $ $ $ $ $ $ $ $ * * % = = $ $ = % = # # @ @ @ @ @ @ @ @ @ @ @ & & * > * * > > > > > ; ; * * * * ; ; * * = & & & * ; & & # # # # # # # % . . w B 1 g a C a h g ! E a ~ E B d C c Z 1.1X1X2X2X3X3X3X3X3X3X3X3X3X3X3X3X3X2X2X3X3X1X=X=X:X=X+XOX Xr.t.t.&.;.t.:X2X3X:X3X+X+XOXOXOXOX,X,X=X:X:X:X:X3X3X:X:X=X=X&XOX+XOX`.3.3.n z n n >.e.r._.).e.0.3.,.>.3.6.).e.).}.'.OX}.OX}.}.].[.[.].[._._.r.r.e.e.).e.)._._.).[.].}.]._.).)._._.).).}.}.}.].`.}.].}.`._._._.).).).).)._.}.}.}.}.].}.`.'.`.`.`.{.}.}._._.[.[.r.t.t.r.r.r.r.e.e.0._.'.{.{.D.0.).).0.0.0.q.q.q.q.3.2.>.%.@.n n S @.@.@.&.&.&.&.&.=.&.&.>.;.;.>.>.>.>.,.;.;.>.>.,.2.2.2.2.2.3.q.q.q.q.q.q.e.q.q.,.;.,.3.0.e.`._.>.&.3.).}.}.$X$X=X=X=X*X-X-XmX{.m *.%.,.3.3.e._.`.].OX$X-X*XmXPXnXPXIXS.S.X.1.X.Q W Q W c c ~ E W Q ( ' v v v b S D A A x C g g g E ! ~ E E d c c d d h a 3 g C c c g E  .` ! !  . ._  .! ~ _ ~ | ~ K P L ] ] ] { { } } d.d.d.g.j.x.z.b.V.B.Z.U.Y.Y.T.W.W.U.I.Z.Z.Z.B.m.B.C.C.Z.Z.U.U.Y.4X4X5X0X9XyXpXaXaXjXjXkXjXjXjXkXkXkXkXkXkXkXkXkXzXlXlXzXlXzXzXlXlXlXzXzXzXzXlXlXxXxXxXxXzXlXlXlXlXlXlXzXlXlXlXlXlXlXlXkXkXkXkXkXkXkXkXkXkXkXkXsXjXjXkXkXkXsXsXsXaXaXaXaXaXaXpXpXpXpXpXpXyXyXyXyXyXtX9X9X9X9X9X9X9X9X9X9X0X0X0X0X0X7X0X7X7X7X6X6X0X6X6X5X4X4X4X4X4X4X4XW.Y.Y.Y.W.4X4X4X4X4X4XW.W.T.T.T.T.4X4X4X4X4X4X4X4X4X4X4X4X4X4X4X4X4X4X4X4X4X4X4X4X4X5X5X4X4X4XW.Y.Y.",
"b.n.b.b.b.b.b.b.n.n.n.n.n.b.z.z.z.z.z.z.z.z.z.z.z.b.b.b.b.n.n.n.n.n.V.n.n.n.B.B.B.V.n.n.n.n.V.B.B.B.B.B.B.B.P.P.U.Q.Q.W.W.!.!.7X8X8XrXrX8X7X8X8X7X7X7X7X7X!.W.Q.I.B.V.n.z.x.x.j.s.d.} [ ] U L J G f p p p p p f J K P L U ] [ } u.u.u.h.k.k.k.c.z.z.z.z.z.c.c.z.M.M.n.b.z.z.z.z.z.z.k.j.j.u.u.i.i.T T T Y T T T T T T T T [ [ { i.i.u.u.s.s.j.k.z.z.b.N.N.b.b.b.z.z.z.z.z.k.j.f.u.i.{ Y L L P J J N f p i i 9 8 6 6 6 6 6 8 6 6 6 * * * * * % = = = = $ $ @ @ @ @ @ @ @ @ @ @ @ @ @ $ $ $ $ $ $ = $ $ $ $ $ * * % = = $ $ $ # = & & # # # # # @ @ @ @ @ @ @ & & & & * * * > * * * * * * * * * * = = & & # & & & & & & & & & & # # % # 7 g s d h w g w C W E h d ( C d d d ^ J.2X1X<X2X2X3X3X3X3X3X3X3X3X3X3X3X3X3X3X2X3X1X3X=X=X:X+X X X Xr.w.;.w. X3X:X:X3X3X=X+X+X+X+X,X,X,X:X:X:X:X:X:X3X3X:X=X=X=X+XOXOX].e.e.>.z k n >.e.].OXOX,XOX}.}.).3.>.=.3.e.).).{.'.{.}.}.}.}.]._.).[._._._._.r.e.e.e.)._.[.[.[.[.].].`._.].].]._._.}.}._._._.`.}.}.}._.).).).)._._.).'.`.}.}.}.{.`.'.`.}.].`.}.}.'.)._.[.[.[.r.e.e.r.t.t.e.)._._.'.}.}.D.0.).).0.).0.0.q.q.q.3.2.,.&.&.@.n @.@.#.#.@.%.&.&.&.&.=.>.>.;.;.>.>.>.,.2.,.,.2.2.,.>.>.>.,.,.3.q.0.q.q.q.0.q.3.>.%.%.;.q.0.e._.e.&.=.0.`.}.OX$X$X=X=X=X*X;XmXMX>X%.S 5.4.3.e.)._.'.].OX+X=X*XmXMXnXMX;X1.1.1.' ` Q c E Q E W ` E Q (  .^ v l v D / D A x c C C C C E ! Q ~ E g c g e h h w h c c c E W W ! ! ! ! _ ! !  ._ _ _ P | ] L L ] ] { { } u.d.s.s.g.j.x.x.b.n.V.B.I.Y.Q.W.W.W.4XT.Y.U.U.I.Z.B.V.C.B.C.Z.Z.U.U.Y.4X4X5X0X9XtXaXaXaXjXjXkXjXjXjXkXkXkXkXkXkXlXkXkXzXzXxXxXlXxXxXxXlXlXlXzXzXzXlXlXzXzXzXzXlXlXlXlXlXlXlXzXlXlXlXlXkXkXkXkXkXkXkXkXkXkXkXkXkXfXkXsXjXjXkXkXkXsXsXsXaXaXaXaXaXaXaXpXpXpXpXpXyXyXyXyXyXtXtXtX9X9X9X9X9X9X9X9X9X0X0X9X0X0X7X7X7X7XqXqX6X6X6X4X4X4X4X4X4X4XY.Y.Y.Y.Y.Y.W.4X4X4X4X4XW.Y.T.T.T.T.4X4X4X4X4X4X4X4X4X4X4X4X4X4X4X4X4X4X4X4X4X4X4X4X4X5X5X4X4X4XW.Y.Y.",
"b.b.b.b.b.b.b.b.n.n.n.n.b.b.z.z.z.z.z.z.z.z.z.z.b.z.b.b.n.n.n.n.m.m.m.n.n.n.V.B.B.B.n.n.n.n.m.m.B.m.B.B.B.B.B.P.U.Q.Q.R.W.!.!.7X7XrXrXrX8X8X8X8X7X7X7X7X7X!.W.Q.I.B.V.V.n.z.x.s.s.u.i.[ ] U L J G f p p p p f f G P L L U ] [ } u.u.h.k.k.z.z.c.c.c.c.c.c.M.M.n.m.m.V.m.M.b.b.n.z.z.z.z.k.j.s.u.i.[ T T U Y T T T T T T T [ [ [ i.i.i.u.s.f.j.x.z.b.b.N.N.N.b.b.b.b.b.b.z.z.k.j.u.i.{ ] Y L P J N N f p i i 9 8 6 6 6 6 6 6 6 6 6 * * 6 6 * % $ = $ $ $ $ $ $ $ @ @ $ @ @ @ @ @ @ @ $ $ $ $ $ $ = $ $ $ $ $ * * * = = = $ $ $ $ = = # # # # @ @ @ @ @ . . . . @ & & & & & * * * & & * * * * & = * = = = * * & & * * * & & & # # @ # ; 0 g s g 9 1 d h E C g h C ` Z d e 1.1X<X1X2X2X2X2X3X3X3X2X3X3X3X3X2X2X2X3X2X2X2X3X3X1X=X=X+XOX X[.q.,.,.q.OX3X3X3X=X3X3X&X+X+X+X,X:X:X:X:X:X:X:X:X:X3X:X=X=X=X&XOX].]._.0.3.n k z =.).OXOX,X,X:X:X:X,X}.].3.>.&.3.e.3.}.`._.}.}.}.}.`.).).)._._._.).).).e.).).[.[.].}.[._.[.[.].}.}.].}.}.}.}.).)._.`.}.}._.).).).'.`.`._.'._.`.`.`.`.].}.'._.}.}.}.}.}.`._._.[.[.[.[.e.e.t.t.e.r._._.`.'.OX}.D.0.).).G.).0.0.q.2.3.3.3.3.,.=.%.@.@.@.@.@.@.#.&.&.&.&.>.>.>.;.;.>.,.,.2.2.2.2.2.2.2.,.,.,.,.,.3.3.3.3.2.2.;.&.>.&.&.,.,.q.e.e._.0.%.;.).}.}.OX$X$X=X=X=X-X;XmXmXMX4.m >.,.3.e.)._.'.`.OX$X*X-XmXmXnXnXnX1...S. .( ( c E ( ! ( X.! ( X.1.' D D S %.%.^ A x d C C C C E Q Q Q E c g h w w h w g C c C E Q E E Q ! ! ! ~ !  ._ _ _ P ] ] ] ] { } } d.d.s.j.j.x.x.z.c.n.V.B.I.U.T.W.4X6X4X6X6XW.W.T.U.U.I.Z.B.C.C.Z.Z.C.U.Y.Y.4X4X6X0X9XtXiXaXsXsXjXkXjXkXjXkXkXkXkXkXlXlXlXlXxXxXxXxXxXxXxXxXlXlXxXzXzXzXkXkXkXkXkXlXkXzXxXzXlXlXkXkXzXzXkXlXkXkXkXkXkXkXkXkXkXkXkXfXkXkXkXkXjXjXjXjXsXsXsXaXaXaXaXaXaXaXaXaXpXpXpXpXyXyXyXyXtXtXtXtX9X9X9X9X9X9X9X9X9X0X0X9X7X7X7X7X7X7X0X0X6X6X5X4X4X4X4X4X4X4XT.Y.Y.Y.Y.Y.W.W.T.T.Y.Y.Y.Y.T.T.T.T.T.T.4X4XT.4XT.4X4X4X4X4X4X4X4X4X4X4X4X4X4X4X4X4X4X5X5X4XW.W.T.Y.U.",
"z.z.b.b.n.V.V.V.n.b.b.n.b.b.b.b.z.b.b.b.b.b.b.b.n.b.b.b.n.n.n.n.n.n.n.n.n.n.m.m.B.m.m.n.n.n.n.m.B.V.n.B.B.B.P.P.R.Q.Q.R.W.!.!.7X8XrXrXrX8X8X8X8X7X7X7X7X7X!.W.Q.U.B.V.V.n.z.x.s.d.u.i.{ ] U L J H p p p p p f f G P L L Y ] [ } u.u.h.k.k.z.c.c.c.c.n.n.n.m.P.P.B.B.B.B.m.M.M.m.b.b.b.b.z.k.f.u.i.i.T T Y Y Y T T T T T T [ [ { i.i.u.d.f.f.k.z.k.z.b.b.N.N.N.N.N.M.M.b.b.z.k.k.s.u.{ ] Y L P J J N N p i 9 9 8 6 6 6 6 6 6 6 6 6 6 6 6 6 6 % % $ $ $ @ @ $ $ $ @ @ @ @ @ @ @ @ @ $ $ $ $ $ $ $ % $ $ $ = = * * * = = = # # # # = & # # @ @ @ . @ @ @ . . . . . = = & & & & & & & & & * * * & = = * * * * * * & & & * & # # @ @ # ; 9 i s B w ; a C C B a C C d Z e C H.mX*X2X2X2X2X2X2X2X2X2X2X2X3X2X3X2X2X2X2X2X2X2X3X:X=X=X+X X Xr.q.,.,.[.:X3X,X,X3X3X=X&X3X=X=X:X:X:X:X:X:X:X:X:X:X:X:X:X=X=X&XOX|.'.`.).3.*.k M &.3.[.]. XOXOX,X,X=X:X$XOX}.e.=.%.3.e._.}.}.}.}.`._._._._.).)._.).).).).e.[.[.[.].}.].[.)._._.[.[.}.).).).}.).).).)._._._.).).)._.}.}.`.).'._.`.}.`._.].}.].'.`.}.}.].].}.[._.).).r.r.e.e.e.t.r.[._.).`.].}.{.D.0.0.).0.e.).0.q.3.3.3.3.3.3.,.&.%.@.@.@.@.@.#.&.&.&.&.&.&.>.>.>.>.>.,.,.,.,.,.>.>.>.>.,.2.,.>.>.>.>.>.;.;.#.%.;.>.2.0.q.2.e._._.3.@.>._.}.OX$X$X$X=X:X:X-X-X-X-XmXOXS *.>.3.e.)._.'.{.OX=X=X-X<XmXMXnXnXH.1.S. .Q  .E c ! ( Q X.X.X.X.1.1.) ) %.%./ D A c d C C C E ~ Q ! E C C h h d w a a g g E W C E E E Q ! ! ! ! ! | | | _ L ] ] ] { } d.d.s.h.x.z.z.z.z.n.V.B.I.U.Y.W.4X6X7X6X6XqX7X4X4XW.W.U.I.Z.B.Z.Z.Z.Z.U.U.Y.Y.4X4XqX0X9XtXiXaXsXjXjXkXkXkXkXkXkXkXlXlXlXlXlXlXzXxXxXxXxXxXxXxXlXlXxXxXxXzXkXkXzXzXzXzXzXlXzXzXkXkXkXkXzXzXkXkXlXlXlXkXkXkXkXkXkXkXkXfXsXsXkXkXsXsXsXsXsXsXsXaXaXaXaXaXaXaXaXaXpXpXpXpXyXyXyXyXtXtX9XtXtX9X9X9X9X9X9X9X9X9X9X9X0X0X0X7X7X7X0X0X6X6X6X5X4X4X4X4X4X4X4X4XW.W.W.4XY.Y.W.Y.Y.Y.Y.Y.T.T.T.T.T.T.T.4XT.T.T.4X4X4X4X4X4X4X4X4X4X4X4X4X4X4X4X4X5X6X5X4XW.W.Y.U.C.",
"z.z.b.b.n.n.V.V.b.b.b.n.n.n.n.b.z.z.z.b.z.z.z.z.b.b.b.b.n.n.n.n.n.n.n.n.n.n.n.n.n.n.n.n.n.n.n.n.B.n.n.V.B.B.P.U.Q.Q.Q.R.W.W.!.7X7X8XrXrX8X8X8X7X8X7X7X7X6XW.T.Q.U.B.V.n.z.x.j.s.u.u.i.[ ] U L J f f p p p p f G J P L L ] ] [ } u.h.h.k.k.c.c.c.c.n.m.M.m.P.P.P.I.P.P.P.I.B.B.n.M.M.n.n.b.x.j.s.u.i.T T T T T T T T T T [ { i.i.i.u.u.d.s.f.k.z.z.z.b.b.N.N.M.N.m.m.m.N.M.b.z.k.h.u.{ ] Y L P P J J N f i 9 8 8 6 6 6 6 6 6 5 5 6 5 5 % % % % $ $ $ $ $ @ @ $ $ @ @ @ @ @ @ @ @ $ $ $ $ $ $ = = % % * * * * * * % % * = % % % = = = # # @ @ @ . @ @ @ . . . . @ @ @ # & & & & & & = * * * * = = = = = * * & & # & & * & # # # & 8 9 9 s s d 9 9 B E g d h W g d x ' *X2X-X2X2X2X2X2X2X2X2X2X2X2X2X2X2X2X2X2X2X2X2X3X3X=X=X+XOX X Xr.3.,.q.,X3X:X:X:X3X3X3X=X=X3X:X:X:X:X:X:X:X:X:X:X:X:X:X:X=X=X+XOXOX`.'.).3.>.z k n 3.e._.`.OX+X$X$X$X=X:X:X$X,X X3.#.>.3.)._.}.}.}.`._.}.[._.)._.).e.e.).).).[.[.[.[.[.[.).).).).).).e.e.6.e.).).4.4.).).).).).'.{.}.}.}._.).).)._.`.}._._.}.).).}.}.].}.}.).).).).).e.e.e.e.e.t.r._.).).[.}.}.{.).G.G.).e.).).0.q.q.q.4.3.3.3.3.,.;.*.@.@.#.@.@.%.&.&.&.&.&.&.>.>.>.>.>.,.,.,.,.;.;.;.;.;.>.;.;.&.&.&.&.&.&.%.>.>.3.q.q.t.q.e.e.).,.@.4._.}.OX$X$X=X:X:X:X>X-X-XmXmX2X%.%.2.3.e.)._.'.].+X=X=X-X-XmXMXnXPXnXS... .Q ( Q C W ( Q X.1...X.1.1.) ) %./ D A C C d C C C Q W Q ! E g g h h g a w h g g E W C E ~ Q ! ! ! o._ | | } ] ] ] | [ { s.d.s.j.j.x.z.n.n.n.V.B.Z.U.Y.W.W.6X7X0X0X0X0X0X0X7X7X6XW.T.U.Z.B.Z.Z.Z.Z.C.U.Y.T.4X6X0X9X9XtXiXaXsXjXjXkXkXkXzXkXlXlXlXzXzXkXxXxXkXkXzXxXxXzXlXlXlXxXxXzXlXlXlXlXxXxXxXxXxXzXzXzXzXzXlXkXlXlXkXkXlXlXlXkXkXkXkXkXkXkXkXsXsXsXkXkXsXsXsXsXsXsXsXsXaXaXaXaXaXaXaXaXpXpXpXpXpXyXyXtXtXtXtXtXtX9X9XtX9X9X9X9X9X9X9X9X7X7X7X7X7X7XqX0XqXqX6X6X4X4X4X4X4X4X4X4XW.W.W.4XY.Y.Y.Y.W.Y.Y.Y.Y.T.T.T.T.T.T.4X4X4X4X4X4X4X4X4X4X4X4X4X4X4X4X4X4X4X4X6X6X6X5X4XW.W.Y.Z.C.",
"b.b.b.b.n.n.n.b.n.n.n.n.n.b.z.z.z.z.z.z.z.z.z.z.b.z.b.b.n.n.n.n.M.n.n.n.n.m.m.n.m.m.n.n.n.n.n.n.B.n.n.n.V.B.I.Q.Q.Q.Q.Q.W.W.7X7X7X8XrXrX8X8X7X7X8X7X7X7X!.W.T.Q.U.B.V.n.x.j.j.s.u.u.{ [ Y U L J f f p p p p f G J P P L ] ] [ } s.h.k.z.c.c.c.c.M.m.P.P.P.P.R.R.R.R.U.U.U.U.P.B.m.m.n.n.n.z.k.f.u.i.T T T T Y Y T T T T [ i.i.i.i.u.u.s.s.s.k.z.b.b.b.N.M.N.m.m.m.m.C.m.m.N.z.k.k.s.} [ ] L L P P J N p i 8 8 8 6 6 6 6 6 6 5 5 5 % % $ $ % $ $ $ $ $ $ @ $ $ $ @ @ @ @ @ $ @ $ $ $ $ $ $ $ = = * 6 6 = * * * * % % = = * * * = = = # # # @ @ @ @ @ @ . . . . @ @ @ @ & & & & & & & = = * * * = = = * * * & & & & * * & # # * ; 9 9 * s C ; w s g g w d C d w W 8.1X2X1X2X3X2X2X2X2X2X2X2X2X2X2X2X2X2X2X2X2X2X3X3X3X:X=X,XOX X X0.q.q.r.,X3X3X:X:X:X:X:X3X3X:X:X3X:X:X:X:X:X:X:X:X:X:X:X:X=X=X+XOXoX X`._.e.,.#.k M =.3.e._. X+X,X=X$X$X=X:X:X:X,XOX}.>.@.,.e._.}.}.}.`.}.].[.).)._.).e.e.)._.)._.[.[.).).e.e.).e.6.6.6.6.3.3.3.6.3.4.4.4.).).)._.{.}.}.}.`._._.'.)._.}.}._._.}.4._.}._.).}.}.0.).).[.[.).e.e.e.e.t.e.e.).)._.}.}.{.'.G.0.e.).).e.0.0.0.0.3.3.3.3.3.3.,.&.*.%.&.@.#.#.%.*.&.&.&.&.&.>.>.>.>.,.2.2.,.>.;.;.;.,.2.;.;.;.&.&.&.&.&.&.>.>.3.0.0.'.r.0.0.).;.%.4.}.}.}.OX,X=X:X:X:X>X2X-X2X2XMX9.%.>.3.e._.'.'.{.OX$X=X-X*XmXMXnXPXLX/. . .( ( Q W E E W ..1.1.1.1.1./ *.-.%.D Z E C d C C W W C E E E d h g g h a h g E C C E E E E E ! ! _ o._ | } } | ] } { { } s.j.j.x.z.n.V.V.V.B.B.I.U.T.W.6X6X7X0X0X0X0X0X9X9X9X7X7X6XW.U.I.B.C.C.C.Z.Z.Z.Y.T.5X6X0X9X9XtXiXaXsXjXjXkXkXkXzXkXzXlXlXlXzXzXxXzXkXkXkXkXzXzXlXlXxXxXxXxXxXxXxXxXxXxXxXxXxXzXzXzXzXzXzXkXlXkXkXkXkXkXkXkXkXkXkXkXkXkXkXkXsXsXsXsXsXsXsXsXaXaXsXsXaXaXaXpXaXaXpXpXpXpXpXpXpXyXtXtXtXtXtXtXtX9X9XtX9X9X9X9X9X9X9X0X7X7X7X0X7X7XqX0X0X6X6X6X5X4X4X4X4X4XW.T.Y.Y.Y.Y.Y.Y.Y.Y.W.Y.Y.Y.Y.T.T.T.T.T.T.4X4X4X4X4X4X4X4X4X4X4X4X4X4X4X4X5X5X5X5X6X6X5X4X4XW.T.Y.C.V.",
"b.b.b.b.b.n.b.b.n.n.n.n.n.b.z.z.b.b.b.z.z.z.z.z.z.b.b.b.b.n.n.n.n.M.n.n.B.B.m.n.n.n.m.m.n.m.n.n.B.n.n.V.B.B.P.U.U.Q.Q.Q.W.!.7X8X8X8XrXrX9X8X7X9X8X7X7X7X!.W.T.U.P.B.V.n.x.j.j.g.d.u.{ [ Y U P J f f p p p f f G J P P L ] [ { } s.h.z.c.c.c.c.c.M.V.P.P.P.R.E.R.R.R.T.T.T.Q.U.I.I.B.m.m.m.b.x.j.u.i.T T T T T U U T T T [ { i.i.i.i.u.d.s.f.k.k.b.b.N.N.N.N.m.C.C.C.m.m.m.M.b.z.k.s.i.[ ] Y L P P J N p i 8 8 8 6 5 5 5 5 5 5 5 % % $ $ $ $ $ $ @ @ $ $ $ $ $ $ $ $ $ $ $ $ $ $ $ $ $ $ $ % % = % 6 = = = = * * * * * * = = = % = = # # # @ @ @ @ @ @ . . . . . . @ @ @ & & & & # # & & = = = = = = * * * * * * & & & # # & * 8 > 9 > g B & s d s w 9 d d C Q G.<X*X2X2X3XmXMX2X2X2X2X2X2X2X2X2X2X2X3X3X2X2X2X3X3X:X=X+XOX Xr.t.w.q.OX3X3X,X+X3X:X,XOX:X:X:X:X:X:X3X3X3X:X:X:X:X:X3X:X:X=X=X&XOXOXOX`.'.0.3.%.M k @.,.3.e.`.OXOX,X$X$X$X=X=X:X:X:XOX Xr.@.&.6.].}.}.}.`.}.}.[.).[.[._.e.)._._.).)._.).e.e.6.6.6.3.3.3.3.3.3.>.>.4.4.4.4.4.G.).).`._.{.{.{.{._.).}._._.}.}._._._.0.).}.).).}.}.).).[.].[._.e.e.e.e.t.e.e.).).).`.}.{.D.0.0.0.e.0.e.0.0.r.0.q.3.3.3.3.3.3.>.;.&.&.*.%.%.%.&.*.&.&.&.&.=.>.>.,.,.,.,.>.2.2.2.2.2.2.,.,.>.&.&.&.&.&.2.2.3.0._.r.r.0.r.0.0.%.%.4.}.}.}.OX,X=X:X:X:X>X2X-X-X-XmX$X;.;.3.0.).'.'.{.OX@X=X-X-XmXmXnXMXLXnXX. .( Q E Q c c W 1.1.1.S.S.<.-.-.-./ Z C E B d x C W C c C C C d h g g a d C C E E C B E E E E ! _ _ | | | } h.u.[ d.} } d.s.x.z.c.n.V.B.B.B.I.U.T.W.4X6X7X9X9X9X9X9X9X9X9XtX9X9X7X6X4XW.U.I.Z.Z.C.Z.Z.Y.Y.T.6XqX0X9X9XtXiXaXsXjXkXkXzXzXzXkXzXlXlXlXzXzXzXzXlXlXlXlXzXzXxXxXxXxXxXxXxXxXxXxXxXxXxXxXxXxXlXlXxXzXxXlXlXkXkXkXkXkXkXkXkXkXkXkXkXkXkXkXkXsXsXsXsXsXsXaXaXaXaXsXaXaXaXpXaXpXpXpXpXpXpXpXpXyXtXtXtXtXtXtXtX9X9XtX9X9X9X9X9X9X0X0X7X7X0X0X0X7X0X0X6XqX6X6X5X4X4X4X4X4XT.Y.Y.Y.Y.Y.Y.Y.W.W.W.W.Y.Y.Y.T.T.T.4X4XT.4X4X4X4X4X4X4X4X4X4X4X5X4X4X4X4X5X5X5X5X5X5X4X4XT.Y.Y.U.Z.V.",
"z.z.b.b.n.n.n.b.n.n.n.n.n.n.n.b.b.b.z.z.z.z.z.z.z.b.n.n.n.n.n.n.n.n.n.n.B.B.B.n.n.n.n.m.n.n.n.n.B.n.V.B.B.B.P.U.U.U.R.Q.W.!.8X8X8XrXrXrXrX9X9XrX8X7X7X7X!.W.Q.Q.B.V.V.n.x.j.j.j.s.u.{ ] Y U P G G f p p p p f G J P P L ] ] [ } s.h.c.c.c.c.c.c.P.V.P.P.R.W.W.E.R.!.!.!.W.Q.R.R.I.B.m.m.m.M.z.j.g.i.[ T T T T T T T T [ [ i.i.i.u.u.u.u.f.j.k.k.b.b.N.N.N.N.m.C.P.I.C.N.N.N.b.z.j.s.u.{ [ ] L P P N p i i 8 8 8 6 5 5 5 5 5 5 5 $ $ $ $ % $ $ $ @ @ $ $ $ $ $ $ $ $ $ $ $ $ $ $ $ $ $ $ $ % % % * = $ $ $ $ % = * * * * = % = = = # # # @ @ @ @ @ @ @ . . . . . . . @ @ @ & # # # # # # # = = = = % = % & & & & # # # # @ # * 8 * > a B a 9 h s B w w e 3 1.1XMX1X2X3X2XMX2X3X2X2X2X2X2X2X2X2X2X2X2X3X3X3X3X3X3X:X:X+XOX Xr.t.w.q.OX3X3X:X:X3X:X=X:X:X,XOX,X:X3X:X3X3X3X:X:X:X:X3X3X3X:X=X=X+XOXOX`.'.0.2.=.n k n >.3.3.e.`.OX$X$X$X$X$X=X-X>X:X,XOX_. X>.#.>._.}.}.{.`.}.}.]._.).[.[.).)._._.).).).e.e.6.6.3.3.3.>.>.>.>.>.>.>.5.4.4.4.3.G.).).}._.'.'.{.{.).).}._.)._.}.).).)._.).).}.).).}.}.].}.].[.e.e.e.t.6.e.e.).e.e.).}.}.{.D.0.4.e.).0.e.0.e.r.e.0.3.3.3.3.3.3.3.,.>.=.&.&.&.#.#.&.&.&.&.&.&.;.>.,.2.,.;.>.>.2.2.,.>.;.,.,.;.&.%.&.;.>.2.2.e.r.r._.0._._.e.0.n %.4._.}.}.OX,X,X:X:X:X>X<X<X2X=X=X>X4.;.2.3.0._.'.].OXXX=X>X-XmXmXMXnXLXPX8.X. .Q c ! W c W X.X.1.1.1.1.1.-.%.) c C E C d d C Q C g C g d g d g d a C ~ C B ~ E E Q W E ! _ _ o.X.X.| } h.h.{ h.} s.k.x.z.c.n.V.B.I.I.I.U.Y.T.W.6X7X9X9X9X9X9X9X9X9XtXtXrX9X7X7X6XW.Y.I.Z.Z.C.C.Z.Y.T.4X6X0X0X9XtXyXiXaXjXjXjXkXkXkXzXkXlXlXlXzXzXzXzXzXlXlXxXxXxXxXxXxXxXxXxXxXxXxXxXxXzXlXlXlXlXxXxXxXxXxXxXlXlXkXkXkXzXzXzXkXkXkXkXkXfXfXkXkXkXsXsXaXsXsXaXaXaXaXaXsXaXaXaXaXpXpXpXpXpXpXpXpXiXyXtXtXtXrXtXtXtX9X9XtX9X9X9X9X9X9X0X0X0X0X0X0X0X0X0X0X6X6X6X5X4X4X4X4X4X4X4X4XY.T.Y.4XY.W.W.W.W.W.Y.Y.Y.T.T.T.4X4X4X4X4X4X4X4X4X4X4X4X4X4X5X5X4X4X4X6X5X4X4X4X4X4XT.Y.Y.U.Z.B.n.",
"b.b.b.b.b.b.V.V.V.V.b.b.b.b.b.b.z.z.z.b.b.z.z.z.z.z.n.n.n.z.n.n.n.n.n.n.n.n.n.n.B.m.V.V.n.n.n.n.m.m.m.B.P.P.P.P.R.R.R.T.!.!.8X8X8X8X8X8X8X8X8X8X8X8X8X7X7X!.W.W.B.V.n.n.z.k.j.h.u.i.[ ] Y L P J f p p p p p f J P L L L ] [ { u.s.k.l.c.M.M.M.M.K.K.P.P.R.E.!.!.7X!.!.!.!.!.T.Q.U.U.P.P.B.n.z.j.j.u.[ T T T T T T Y T [ [ i.i.i.u.u.s.f.j.j.j.k.z.b.M.M.M.M.m.m.P.P.P.P.m.M.z.z.h.s.u.{ [ Y L P K N i i 8 8 8 6 6 6 5 6 5 5 5 5 5 5 5 5 5 $ $ $ $ $ $ @ @ @ $ $ $ $ $ $ $ $ $ $ @ @ $ = % % * * % * * % = * * % * = = = = = = = & & & & & # # @ @ @ @ @ @ . . . @ @ . @ @ # # @ # # # # # # = = = % % % # # # # # # @ $ # # & & > & d a 9 s 9 Q w w 3 e 8.<X2X-X2X2X2X2X2X2X2X2X2X2X2X2X2X2X2X2X2X2X2X3X3X3X:X=X=X+XOX[. Xt.w.q.:X3X3X3X:X3X3X=X>X>X:X:X+X,X:X:X:X:X>X3X3X3X3X3X=X3X:X3X:X=X+X|.`.`.r.0.;.n k k &.3.3.3._.OX$X$X=X=X$X$X=X:X:X$X+X+X].}.3.+.=.6.).}.}.}.}.}.`.'.].`.).)._.}.[.e.e.6.6.6.6.3.,.,.>.=.=.=.>.5.5.5.>.4.e.3.0.0.).).).{.`.{.'.{.{.`.`._.).).).}.}.).}.}.).}.}._.].}._._.[.[.).e.e.e.e.e.e.e.e.).).}.{.{.).).0.0.0.0.e.e.).e.0.3.3.e.3.3.3.3.3.,.,.,.=.=.&.#.#.#.#.#.@.%.*.;.;.;.<.2.:.,.,.;.;.,.,.>.>.;.&.&.&.&.,.q.3.3.e._._.0.0.'.r._.2.n =.4.).}.}.OX$X$X=X&X=X=X2X<X2X<X=X=X|.2.;.0.0.0.'.'.OX$X$X-X>X2XmXMXnXMXLX(.! .. .g E Q W ^ ' 1.' 1.1.1.1.( W Z c C E d d g c E C g g B g B C d a g E g B E E E E E E Q ! _  . .| } } } } s.h.h.h.h.x.z.n.M.m.B.I.U.U.U.T.W.4X6X7X9X9X9XrXrXtXtXtXrXrX9XrXrXrX9X7X6XW.Y.U.U.U.Y.Y.Y.W.W.5X6X0X9XtXtXiXpXsXjXkXkXkXzXkXkXlXlXxXxXzXzXkXkXlXzXlXxXxXlXzXlXlXlXlXlXlXlXzXzXlXlXlXlXlXlXxXxXzXzXlXlXlXkXkXkXkXkXkXkXkXkXkXkXkXfXfXfXfXfXaXaXaXaXsXaXaXaXaXaXaXaXaXpXaXpXpXpXyXpXpXpXpXyXtXtXrXrXrXrXrXrX9X9X9X9X9X0X0X9X9X9X7X7X7X7X7X7X7X7X7X7X6X4X4X4XW.4XW.W.W.W.W.W.W.T.Y.Q.W.W.W.W.Y.Y.T.T.T.4X4X4XT.T.T.4X4X4X4X4X4X5X4X4X4X4X4X6X5X5X4X4X4X4X4X4XT.T.U.B.B.V.n.",
"b.b.b.b.b.b.n.V.V.V.b.b.b.b.z.z.z.z.z.z.z.z.z.z.z.b.n.n.n.n.n.n.n.n.n.n.V.n.V.n.n.n.m.m.n.n.n.n.m.n.n.m.B.B.P.P.R.R.R.!.!.!.7X8X8X8X8X8X8X8X8X8X8X8X8X8X7X!.T.Q.B.V.n.b.z.j.h.s.u.i.{ ] ] L P J G f p p p p f J P L L U ] [ { u.u.h.l.c.M.M.M.K.P.P.P.R.E.!.~.8X8X8X7X7X7X!.!.W.Q.Q.U.U.P.B.M.k.j.u.[ T T T T T Y Y T [ [ { i.i.u.u.u.s.f.j.k.z.b.b.M.N.M.m.m.I.I.I.I.P.m.N.b.z.j.s.i.[ ] Y L P N N i 9 9 8 6 8 6 6 6 5 5 5 5 5 5 5 5 5 $ $ $ $ $ $ $ $ @ @ @ @ @ @ $ $ $ $ $ $ @ @ $ = = % % * % % % = = * * % $ = # # = = = = & & & & # # @ @ @ @ @ @ . . . . @ . . @ @ @ # # # # # # # = = = # = % % % % # # # # # # # # & & . a s 9 s ; d C 3 ; e 8.MX2X2X2X2X2X2X2X2X2X2X2X2X2X2X2X2X2X2X2X2X2X3X3X3X:X=X=X+X+X X Xr.q.3.:X3X2X2X3X3X3X3X:X=X=X=X+X+X:X:X:X:X3X3X3X3X3X3X3X2X3X=X3X:XOXOX|. X'.0.2.@.k 4 n >.3.3.0.].].$X=X=X$X=X:X:X=X$XOX+X+XOX}.e.@.=.6.).}.OX}.}.}.{.{.].`.).)._.[.).6.6.6.6.6.3.>.>.>.=.&.&.=.5.5.5.5.4.3.).e.0.0.0.).).{.`.{.{.{.{._._._.).).).}.}.}.).).).}.}.).}.].[.[._._.).e.e.).e.e.e.e.e.)._.}.{.}.{.).G.0.0.0.e.e.).).).e.0.3.e.6.3.3.3.3.3.,.>.=.=.&.&.&.&.&.@.%.*.;.;.;.;.;.;.;.;.;.;.;.>.;.&.&.&.&.&.,.,.q.3.t._.r.0.0.D.'._.e.;.b ;.3.).`.}.OXOX$X&X=X=X-X<X<X2X2X=X3X:X|.:.2.0.r.'.`.OXOX$X=X2X2XmXmXMXMXLXnX..X.Q d C W ( ' 1.1.-.1.1.1.1.` W c C W C g d c c E C g C C E C g d h B E g E ~ Q E E E ~ ! ~ o. .X.} } } } d.h.h.h.h.k.z.c.n.m.B.I.U.T.W.W.4X4X6X7X0X9XrXrXtXtXtXtXtXrXrXrXrXrX9X9X0X6XW.Y.Y.Y.Y.Y.Y.Y.W.4X5X0X9X9XtXtXaXaXsXjXkXkXzXzXkXkXkXlXxXxXzXzXkXkXlXzXlXxXxXzXzXzXlXlXlXlXlXlXlXzXlXlXlXlXlXlXlXlXzXzXlXlXlXkXkXkXkXkXkXkXkXkXkXkXfXfXfXfXfXaXaXaXaXaXsXaXaXaXaXaXaXpXaXaXaXpXpXyXpXyXpXpXpXyXtXtXrXrXrXrXrXrX9X9X9X9X9X0X0X0X9X9X7X7X7X0X0X7X7X7X7X7X6X4X4X4XW.W.W.W.W.W.T.Y.Y.Y.Y.Y.W.W.W.W.Y.Y.T.T.T.4X4X4XT.T.T.4X4X4X4X4X4X5X4X4X4X4X4X4X5X5X4X6X6X4X4X4XT.W.I.B.B.V.n.",
"b.b.b.b.b.b.b.n.b.b.b.b.n.b.z.z.b.b.z.z.z.z.z.z.z.z.b.n.n.n.n.n.n.n.n.n.V.V.n.n.n.m.m.n.n.n.n.n.m.M.M.m.m.B.P.P.R.R.R.!.!.!.7X8X8X8X8X8X8X8X8X8X8X8X8X8X7XW.Q.U.B.V.n.b.x.h.s.s.d.u.{ ] ] U P J G p p p p p f J J L L U ] [ { u.u.k.l.c.M.K.K.P.P.P.P.R.!.~.8XwX8X8X8X8X8X7X!.!.W.W.Q.U.U.P.n.z.k.u.{ [ T T T T T [ [ [ [ [ i.u.u.u.s.f.j.k.z.z.b.b.M.M.m.m.C.I.I.I.I.P.m.N.b.x.j.s.} [ ] Y L P N s i 9 9 8 6 8 6 6 5 5 5 5 5 5 $ $ $ $ $ $ $ $ $ $ $ $ $ @ @ @ @ $ $ $ $ $ @ @ @ @ @ = = % % % = % = = = * * % = = # # = = = # & & & # # @ @ @ @ @ . @ . . . . . . . @ @ @ # # # # # = = = = = % % % % % % % % # # # # % % & # @ a s 9 w w Z d ; 4 G.MX&X=X2X3X2X2X2X2X2X2X2X2X2X2X2X2X2X2X2X2X2X2X3X3X:X:X=X+X+X X Xr.q.,.:X2X2X2X2X2X3X3X>X>X=X&X+X+X=X:X:X:X>X3X3X3X3X3X3X3X3X3X=X=X:XXXOX X'._.3.@.M k k @.,.3.3.t. XOX$X=X=X$X$X:X:X$XOXOX+X+XOX].r.#.#.3.e.`.OXOX}.}.`.}._._.).)._.).e.6.6.6.6.3.,.=.=.=.&.&.&.&.=.5.5.5.4.e.).).).0.4.G.).{.}.{._._._._.{.{.{.{.}.}.}.}.).}.).}.}.)._._.[._.).).).e.e.e.e.e.e.e.e.).)._.).{.{.'.).).).).e.e.e.)._.).e.0.e.t.6.6.t.3.3.3.,.,.,.>.>.>.=.&.#.&.&.&.;.;.-.-.;.;.;.;.;.>.>.>.&.=.=.&.>.3.t.q.t.t._.r.0.r.'.0.r.0.&.b ;.3.).`.}.}.OX$X$X=X>X>X<X<X2X2X3X3X3X:Xq.:.q.'.'.]. X].+X=X-X<XmXmXnXMXPXnX..~ c g c W ' ) -.1.1.1.1.1.' ( c g E E C c g C g C C g E E E g d d d B E C ~ ! Q E E ~ E E ~ o.X.} } } u.d.h.h.h.k.j.x.c.n.B.B.I.U.W.W.4X6X6X6X7X0X9XrXtXtXiXiXtXtXtXtXtXtXtXrXrX9X7X7XW.T.W.Y.Y.W.W.W.W.4X5X0X9XtXtXyXpXaXjXjXkXkXlXlXkXkXkXkXxXxXzXzXlXlXzXzXlXxXxXlXzXzXlXlXlXlXlXlXzXzXlXxXxXxXlXlXlXlXzXzXzXlXlXlXkXkXkXkXkXkXkXkXkXkXkXfXfXsXaXaXaXaXaXaXaXaXaXaXaXaXaXpXpXpXaXpXpXyXyXyXpXtXyXtXtXtXrXrXrXrXrXrX9X9X9X9X9X0X9X9X9X9X0X0X7X0X0X7X7X7X7X7X5X4X4X4XW.W.4XW.W.W.W.Y.Y.Y.Y.Q.Q.W.T.Y.Y.Y.Y.Y.T.T.4XT.T.T.T.4X4X4X4X4X4X5X4X4X4X4X4X4X4X4X6X5X5X4X4X4XT.Y.Z.B.B.V.n.",
"b.b.b.b.b.b.b.n.n.b.b.b.n.b.z.z.z.z.z.z.z.z.z.z.z.z.z.b.n.V.V.n.n.n.V.V.V.V.V.n.n.n.n.n.n.n.n.n.m.M.n.m.V.V.P.P.R.R.R.W.!.!.8X8X8X8X8X8X8X8X8X8X8X8X8X7X!.W.R.U.B.V.n.n.z.h.s.s.s.u.{ ] Y L P J G p p p p p f J J L L U ] [ { u.h.l.c.c.M.K.K.P.P.P.R.E.!.~.8XuX8X8X8X8X8X8X7X!.!.!.W.Q.U.I.n.z.k.s.{ [ T T T T [ [ [ [ [ [ i.u.u.d.f.j.j.k.k.k.z.b.M.N.M.m.C.I.I.I.I.P.m.b.z.x.j.d.{ [ ] U L J N i 0 9 8 6 6 6 6 6 5 5 5 5 5 5 $ $ $ $ $ $ $ $ $ $ $ $ $ $ $ $ $ $ $ $ $ $ $ $ @ @ = = = % % % = = = = = * * * = = = = = = # # & & # # @ @ @ @ @ @ . . . . . . . . @ @ . @ @ # $ # # % = = = = * * = % % % # # # # # # % # # # * ; ; ; e Z d + A J.2X1X3X3X3X2X2X2X2X2X2X2X2X2X2X2X2X2X2X2X2X2X2X2X3X:X:X:X,XOX X Xr.0.w.,X2X3X2X2X2X2X3X=X:X>X=X=X+X+X=X:X:X:X>X>X3X3X3X3X3X3X=X3X:X=X=XOX|.|.0.4.%.k k k k %.3.t.0.0.`.OX$XXX$X+XOX+X+XOX+X$X+XOX,X].[.=.+.>.3._.}.}.}.}.`.`.[.).)._.).e.6.6.6.3.3.>.>.=.&.&.@.@.#.&.=.5.5.>.4.e.e.e.).).0.).).).).)._._._._.{.{.{.{.{.}.}.}.}.}.}.}.}.)._.)._.).e.).).).e.e.e.6.e.e.).).).).G.).{.{.).G.).).).e.e.e.).).e.e.e.6.6.e.e.3.3.3.3.3.,.,.,.,.,.>.=.=.&.&.&.;.;.;.:.;.;.;.;.>.,.>.;.,.,.,.,.q.t.q.r.r.e._._.r.0.r.0.3.%.m ;.3.).`.}.}.oXoX@X=X>X>X-X<X2X2X2X3X3X3X+X2.2.D.'.'.`.OX+X=X-X-XmXmXmXnXPXMXS.g d g c ^ ( ^ ) -.1.8.1.1.' c d C C C E C g B g C C C E ~ g d g g d B E E ~ ~ E E E E E E _  .} } } } } d.h.h.k.k.x.z.n.V.P.I.U.T.W.4X6X6X7X0X0X9X9XrXtXiXiXiXiXiXtXtXiXiXiXtXtXrX9X0X6X4XW.T.Y.W.W.W.4X7X6X0X9XtXtXiXaXsXjXjXkXkXlXlXlXkXkXkXxXzXzXzXlXlXlXzXlXxXxXlXzXzXlXlXlXlXxXxXxXxXxXxXxXxXxXlXlXlXxXzXzXzXlXzXzXkXkXkXkXkXkXkXkXkXfXfXfXsXfXaXaXaXaXaXaXaXaXaXaXaXaXpXpXpXaXpXpXyXtXtXtXtXtXtXtXtXrXrXrXrXrXrXrX9X9X9X9X9X9X9X9X9X0X0X0X0X7X7X7X7X7X6X5X4X4XW.W.W.T.T.T.T.W.W.T.W.Y.Q.Y.Y.Y.Y.Y.Y.Y.Y.T.T.4X4XT.T.T.4X4X4X4X4X4X4X4X4X4X4X4X4X4X4X5X5X5X4X4XT.T.Y.Z.B.B.B.n.",
"b.b.b.b.b.b.n.n.n.n.n.n.n.n.n.z.z.z.z.z.z.z.z.z.z.z.z.n.n.V.n.n.n.V.V.V.V.V.n.n.n.n.n.n.m.n.m.m.m.n.m.m.B.B.P.P.R.Q.R.W.!.7X8X8X8X8X8X8X8X8X8X8X9X8X8X7X!.W.R.U.B.V.n.b.z.h.s.s.s.i.[ ] U L P J H p p p p f f J J L L U ] [ { u.h.l.c.c.M.K.M.P.P.P.R.E.!.~.8XuXuXuXuXuXrX9X8X8X!.!.!.T.Q.U.n.z.k.u.{ [ T T Y Y [ [ [ [ [ { i.i.u.s.f.j.j.k.k.k.l.b.M.M.M.m.C.I.I.I.P.C.M.b.z.k.h.u.{ [ ] U P J i i 8 8 8 6 6 6 6 5 5 5 5 5 5 5 5 5 $ $ $ $ $ $ $ $ $ $ $ $ $ $ $ $ $ $ $ $ $ $ $ $ $ $ $ $ % % = = = = % = * = = = = = = = = = & & & & @ @ @ @ @ @ @ . . . . . . . @ @ . . @ @ @ $ # = % % % % % % % # % # # # # # # # = # # @ % # # w Z x 4 ^ %X2X3X3X2X2X2X2X2X2X2X2X2X2X2X2X2X2X2X2X2X2X2X2X2X2X>X:X:X+XOX X[.'.0.2.OXPX3X2X2X2X2X2X2X3X3X3X=X=X=X=X=X=X:X>X3X3X3X3X3X3X3X3X:X3X:X=X+X`.'.D.0.S k 4 k k M 2.t.r.e.0._. XoX{.OXOXOX]. X+X:X:X,XOX,X[.[.=.+.=.3.).}.].].[.).).]._.).).e.6.6.6.3.,.>.=.=.&.#.@.+.@.@.*.=.5.>.2.4.0.3.3.).).).).).).).).).)._._.}.).).).).).).).}.}.).).}._._.).e.e.e.e.).).e.e.6.6.e.e.).)._.).).{.{.{.D.G.0.0.e.0.e.).).).e.e.e.6.e.e.e.3.3.3.t.3.,.,.3.3.3.,.,.>.>.>.>.>.,.,.;.,.>.&.&.>.>.=.,.,.,.,.3.t.t.t.t.r._._._.r.e.e.3.3.@.n >.3.'.'.}.}.{.oX$X=X>X>X>X2X2X2X2X2X3X3X3X|.2.q.'.'.].OXXX=X=X=X2XmXmXnXPXPXnXW h d c ( Z ^ -.-.-.1.8.1.( d d C C c E C C C g C E E W Q g g B B g E ~ E C E E E E E E ~  .X.X.} } } h.h.j.k.k.z.z.n.n.V.P.I.U.T.W.6X7X7X0X9X9X9XrXtXtXiXpXiXiXiXiXiXiXiXiXiXtXtXrX9X7X6XW.W.W.4X4X4X5X9X0X9XtXtXyXiXaXsXjXjXkXkXlXlXlXkXkXkXlXlXxXxXlXlXzXlXzXxXxXlXlXzXlXlXxXxXxXxXlXlXlXxXxXxXxXxXlXlXzXzXzXzXzXlXlXlXkXkXkXkXkXkXkXkXfXfXfXfXsXsXaXaXaXaXaXaXaXaXaXaXaXpXpXpXaXpXpXyXtXtXtXtXtXtXtXtXrXrXrXrXrXrXrXrX9X9X9X9X9X0X0X0X0X0X0X0X7X7X7X7X6X6X4X4X4X4X4XW.T.T.T.T.T.T.T.T.T.T.Y.Y.Y.Y.T.T.T.Y.T.T.T.T.T.T.T.4X4X4X4X4X4X4X4X4X4X4X4X4X4X4X5X5X5X5X4XT.T.Y.U.C.C.B.n.",
"b.b.b.b.b.b.n.V.V.V.n.n.n.n.n.n.z.z.z.z.z.b.z.z.z.z.z.n.n.n.V.n.V.V.V.V.B.V.m.n.V.V.n.n.B.m.m.m.m.m.m.B.B.B.P.P.R.R.W.!.!.!.8X8X8X8X8X8X9X9X8X8X9X8X7X7X!.W.R.U.V.m.n.z.k.h.s.s.d.i.[ ] U L P J G p p p p f G J P L L U ] [ } u.u.k.c.c.M.K.P.P.P.R.R.E.~.8XwXuXuXuXuXuXuXrX8X8X7X7X!.!.T.U.B.z.k.u.{ [ [ T Y Y T T T [ { i.u.u.u.u.s.f.j.k.k.c.b.M.M.M.m.m.C.I.P.P.P.C.M.b.x.j.s.u.{ [ Y L J f i 0 9 8 8 6 6 6 5 5 5 5 5 5 5 5 5 5 $ $ $ $ $ $ $ $ $ $ $ $ $ $ $ $ $ $ @ $ $ $ $ $ $ $ $ $ = = % = = = % = * % = = * = = = = = & & & & & @ @ @ @ @ @ . . . . . @ @ @ @ @ @ @ @ @ $ # # = = % % % # % % % % # # # $ $ $ # # # @ # % # ; C e ' 2X2X=X2X3X3X2X3X2X2X2X2X2X2X2X2X2X2X2X2X2X2X2X2X2X2X3X:X=X,XOX X X'.q.2.D.MX2XmXmX2X2X2X2X2X3X3X3X3X>X:X:X:X>X>X3X3X3X3X3X3X3X3X3X3X=X=X:X$X'.D.9./ k 4 4 k k m q.r.t.r.r.`.`.'.|.OXOXOX XOX:X:X:X:X,XOX[.[.=.+.=.3.e.).).[.[.).e.).e.e.e.6.3.3.3.3.>.=.&.&.#.+.+.+.@.%.&.=.5.>.4.0.e.3.3.).).0.).).0.3.).).).).).}.}.{.}.}.}.).).OX}.).).}.).).e.e.e.e.e.e.e.e.e.6.6.6.e.).).).).{.}.}.{.'.D.G.0.0.0.).'._.).e.e.e.e.e.t.e.6.3.6.t.3.3.3.3.3.3.3.,.,.,.,.,.,.,.,.,.,.>.&.&.=.,.>.,.,.,.3.t.q.t.e.r._.[._.e.r.e.3.3.>.n n ,.q._.'.].}.oXoX$X$X=X>X>X2X2X2X2X2X3X2X3X3X0.9.D.`.OX`.oX&X=X=X<X2XmXnXnXPXLX .g c c W c ^ -.-.1.<.1.' Q Q C g C C C E C C g E E E Q ! C g g B B E ~ g C E ~ ~ E E ~ | X.X.} } } d.h.x.k.x.z.c.n.n.n.B.B.I.U.W.6X7X9X9X9X9X9XrXtXtXiXiXpXpXiXiXiXiXiXiXiXtXtXtXrX9X7X7X4X4X4X4X7X7X7X7X0X9XtXtXiXiXaXsXjXkXkXkXzXzXlXlXkXkXzXzXzXlXlXlXzXzXzXxXxXlXzXzXlXlXxXxXxXxXlXlXlXlXxXxXxXxXxXlXzXzXzXzXzXlXlXlXkXkXkXkXkXkXkXkXfXfXfXfXfXsXaXaXaXaXaXaXaXaXaXpXaXpXpXpXaXpXpXyXyXtXtXtXtXtXtXtXrXrXrXrXrXrXrXrX9X9X9X9X9X0X0X0X0X0X0X7X7X7X7X7X6X6X4X4X4X4X4X4XW.W.W.T.T.Y.Y.Y.T.Y.Y.Y.Y.Y.Y.T.T.T.T.T.T.T.T.T.T.4X4X4X4X4X4X4X4X4X4X4X4X4X4X4X4X4X4X4X4XT.T.Y.U.C.C.V.b.",
"b.b.b.b.b.b.n.V.n.n.n.n.b.b.z.z.b.z.z.z.z.z.z.z.b.b.n.n.n.n.V.V.n.n.V.V.B.B.B.B.B.V.m.m.m.m.m.m.m.m.m.B.B.B.P.P.R.R.W.!.!.!.7X8X8X8X8X8XrXrX8X8X8X8X7X7X!.W.R.I.V.n.b.z.k.h.s.s.u.} [ ] Y L P J G f p p p f J J P L L ] [ [ } u.u.h.l.c.c.K.P.P.P.P.R.E.~.8XwXuXuXuXuXuXuXrX8X8X8X7X7X!.T.U.m.z.k.u.i.[ [ T T Y T T [ [ i.u.u.u.u.u.s.f.j.k.z.c.b.M.M.m.m.C.C.I.P.P.P.m.M.b.k.j.s.u.} [ Y L J f i 0 9 9 8 6 6 6 6 6 6 6 5 5 5 5 5 5 $ $ $ $ $ $ $ $ $ $ $ $ $ $ $ $ $ $ $ $ $ $ $ $ $ $ $ $ $ = % = = % = = = = = = * = = & & & & & & & & & @ @ @ @ @ . . . . @ @ . . @ @ @ @ @ @ @ @ @ $ = % % % # % % # % # = # @ @ $ # # # # # ; + ; Z 8.2X3X+X3X3X3X2X2XMX3X2X2X2X2X2X2X2X2X2X2X2X2X2X2X2X3X>X>X=XOXOX X[.r.0.q.w.MX2X2XMXmX2X2X2X2X2X<X3X3X3X3X3X>X3X3X3X3X3X3X3X3X3X3X3X3X3X=X+X=X+XoX0.) k 4 4 k k k %.q.r.q.r.[. X X|.OXOX+XOXOXOX,X:X,X,X,XOX[.[.=.+.=.>.3.e.)._.).e.e.6.6.6.6.6.3.3.,.=.=.&.#.@.+.n n +.@.*.&.=.5.4.4.4.3.3.3.e.3.4.3.0.4.0.)._._.).).}.}.}.}.}.}.}.}.OX}.).}.}.).).3.e.e.e.6.6.6.e.e.6.e.e.e.).).).'.{.}.}.{.{.'.D.G.0.0.).).).e.e.e.e.e.e.6.6.6.t.t.t.6.3.6.6.6.3.3.,.,.,.,.,.,.3.,.,.,.,.,.=.=.,.3.,.,.3.t.t.t.e.r.r.].[.e.q.0.3.3.3.>.n n >.3.).'.].}.oXoX$X$X=X>X>X2X2X>X2X2X1X<X1X2XXX9.D.`.{.`.oX$X=X=X1X<X<XmXnXMXLXS.c W Q O.v D -.-.1.G.1.^ c Q Q C B B C E C E C E ~ E ! ` E g g E C E E C E ~ ! E E E ~  .X.} } } } d.h.x.z.c.c.n.n.V.B.B.I.U.T.W.7X9X9X9XrXrXrXtXtXiXiXiXiXiXiXiXiXiXiXiXiXtXtXtXtXrX9X9X7X6X6X7X0X7X7X7X0X9XtXyXiXiXaXsXjXkXkXlXzXzXlXlXlXlXxXxXlXlXkXkXzXlXxXxXxXlXlXlXlXlXxXxXlXxXlXlXlXlXlXxXxXxXxXxXzXzXzXzXzXzXlXlXkXkXkXkXkXkXkXkXfXfXfXfXsXaXaXaXaXaXaXaXaXaXpXpXaXpXpXpXaXpXpXyXyXpXyXtXtXtXtXtXrXrXrXrXrXrXrXrX9X7X9X9X9X9X0X0X0X0X0X7X7X7X7X7X6X6X4X4X4X4X4X4XW.W.W.T.T.Y.Y.Y.T.Y.Y.Y.Y.Y.Y.T.T.T.T.4XT.T.T.T.T.4X4X5X4X4X4X4X4X4X4X4X4X4X5X5X4X4X4X4X4XT.T.Y.Y.Z.C.n.b.",
"z.b.b.b.b.b.n.n.b.n.n.b.b.z.z.z.b.b.z.z.x.x.z.b.b.n.n.n.n.n.V.V.n.n.n.V.B.B.B.B.B.B.B.m.m.m.m.m.m.n.m.B.B.B.P.P.R.R.R.!.!.!.8X8X8X8X8XrXrXrX8X8X8X7X7X7X7X!.R.P.B.n.b.z.k.h.s.s.u.} [ ] Y L P J G H p p p p G J P L U ] [ [ } u.u.h.c.c.c.K.M.P.P.P.R.E.~.~.uXuXuXuXuXuXuXuXrX8X8X7X7X!.R.I.n.z.k.u.i.[ [ T T T T T [ [ { i.i.i.u.s.f.j.k.k.k.k.b.M.M.m.m.m.C.I.P.P.P.m.M.b.x.j.s.d.} [ Y L J N p i 9 9 8 6 6 6 6 6 6 6 5 5 5 $ 5 5 5 $ $ $ $ $ $ $ $ $ $ $ $ $ $ $ $ $ $ $ $ $ $ $ $ $ $ $ $ # % = % = # % = = = = * = & & # & & & & & & & & @ @ @ @ . . . . @ @ . . @ @ @ @ @ @ @ @ @ @ # % % * * % % % % # # # @ @ $ # # & # % O ; ' XX3X3X=X3X+X3X3X2X2X3X2X2X2X2X2X2X2X2X2X2X2X2X2X2X2X3X3X>X:X+XOX X Xr.t.q.w.:X2XMXMXmXmXmX2X2X2X2X2X2X3X3X>X=X>X3X2X2X3X2X2X3X3X3X3X3X3X=X=X=XOX|.OX2.4 4 4 k k 4 k >._._.r. X[.`.OXOXOX+X+XOXOXOX,X,X:X,X,XOX]._.&.+.=.=.3.e.e.).e.e.6.6.6.6.3.3.,.>.=.&.#.@.+.+.n n n +.@.&.&.5.>.4.3.4.3.6.e.e.4.4.3.0.3.G.).}.}._.).).).}.OX}.}.}.}.}.}.}.}.}.).).).).).e.6.3.6.e.r.).).).).)._.}.`.{.}.}.{.{.'.D.0.0.0.0.e.e.e.e.e.).e.6.6.6.e.t.t.t.6.6.t.t.t.6.6.6.3.3.,.3.3.q.w.3.,.,.,.,.=.,.t.3.3.6.t.t.t.r._.].[._.0.3.2.,.3.>.&.n S ;.2.0.'.`.}.OXOX$X$X=X>X=X2X2X>X2X2X3X2X2X3X=XD.0.'.'.oXoX$X&X=X=X1X<X<XnXMXPX;Xc c ( ^ v ^ -.-.<.8.1.W d C ! Q g d E ~ C E E ~ W E !  .E B E E E g E E E E E g E ! | | | } } } u.d.h.k.c.c.n.n.B.B.P.P.U.Q.W.6X6X0X0X9XrXtXtXtXiXiXiXiXiXiXpXpXiXiXiXiXiXiXiXiXiXtXrX9X7X7X0X7X7X0X7X9X9X9XtXyXiXiXaXaXjXkXkXlXzXzXlXlXlXlXxXxXlXlXkXkXzXlXzXxXxXlXlXlXxXxXxXxXxXxXxXxXlXlXlXxXxXxXxXxXzXzXzXzXzXzXlXlXkXkXkXkXkXkXkXfXfXfXfXsXaXaXaXaXaXaXaXaXaXaXpXpXaXpXpXpXaXpXpXyXpXpXyXtXtXtXtXtXrXrXrXrXrXrXrXrX9X7X9X9X9X9X9X0X0X0X0X7X7X7X7X7X6X4X4X4X4X4X4X4XT.Y.Y.Y.T.T.T.T.T.Y.Y.Y.Y.Y.Y.T.T.T.T.4X4XT.T.T.T.4X4X5X5X4X4X4X4X4X4X4X4X5X5X5X4X4X4X4X4XT.T.Y.Y.C.V.n.x.",
"b.b.b.V.V.b.b.b.b.b.n.n.n.n.b.z.z.z.z.b.z.z.z.z.z.z.n.n.n.n.n.V.n.n.B.B.B.B.B.P.P.P.m.B.P.B.m.m.m.n.n.m.P.P.P.P.R.R.Q.R.!.!.8X8X8X8XrXrX8X8X8XrX8X8X7X!.!.!.T.U.P.n.n.c.k.h.h.s.u.} { ] Y U P K G f p p p f J J L L U ] ] [ } u.h.l.c.c.M.K.M.K.P.R.R.E.E.~.uXuXuXuXuXuXuXrX8X8X8X!.!.!.W.U.n.z.j.u.{ [ T ] [ [ T T [ [ { { i.i.u.u.f.j.k.j.k.z.b.M.M.m.m.I.I.I.K.K.K.m.M.M.z.x.h.d.i.{ ] L P J p i 0 9 9 6 6 6 6 6 6 6 6 5 5 5 $ $ $ $ $ $ $ $ $ $ $ $ $ $ $ $ = $ $ $ $ $ @ @ $ $ = $ $ $ $ $ = = = = = = = = = = = & & & & & # # # # @ @ @ . @ @ @ . . . . . @ @ @ @ @ @ @ @ @ @ @ $ $ # # # % % % % % % % % % # # . ; # @ ; O D H.2X1X=X2X3X3X:X:X3X3X2X2X3X2X2X2X2X2X2X2X2XmX2X2X2X2X2X3X3X&X=X,X`. Xr.r.r.,. X2XMX2X2XmXmX2X2X2X2X2X1X1X1X3X3X>X>X3X3X3X3X2X2X2X3X3X3X:X:X:XOX=XoXoX'.-.4 4 4 k 4 k b 0.q._._.`. X XOXOXOXOXOXOXOXOX,X:X:X:XOXOX_.e.&.+.&.=.,.6.6.6.6.6.6.6.6.6.3.,.>.=.=.#.@.+.n +.+.n n @.@.*.*.5.5.>.3.4.e.).).e.3.4.4.).0.}.}.}.}.).}.).).}.}.).{.}.}.OX}.}.}.}.}.}.}.e.}.e.6.e.e.).e.e.e._.[._.].}.{.{.{.}.{.{.).D.G.0.0.e.e.e.e.e.6.6.6.6.6.6.6.6.e.t.t.t.6.6.t.t.t.6.6.6.6.t.t.3.3.,.,.,.,.,.,.,.3.3.t.t.[.r.e.[._.]. X3.>.;.&.,.3.>.%.z n *.2.0.0.'.`.OXoXoX$X*X=X=X>X2X2X2X2X2X<X<X2X2X=XD.0.'.oX|.oX$X=X=X=X1X2XmXnXMXMX .E ( ^ D ' -.<.9.<.1.W d C Q ~ g d ~ Q C E ~ ~ E E ~ _ E E E E E C B g C E g g ~ ! _ X.} } } } } d.h.z.z.z.n.n.B.B.I.I.T.T.W.6X0X9X9X9XrXtXtXiXiXiXiXiXiXiXpXiXiXiXiXiXuXuXiXiXuXuXuXuX9X7X7X9X9X7X7X9X9XtXyXiXaXpXpXaXjXkXkXkXkXkXkXlXxXzXxXxXxXxXxXxXxXxXxXxXxXxXxXxXlXlXlXzXxXxXzXzXzXzXzXzXzXzXzXlXlXlXzXzXzXzXlXlXlXlXlXlXkXkXkXfXfXfXfXfXaXaXaXaXaXaXaXaXaXpXpXpXpXpXpXaXaXaXpXpXpXpXyXyXtXtXtXtXrXrXrXrXrXrXrX9XrX9X9X9X9X9X9X9X0X0X0X0X0X0X7X6X6X6X4XW.4X4X4X4XT.T.T.T.T.T.Y.Y.Y.Y.U.U.T.T.T.Y.Y.T.T.T.T.4X4X4X4X4X4X4X4X4X5X5X5X6X6X6X5X5X5X5X4X4X4X4X4X4XT.Y.Y.Z.V.b.z.",
"n.b.b.b.b.b.b.V.b.b.n.n.n.n.b.b.z.z.z.z.z.z.z.z.z.z.n.n.n.n.n.n.n.n.B.B.B.B.B.P.P.P.P.P.B.B.m.n.B.B.B.B.P.P.P.P.I.R.R.W.!.7X7X7X8X8XrXuXrX8X8X8X8X8X8X!.!.T.R.I.B.n.z.z.h.h.h.u.u.u.{ ] U L P J G f p p p f J J P L L ] ] [ } u.h.k.c.c.M.K.M.K.P.R.R.E.E.~.uXuXuXuXuXuXuXuXrX8X7X!.!.!.W.R.m.z.j.u.{ [ ] ] T T T [ [ [ { i.i.u.u.u.f.h.j.j.k.z.b.M.M.M.M.m.I.I.P.K.K.m.M.b.z.x.j.s.u.} [ ] L P N i i 0 9 8 6 q 6 6 6 6 6 6 5 5 5 5 5 $ $ $ $ $ 5 $ $ $ = $ $ $ $ $ $ $ $ $ = = $ # $ $ $ $ # = # # # = = = = = = = & & & & & & # # # # @ @ @ @ @ @ @ @ . . . . @ @ @ @ @ @ @ @ @ @ @ $ $ # # # # # # # # # # # # . # ; . 8 ;   ' %X2X1X2XMX2X:X3X3X3X3X2X2X2X2X2X2X2X2X2X2X2X2X2X2X2X2X2X3X:X:X=X=XOX Xr.r.r.,.r.3XMX2X2XMXMXmX2X2X2X2X2X<X1X1X-X-X3X3X3X3X2X2X2X2X2X3X3X3X:X:X=X+X+X{.oX'.b 4 4 k k k k %.0.r.`.`. XOXOXOXOXOXOXOXOXOXOX,X:X:X+XOX].r.e.#.+.&.=.,.6.6.6.6.6.6.6.3.,.>.>.=.&.#.@.+.n n +.@.@.@.*.%.*.&.=.5.,.3.3.).).).3.3.4.4.).}.OX}.}.}.).G.).).}.}.{.{.{.{.}.}.}.}.}.}.}.).6.[.e.e.e.e.).e.e.).).}._.`.}._.{.{.}.}.}.{.).D.).G.0.4.3.3.3.3.6.3.6.6.6.6.6.e.t.t.t.6.6.t.t.t.t.t.t.t.6.t.6.3.3.,.,.,.,.,.3.6.6.t.t.r._.t.r.[. X3.;.&.,.0.e.e.3.&.n k @.>.3.0.'.`.OXOXOX$X=X=X=X>X>X>X3X2X2X<X<X2X2X2XXXD.F.{.|.oXOX=X=X=X3X2X2XmXmXMXS.Q  .^ / -.-.1.9.G.1.( C C B g d B ! ~ C E ~ ~ E E E ~ C B C C B g g B E E g E ! | | ..} } } } } u.h.x.z.c.n.V.B.P.U.U.W.W.6X7X9X9X9X9XrXtXtXiXiXiXiXiXiXiXpXpXiXiXiXiXuXiXiXiXiXiXiXiXrX9X9XrXrX9X9X9XtXtXyXiXiXaXaXaXjXkXkXkXkXkXkXzXzXzXxXxXxXxXzXzXxXxXxXxXxXxXxXxXlXlXzXzXzXzXzXzXzXzXxXxXzXzXlXlXzXzXzXzXzXzXlXlXlXlXlXlXkXkXkXfXfXfXfXfXaXaXaXaXaXaXaXaXaXpXpXpXpXpXpXpXaXpXpXpXpXpXyXyXtXtXtXtXrXrXrXrXrXrXrX9XrX9X9X9X9X9X9X9X0X0X7X7X0X7X6X6X6X6X4XW.4X4X4X4XT.T.T.T.T.T.Y.Y.Y.Y.Y.Y.Y.T.T.Y.T.T.T.T.4X4X4X4X4X4X4X4X4X5X6X6X4X4X4X4X4X4X4X4X4X4X5X4X4X4XT.Y.U.C.m.b.z.",
"n.b.b.b.b.b.b.V.b.b.b.n.n.b.b.b.z.z.z.z.z.z.z.z.c.n.n.n.n.n.n.V.n.B.B.B.B.B.P.P.P.P.P.P.P.B.m.n.B.B.P.P.P.P.P.P.P.R.R.!.!.7X7X7X8X8XrXuXrX8X8X8X8X8X8X!.W.T.U.P.B.n.z.z.h.h.s.u.u.i.{ ] Y L P J J H p p p f J J L L U ] ] { } u.h.h.c.c.M.K.K.P.P.R.E.W.~.~.uXuXuXuXuXuXuXuX9X8X7X!.!.E.W.R.m.M.j.u.i.[ [ ] T Y ] ] [ [ { i.i.u.u.u.u.h.k.k.k.z.c.M.N.M.m.m.I.I.P.P.m.M.M.b.z.z.k.h.d.u.} [ Y L J N i i 0 9 8 6 6 q 6 6 6 6 6 5 5 5 5 $ $ $ $ $ 6 $ $ $ = = $ $ $ $ $ $ $ = = % # # # # # # = = # # # # & & = = & & & & & & & & # # # # @ @ @ @ @ @ . . . . . . . @ @ @ @ @ @ @ $ $ $ $ $ $ $ $ # # $ $ # $ # # # # @ * # # . Q MX<X2XMXMX2X3X2X3X3X3X2X2X2X2X2X2X2X2X2X2X2X2X2X2X2X2X2X3X>X=X=X,XOX X X0.0.q.2.3X2X2X2X2XmXmXmX2X2X2X2X2X2X2X<X-X3X3X2X2X2X2X2X2X2X2X3X3X3X:X=X+X+XoX'.{.9.k 4 4 4 4 k k :.q.`.|. XOXOX+X+X+XOX,XOXOXOX,X,X,X,XOXOX].r.6.+.+.&.=.,.3.6.6.6.6.3.3.,.>.=.=.&.#.@.+.n n n @.#.%.%.&.&.*.*.*.5.2.4.3.G.).).).).).0.).}.}.}.}.).).).).}.}.).{.}.}.{.}.}.}.OX}.}.).e.e.[.e.e.).6.e.e.).).).).)._.`.{.{.{.}.}.}.{.).D.G.G.4.4.4.2.3.3.3.3.6.6.6.6.6.6.6.t.6.6.6.t.t.t.t.t.t.t.6.t.t.6.6.,.,.,.,.3.3.6.6.t.e.r.[.r.e._.0.%.;.0.r.[._.}.,X).;.M n *.>.3.e.`.OXOXoX$X$X$X$X=X>X>X1X2X2X2X2X2X2XmX2XXXF..X|.oXXX+X=X=X=X3X2X<XmXMXH.W ( ^ ) / -.1.9.G.' W C B g g B ~ ! E E E ~ ~ E B E E E E E E B B E E C g B ~ o.X.} } } } { } u.d.h.x.c.n.n.V.B.I.U.W.W.W.6X9X9X9X9XiXtXtXiXiXiXiXiXiXiXiXpXpXiXiXiXiXiXiXiXiXiXiXiXiXiXrXrXrXrXrX9XrXtXtXiXiXaXaXaXsXkXkXkXlXkXkXlXzXzXlXxXxXxXxXzXzXxXxXxXxXxXxXxXxXlXzXzXzXlXzXxXxXlXxXzXxXxXxXzXzXzXzXzXzXzXkXkXkXzXzXkXkXkXkXfXfXfXfXfXaXaXaXaXdXaXaXaXaXaXpXpXpXpXpXpXpXpXpXpXpXpXiXyXyXtXtXtXtXrXrXrXrXrXrXrX9X9X7X9X9X9X9X9X9X7X7X6X6X7X6X6X6X6X6X6X4X4X4X4X4XT.T.T.T.T.T.T.T.T.T.T.T.T.T.T.T.T.T.T.4X4X4X4X4X4X4X4X4X4X5X5X6X4X4X4X4X4X4X4X4X4X5X5X4X4X4XT.Y.Z.B.n.b.z.",
"b.b.b.V.V.n.b.b.b.b.b.b.n.b.b.b.z.z.z.z.z.z.z.z.c.n.n.n.n.n.V.V.m.B.B.B.B.V.B.P.P.P.P.P.P.P.P.P.n.B.P.P.P.P.P.R.R.R.R.!.7X8X8X8X8X8XrXrXrX8X8X8X8X8X7X!.!.W.R.I.B.n.n.z.h.h.h.u.u.i.{ ] Y L P J J H f p f G J J L L Y ] [ { } u.h.h.c.c.M.K.K.P.P.R.E.E.E.~.uXuXuXuXuXuXuX9X8X8X7X!.!.!.T.U.m.M.j.u.i.[ [ T T Y T T ] [ { { i.u.u.u.u.h.k.k.k.z.l.M.N.M.M.m.I.I.P.P.m.M.M.M.M.M.z.k.s.u.} { ] L L J N i i 0 8 6 q q 6 6 6 6 5 5 5 5 $ $ $ $ $ $ 5 $ $ $ = $ $ = = $ = $ $ $ = = = = = # # # # # # # # # & & = = & & & & & & & & & # # # & @ @ @ @ @ . . . . . . . @ @ @ @ @ $ @ $ $ $ $ $ $ $ $ # # # # # # # # $ * # . ;   w MXMX<X2XMX2X2X2X2X2X2X2X2X2X2X2X2XmX2X2X2X2X2X2X2X2X2X2X2X>X=X=X+X+X X X_.0.q.<.+XMX2X2X2XmX2X<XmX2X2X2X2X2X2X2X<X-X2X2X2X2X2X2X2X2X2X3X3X:X:X:X=XOXOX|.'.D.*.4 4 4 4 4 4 k q.0.`.OXOX+X+X&X=X+X+X,X,X+X,X,X:X,X,XOXOX].r.3.n #.&.>.,.3.3.3.3.3.>.,.>.=.=.&.#.#.+.+.+.+.@.#.*.*.*.*.5.>.5.*.>.2.4.0.).).).).).).).).).).}.}.).).).).}.}.).}.}.}.}.}.}.}.}.}.}.}.).e._.e.).).6.e.e.).).).).)._.}.{.'.{.{.}.}.{.D.G.G.G.4.4.2.>.>.>.,.3.6.6.6.6.6.6.6.6.6.3.3.6.6.t.e.t.t.t.t.t.6.3.6.3.,.,.,.3.3.6.t.e.e.r._.r.r.3.%.&.e.OX X].].,X,XOX0.z M @.=.,.3.e.].].}.oX$X*X*X=X=X>X2X2X2X2X2X2X2XmXmX=X.X.X.X.XOXOX+X=X=X3X2X<XmXMX%XW Q ( ) / <.<.9.G.^ E C B B E ~ ~ ~ ~ E E ~ Q B B E ! ! ~ E E E K E E g g E ! | X.p.} } { } } s.h.k.z.c.n.V.V.B.I.U.W.W.W.6X7X9X9X9X9XtXiXiXiXiXiXiXiXiXiXpXpXpXiXiXiXiXiXiXiXiXiXiXiXiXrXrXrXrXrXrXrXtXtXiXiXaXaXaXsXkXkXkXkXkXkXxXxXzXlXxXxXxXzXzXzXxXxXxXxXxXxXxXxXzXzXzXzXlXzXxXxXlXlXlXzXzXzXzXzXzXzXzXzXzXzXkXkXzXzXkXkXkXkXfXfXfXfXfXaXaXaXdXdXaXaXaXaXpXpXpXpXpXpXpXpXpXpXpXpXiXiXyXyXtXtXtXtXrXrXrXrXrXrXrX9X9X7X9X9X9X0X0X9X7X7X7X7X7X6X6X6X6X6X6X4X4XW.W.W.T.T.T.T.T.T.T.T.T.T.T.T.T.Y.T.T.Y.Y.T.T.4XT.4X4X4X4X4X4X4X4X4X4X4X4X4X4X4X4X4X4X4X5X5X4X4X4XT.Y.I.B.n.z.x.",
"b.b.V.V.V.n.b.b.b.b.n.b.n.n.n.b.n.n.b.b.z.z.z.z.z.n.n.n.n.n.V.B.V.B.B.B.B.B.B.P.P.B.B.B.P.P.P.P.m.P.P.P.B.P.P.U.R.R.!.!.!.7X8X8X8X8X8X8X8X8X8X8X7X7X7X!.!.!.Q.U.B.n.b.z.h.h.s.u.u.i.[ ] U L P J G H f f f J J P L L Y ] ] { } u.h.l.l.c.c.K.P.P.P.P.R.E.E.~.wXuXuXuXuXuXwXwX8X8X7X!.!.!.T.I.m.M.k.u.i.[ T T T T T T [ [ [ [ { i.u.u.u.f.j.j.k.c.l.M.M.M.M.m.I.P.B.m.m.n.M.M.M.M.c.z.j.h.u.} ] ] L P J N i 0 9 8 q 6 6 6 6 6 5 5 5 5 5 $ $ $ $ $ $ $ 6 6 * = = 6 * * = = = = = = * = = = & # & @ # # # # # & = = = = & & & = = = = = @ @ @ @ @ @ @ @ @ . . . . . . @ @ @ $ $ $ $ # # $ $ $ $ $ $ # # # # # # # = $ @ ; # # O 8.PX1XMXMX2XmXMX2X2X2X2X2X2XmX2X2X2X2X2X2X2X2X2X2X2X2X2X2X3X=X=X&X+XOX].].r.0.<.0.MX2XMXmX2X2X2X2X2X2X2X2X2X2X2X2X>X2X2X2X2X2X2X2X2X2X2X3X:X:X:X=X+X+XOX'.{.4.l 4 4 4 4 k 4 b r.'.oX+X+X&X&X+X,X,X+X,X+X,X,X:X:X:X+XOX X[.e.>.n #.&.=.>.,.3.,.,.>.=.=.=.=.&.#.@.+.n +.@.@.#.%.*.&.&.*.>.5.5.5.>.4.4.).).}.}.}.}.).).).}.).).}.).).4.).}.}.).}.}.{.}.}.}.}.}.}.}.}.).e.).e.).).e.e.).).).).).).).}.{.).{.{.{.{.}.{.G.G.G.3.3.>.>.=.=.>.3.3.3.3.6.6.6.6.6.3.3.3.6.t.e.6.t.t.t.t.t.t.6.t.6.6.3.6.6.6.6.t.r.e.[.r.r._.&.#.e.].].].,X:X,X+X$X'.%.k n &.&.,.e.`.}.}.OX$X=X*X=X-X3X2X2X2X2X2X2X2X2XMX2X%XH.J..XoXOX+X+X=X3X2X2X<X<X%X1.( W ) %.4.<.9.8.^ ! E ~ E ~ ~ E ! _ E E ~ ~ B g ~ ! ! E E E E K B B g E ! | | p.h.} { { { } d.h.h.j.z.n.n.V.B.I.Y.W.W.W.6X7X7X9X9X9XtXiXiXiXiXiXiXiXiXiXpXpXpXpXpXpXiXiXiXiXiXiXiXiXiXrXrXiXrXrXrXrXtXtXiXiXpXaXaXsXkXkXkXlXlXlXxXxXzXlXxXxXxXxXxXxXxXxXxXxXxXxXxXxXxXzXzXlXlXzXxXxXlXlXzXzXzXzXzXzXzXzXzXzXzXzXkXkXzXzXkXkXkXfXfXfXfXfXfXaXaXaXdXdXaXaXaXpXpXaXpXpXpXpXpXpXpXpXpXpXiXiXtXtXtXtXtXtXrXrXrXrXrXrXrX9X9X7X9X9X9X0X0X9X0X7X7X7X7X7X6X6X6X6X6X4X4XW.W.W.T.T.T.T.T.T.T.Y.T.T.T.T.T.Y.T.T.Y.Y.Y.T.T.T.T.4X4X4X4X4X4X4X4X4X4X4X4X4X4X4X4X4X4X4X4X4X4X4XT.U.U.B.n.z.x.",
"b.n.n.b.b.b.V.V.n.n.n.n.n.n.n.n.n.n.n.b.z.z.z.z.z.n.n.n.n.n.V.B.n.B.B.B.B.B.B.P.P.P.P.P.P.P.P.P.P.P.P.P.B.B.P.P.R.R.R.!.!.!.8X8X8X8X8X8X8X8X8X8X8X8X8X7X!.W.R.P.B.M.b.z.h.h.s.u.u.i.[ ] U L P J G H f p f G J P L L U ] ] { } u.h.l.l.c.c.K.K.P.P.P.R.E.E.~.~.uXuXuXuXuXuXwX8X8X7X!.!.!.R.P.n.c.k.u.i.[ T T ] T T T [ [ [ [ { i.u.u.f.h.k.j.k.l.l.M.M.M.M.m.m.B.m.m.m.m.M.M.n.M.z.z.j.h.s.} { ] ] L P J N i 0 q q q 6 6 6 6 5 5 5 5 5 $ $ $ $ $ $ $ 6 6 * = * 8 6 6 6 6 6 6 * * * * * * & & & @ # # # # # & & & * * = & = = = = = = & & @ @ @ @ @ @ @ @ . . @ @ . @ @ @ $ $ $ $ # # # # $ $ $ $ # # # # $ $ # # # # . ; O ; nXnXMXMXmXMXMX2X2X2XmXmXMXMXmXmX2X2X2X2X2X2X2X2X2X2X2X2X3X>X=X&XOXOX].[.r.r.2.<.2XMXmXmXmX2X2X2X<X2X2X2X2X2X2X2X2X>X2X2X2X2X2X2X2X2X2X2X3X=X=X:X=X+XOX'.'.D.*.4 4 4 4 4 k 4 %.'.|.OX=X=X&X&X=X=X:X:X=X=X:X:X:X:X,X+XOX].[.e.=.+.&.=.=.>.>.,.>.>.=.=.=.=.=.#.+.n n n +.@.@.#.%.*.*.&.5.>.>.5.5.>.3.).G.).}.}.}.}.}.).}.).).}.}.}.).0.).).}.).).).).{.}.{.}.}.}.).).).).e.e.e.e.e.e.e.).).).}.{.}.{.).D.{.{.{.{.}.{.D.G.0.4.4.>.=.&.&.=.=.,.>.,.3.6.6.6.6.6.3.3.6.e.e.3.t.t.t.t.t.t.6.t.t.t.6.6.t.t.e.e.r.r.[.r.r.t.#.,.[.[.[.OXOX:X:X:X>X$X4.k M @.#.>.3.).}.}.OX$X=X*X=X-X2X2X2X2X2X2X2X2X2XMXMX1XoXJ.|.|.OXOX+X=X3X2X2X-X*X-X<X8.v D %.4.9.G.8.^ ( E ~ ~ ~ E ~ _ ! K K ! _ E B ~ ~ ~ E B B K K B B K ~  .X.X.v.h.} } } } d.d.h.h.h.z.n.V.B.B.I.T.W.W.W.6X7X9X9X9X9XiXiXiXiXiXiXiXiXiXiXpXpXpXpXpXpXiXiXiXiXiXiXiXiXiXiXiXiXiXiXiXiXyXiXiXpXaXaXsXsXkXkXkXlXkXlXlXxXzXlXxXxXxXxXxXxXxXxXxXxXxXxXxXxXxXxXzXzXzXzXxXxXzXzXzXzXzXzXxXlXzXzXzXzXzXzXzXzXkXzXkXkXkXfXfXfXfXfXfXaXaXaXdXdXaXaXaXpXpXpXpXpXpXpXpXpXpXpXpXpXiXiXtXtXtXtXtXtXrXrXrXrXrXrXrX9X9X7X9X9X9X0X0X9X0X0X0X0X0X7X7X6X6X6X6XW.W.W.W.T.T.T.T.T.T.T.Y.Y.T.T.T.T.T.T.Y.T.Y.Y.Y.T.T.T.T.4X4X4X4X4X4X4X4X5X4X4X4X4X4X4X4X4X4X4X4X4X4XT.Y.U.I.B.n.z.x.",
"b.n.n.b.b.b.V.V.n.n.n.n.n.n.n.n.n.b.b.z.z.z.z.z.c.n.n.n.n.n.n.V.n.m.B.B.B.B.B.P.P.P.P.P.P.P.P.m.P.P.P.B.B.B.P.P.U.Q.W.!.!.!.!.8X8X8X8X8X8X8X8X8X8X8X7X7X!.T.R.P.B.M.b.z.h.h.h.u.u.} [ ] U L P J G f f f f G J K L L U ] ] | } u.h.l.l.c.c.K.K.P.P.P.R.E.E.~.wXuXuXuXuXuXuXwX8X8X7X7X!.!.R.P.m.M.k.u.{ [ T T T ] ] T ] [ [ [ { i.u.u.u.h.h.j.k.l.l.M.M.M.M.M.M.m.m.B.P.P.P.m.M.M.c.z.k.h.s.u.{ [ ] U L P N i 0 q q q 6 5 5 5 5 5 5 5 5 $ $ $ $ 5 $ $ $ 6 6 $ * 8 8 8 8 8 8 8 8 > > * * * * = & & # # # # # # & & & & & & = = = = = = & & & @ # # @ @ @ @ @ @ @ @ . @ @ @ $ $ $ # # # % % % $ $ $ % % # # $ @ $ $ # ; . ;   Z PXMXMX2XmXMX<X2XMX2XMXMXMXMXMXmXmXmX2X2X<X2X2X2X2X2X2X2X3X=X=X+XOX|._.r.e.q.2.|.PX2XMXmX2XmXmX-X=X2X2X2X2X2X2X2X2X2X2X2X2X2X2X2X2X2X2X1X=X=X=X=X+XOXOXD.0.;.v 4 4 4 4 4 4 l 0.|.OX+X=X&X&X&X=X=X:X:X=X=X=X:X:X=X$X+XOX`._.e.&.#.=.=.=.=.=.>.=.=.=.=.=.&.#.+.n n n n @.@.@.#.%.*.&.=.>.5.5.5.5.5.4.).).).}.}.}.}.}.}.).G.).}.$X}.).{.).).).).).).).).{.).}.}.).).).)._.).).e.e.).).6.).).).}.}.}.{.D.D.).).D.{.}.{.{.G.0.4.4.5.=.&.&.$.=.=.=.>.,.3.6.6.6.6.6.6.e.e.e.6.6.t.t.t.t.t.6.6.t.t.t.6.t.t.t.r.r.[.r._._.>.&.e.r.].,X,XOX+X:X$X=X+X'.m k n @.&.3.e._.{.OX$X&X*X*X*X-X2X2X2X2X2X2X2X2XmXMX<X%XJ.|..XOXOXOX=X3X3X1X*X1XmXPXH.^ / :.9.9.D.8.^ ( E ~ ! _ ~ ~ _ ! E K ! _ E B ~ ~ Q E B g B K E E ~ !  ...p.v.h.u.u.u.u.s.h.h.h.h.x.z.n.B.B.I.T.W.W.W.6X7X9X9X9XiXiXtXiXiXiXiXiXpXiXiXpXpXpXpXpXpXiXpXpXpXpXpXpXiXpXiXiXpXpXiXiXpXiXpXaXaXaXaXsXkXjXkXkXkXkXkXkXlXzXzXzXzXlXlXxXxXxXxXxXxXxXxXxXxXxXxXxXxXxXxXzXzXxXxXxXxXxXxXzXzXzXzXzXzXzXzXzXzXkXkXkXkXkXfXfXfXfXfXaXaXaXdXpXpXpXpXpXpXpXpXpXpXpXpXpXpXpXpXpXpXpXpXtXtXtXtXtXtXrXrXrXrXrXrXrX9X9X7X9X9X9X0X0X9X0X9X9X9X9X9X7X7X6X6X6X6XT.T.T.T.T.T.T.T.T.Y.Y.Y.Y.Y.Y.Y.Y.T.T.T.T.T.Y.T.T.4X4X4X4X4X4X4X4X4X4X5X4X4X4X4X4X4X4X4X4X4X4X4X4X4XY.U.Z.V.n.z.x.",
"x.b.V.n.b.n.V.b.n.n.n.n.n.n.n.n.b.z.z.z.z.z.z.z.n.n.n.n.n.n.n.n.n.V.B.B.B.B.B.P.P.P.P.P.P.P.P.P.B.B.m.m.B.P.P.P.U.R.!.!.!.!.!.8X8X8X8X8X9X9X8X8X7X7X7X!.!.T.R.P.B.M.z.z.h.h.h.u.u.} [ ] U L P J J H f f f J J P L ~ Y ] | { } u.h.l.l.c.c.c.K.P.P.P.R.E.~.~.wXuXuXuXuXuXwX8X8X8X7X!.!.E.R.P.m.M.j.u.{ [ T T T T Y T ] [ [ [ i.i.u.u.u.f.h.j.k.k.l.M.M.M.M.M.M.M.n.m.P.P.I.P.K.m.M.M.z.k.h.d.} { ] ] L P J N 0 0 q 6 6 5 5 5 5 5 5 5 5 $ $ $ 6 6 6 = 6 6 8 * 6 8 9 9 9 9 8 8 > = > * > > > * = = & # & # & & & & & & & # = = & = = = & & & @ # # = = = @ @ @ @ @ . . @ @ $ $ # # # # % % * % # $ % % # # # # $ $ # . & ;   G.PXMXMXMXmXmXMX2X2XMXMXMXMXMXmXmXmXmX2X2X<X<X2X2X2X2X2X2X>X:X=X+XOX_.r.q.t.2.0.MXMXmXmXMXmX2X2X2X2X-X2X2X2X2X2X2X2X2X2X2X2X2X2X2X2X2X3X1X=X=X=X=X+XOX`.D.2.S 4 4 4 4 4 4 4 S +XOXOX=X+X&X=X=X=X=X:X:X=X=X=X:X:X=X=X+XOX'._.3.@.#.&.=.=.=.=.=.=.=.=.=.&.&.@.+.n n +.@.@.@.#.#.%.*.;.>.2.5.5.5.5.>.4.).).}.}.}.}.}.}.{.G.D.}.}.}.}.).).}.3.G.).).).}.).).).).).).3.).)._.).).e.e._.).).).).).).{.{.).).).{.{.D.).}.}.{.).).4.4.>.&.&.@.#.#.=.=.=.>.,.3.6.6.t.t.6.e.e.6.6.e.t.6.6.t.t.6.6.t.t.t.e.t.r.r.r.e.].t.[.[.&.=.[._.,XOX X:X:X=X=X:X$X$X*.k M +.&.=.3.e.'.OX$X&X*X*X*X-X2X2X2X2X2X2X2X2X2XmX2X*XJ.|.|.|.oXOX+X3X3X=X*X2XmXMX;X-.-.<.4.9.G.1.^ ! Q ~ ! o.E K _  .~ B ~ _ E B ~ E ! E K g g K E ~ ! ! | ..h.h.h.h.} u.u.d.d.d.h.h.k.z.n.B.B.I.U.T.6XW.6X7X9X9X9XiXiXtXiXiXiXpXpXpXiXiXpXpXpXpXpXpXpXdXpXpXpXpXpXpXpXpXpXpXpXiXiXiXpXaXaXaXaXaXsXkXjXkXkXkXkXkXkXkXzXzXzXlXlXlXxXxXxXxXxXxXxXxXxXxXxXxXxXxXxXxXzXlXxXxXcXcXxXxXxXxXzXzXzXzXzXzXzXzXkXkXkXkXkXfXfXfXfXaXaXdXdXpXpXpXpXpXpXpXpXpXpXpXpXpXpXpXpXpXpXpXpXyXyXyXtXtXtXtXtXrXtXrXrXrXrX9X9X7X9X9X9X9X0X9X0X9X7X9X9X7X7X6X6X6X6XW.W.T.T.T.T.T.T.T.T.Y.Y.Y.Y.Y.U.U.T.T.T.Y.T.T.T.T.4X4X4X4X4X4X4X4X4X4X4X4X5X5X5X5X5X5X5X5X4X5X5X4X4XW.T.U.Z.B.n.z.x.",
"n.n.n.n.n.n.n.n.n.n.b.b.n.n.b.b.z.z.z.z.z.z.c.c.z.c.n.n.n.n.n.n.M.V.P.P.P.P.P.P.B.P.P.P.P.P.P.B.B.B.P.P.P.B.B.P.R.R.R.!.!.!.!.8X8X8X8X8X8X8X8X8X8X8X7X!.W.Q.U.U.n.n.z.k.h.s.u.u.u.} [ ] Y U P J H H f f H J P P L U Y ] | | } u.h.l.c.c.M.K.K.K.P.P.R.E.E.~.8XuXuXuXuXuXwX8X8X8X8X7X!.T.R.U.n.z.j.u.i.[ [ [ ] T ] ] ] [ [ { i.i.u.u.u.h.h.h.k.k.k.c.M.N.M.N.M.M.M.P.I.I.P.P.P.B.n.n.z.z.k.s.u.} } [ ] I J N i q q 6 6 5 5 5 5 5 5 5 5 5 6 6 6 6 6 8 8 8 8 8 8 8 9 u u 9 9 > 8 9 9 8 > > > > > & * = & & & * & & & & & & & & & & = = & & & & & & # # @ @ @ $ # # @ @ $ $ $ # # % # % * * * = % # # # # # # # # # # & + + O H.MXmXmXmXmXmXmXmXmX2XmXmXmXmXmXmXmXmX2X2X<X<X2X2X2X2X2X>X=X=X,X X'.r.q.3.3.;.3X2X2X2XmXmX2X2X2X2X2X2X<X<X2X2X2X2X2X2X2X2X2X2X2X2X2X3X3X3X=X=X=X+XOXOX0.0.;.k 4 4 4 4 4 4 k '.OXoX=XOX+X+X=X=X=X,X=X:X:X:X:X:X:X=X&X+XOX`.`.3.+.&.=.=.=.=.=.=.=.=.=.&.@.+.n n n n n @.%.#.%.%.*.*.*.;.>.5.>.>.5.>.3.3.}.}.}.}.}.}.{.{.{.{.oX}.{.).).).).).).).).).e.).).).).).6.3.3.6.[.).).)._.).).e.)._.}.}.}.}.).).).).G.D.{.{.{.{.).).).4.>.&.&.+.+.#.#.&.=.=.>.3.3.6.6.6.6.6.6.e.t.t.6.6.6.t.6.6.e.t.e.e.t.t.e.e.).[.[._.[.3.#.,._.].OXOX+X:X:X:X:X:X:X$X'.l k n &.&.3.e.r.|..XXX&X*X*X=X2X2X2X2X2X2X2X2X2X2X2X2XXXF.XXOX|.OX+X=X3X:X=X1X2X2XH.-.-.2.<.9.G.8.( ( ! !  ._ K K _ _ ~ K E _ ~ B K ~ E ~ K K K ~ ~ ~ ~ _ _ X.l.h.h.h.} } u.u.s.h.h.j.k.z.z.n.P.I.U.W.W.6X7X8X9X9X9X9XrXiXiXiXiXiXiXpXiXiXiXpXpXpXdXpXiXdXdXdXdXpXpXpXpXpXpXpXpXpXpXpXpXaXaXaXaXsXsXkXkXkXzXzXkXkXzXzXxXxXxXxXxXxXxXxXxXxXxXxXxXxXxXxXcXcXxXxXzXzXzXzXxXxXxXxXxXzXzXzXzXzXzXzXzXzXzXzXzXzXzXzXkXkXgXfXfXfXfXsXaXaXaXaXaXaXaXaXaXaXpXpXpXpXpXpXpXpXpXiXiXiXiXiXtXtXtXtXtXrX9X9X9X9X9X9X9X9X9X9X9X9X9X9X0X0X0X0X0X0XqX6X4X4X4XW.W.W.T.T.W.T.T.T.Y.Y.T.Y.T.T.Y.Y.Y.Y.T.W.Y.Y.Y.T.T.4X4X4X4X4X4X4X4X4X6X6X4X4X6X5X4X4X4X4X4X4X4X4XW.Y.U.U.C.N.b.x.k.",
"n.n.n.n.n.n.n.n.n.n.n.n.n.b.b.b.b.z.z.z.z.z.c.c.c.c.n.n.n.n.n.n.n.V.V.P.P.P.B.B.V.P.P.P.P.P.B.n.V.V.B.B.P.B.P.P.R.R.R.W.!.!.!.8X8X8X8X8X8X8X8X8X8X8X7X!.W.Q.U.U.n.c.z.z.s.d.u.u.i.{ [ ] Y L P J G f f f H J J P L U Y ] | | } u.h.k.c.c.c.M.K.K.P.P.R.E.E.~.~.uXuXuXuXuXwX8X8X8X8X7X!.T.Q.I.n.z.j.u.i.[ [ T T T ] ] ] [ [ [ { i.} u.u.u.h.h.k.k.k.b.b.M.M.N.M.M.m.P.I.I.P.P.B.B.n.n.n.z.x.j.d.u.} { ] ] P N V 0 q 6 5 5 5 5 5 5 5 5 5 5 6 6 8 8 8 9 9 9 9 9 9 9 u u i u u 9 9 u 9 8 > > * * > > > * & & & & & & & & & & & & = = = = = @ & @ @ @ # # # @ @ @ $ # @ $ # # # # # % * * * * * * & # # # & & & & & & ; ; - 1 ; H.MX<XmXmXmXmXmXmXmXmXmXmXmX2X2X2X2X2X2X<X<X<X2X2X2X2X>X>X:X=XOX].r.t.3.,.@.0.2X2X2XMXmXmX2X2X2X2X2X2X-X<X2X2X2X2X2X2X2X2X2X2X2X2X3X3X=X2X=X$X+X+XOX'.0.>.l k 4 + 4 4 4 4 S `.|.|.=X&X=X=X=X=X+XOX+X,X,X:X:X:X:X=X&XOXOX`._.,.@.&.=.=.=.&.&.#.&.&.&.#.+.n z n n n n @.&.*.&.*.&.&.*.5.5.5.>.>.>.>.3.3.}.}.OXOXOX}.}.}.{.{.oX}.{.{.).}.).).).).).6.6.6.e.6.6.6.).).).e.).e.e.).).).).).).}.}.}.).).).).).G.G.).{.{.{.{.).).).3.2.=.&.+.+.+.+.#.&.=.=.=.>.3.6.6.6.6.e.e.e.e.6.t.6.t.e.e.e.t.e.e.e.e.e.r.[.].[.r.r.,.#.,._.].OX+X$X:X:X:X,X:X:X:X{.) 4 z n &.,.3.e.|.XX@X@X*X&X=X2X2X2X2X2X2X2X2X2X2X2X2X&X|.|.|.oXOXOX+X:X:X3X1X1X<X@X9.2.2.9.9.G.1.Z E ! ! _ ! E ~ _ _ ~ K E _ ~ B K ~ ~ _ ~ ~ ! o.! _ _ _ | } l.h.h.} } } s.s.h.h.h.j.k.z.c.M.P.I.R.W.!.6X7X8X9X9X9X9XrXiXiXiXiXiXiXpXiXiXpXpXpXpXdXdXpXdXdXdXdXpXpXpXpXpXpXpXiXpXpXpXpXpXaXaXaXaXsXsXkXkXkXkXkXzXkXkXzXzXzXzXkXxXxXxXxXxXxXxXxXxXxXxXxXzXzXzXzXxXzXxXzXxXxXxXxXxXzXzXzXzXzXzXcXzXzXzXzXzXzXzXzXzXgXfXfXfXfXsXaXaXaXaXaXaXaXaXaXaXpXiXpXpXpXpXpXpXtXiXiXiXiXtXtXtXtXtXtXtX9X9X9X9X9X9X9X9X9X9X9X0X0X0X0X0X0X0X0XqX6X6X4X4X4XW.W.W.W.Y.T.U.Y.U.U.U.U.U.T.Y.Y.Y.Y.Y.T.T.T.T.T.T.T.4X4X4X4X4X4X4X4X4X6X6X4X5X6X6X4X4X4X6X4X4X4X4XW.U.I.Z.C.N.b.x.f.",
"b.n.n.n.n.n.V.V.n.n.V.n.n.b.b.b.b.b.z.z.z.z.z.z.c.n.n.n.c.n.M.n.n.M.V.V.P.P.V.V.m.B.m.m.P.P.V.n.V.V.n.B.B.B.P.I.R.R.Q.W.!.!.!.8X8X8X8X8X8X8X8X8X8X8X7X!.W.Q.U.P.n.c.z.x.h.s.d.u.} { [ ] U L P J J G f f H J J P L U Y ] | | } u.h.k.c.c.c.c.K.K.P.P.R.E.E.!.~.wXuXuXuXuXwX8X8X8X7X7X!.T.Q.I.M.c.j.u.i.[ [ T ] T ] ] ] [ [ [ { } u.u.u.u.u.h.k.k.z.b.b.b.M.N.M.M.K.P.R.R.I.I.P.P.V.n.n.z.z.k.h.d.u.} { | I J N 0 0 6 6 5 5 5 5 5 5 5 5 5 6 8 8 9 9 9 u u i i i i u i p i u i i u u 9 8 8 8 > > > > > * & & & & & & & & & & & = = & @ = = @ @ @ @ # # @ @ @ @ # # $ # # % # % * * * * * ; * * & # & & & ; , , ; ; 1 1 ; 3 , G.MX<X<XmXmXmXmXmXmXmXmXmXmX2X<X<X<X<X<X<X<X<X2X2X2X-X>X:X=XOX X_.0.w.,.&.%.:X2X2X2XmXmXmX2X2X2X2X2X2X<X2X2X2X2X2X2X2X2X2X2X2X2X2X3X3X=X=X=X$XXXOX`.0.2.S 4 4 k 4 4 4 4 k 2.'.`.oX=XOX=X,X,X,X+XOXOXOX+X:X:X:X:X=X+XOX|.`.).=.#.#.&.&.&.&.#.#.#.#.@.@.n z z n n n @.@.*.&.*.*.*.*.*.5.>.>.4.2.5.>.3.).).}.}.}.OXOX}.OX}.{.}.}.{.{.).}.).).).).e.3.3.6.).e.e.e.e.e.).e.6.e.).).).)._.}.).)._.).G.G.).).).G.G.).{.{.D.).).).).3.3.>.=.#.+.n +.+.#.&.=.=.=.,.6.6.6.6.6.6.e.e.e.6.t.e.e.e.e.e.t.e.e.e.e.r.[.[.[.e.t.=.@.3._.].OX+X$X:X:X:X+X:X$X$XoX4.k k z &.>.,.0.`.OXXX@X&X*X=X3X2X3X2X2X2X2X2X2X2X3X3X=XoXD.|.OXXX+X+X=X:X3X3X=X2X<X*XoX9.9.G.G.' e h E E ~ ! E E ~ ~ ~ E ~ ! ~ K ~ ~ ~ _ _ _ | o.o.| | _ | } l.l.} } } d.h.h.h.h.j.k.k.z.c.M.P.P.U.W.W.6X7X8X9X9X9X9X9XiXiXiXiXiXiXpXpXpXpXpXaXaXaXaXpXdXdXdXdXpXpXdXpXpXiXiXiXiXpXpXdXpXdXaXaXaXsXsXsXjXjXzXzXzXzXzXkXkXkXkXkXkXkXkXlXlXxXxXxXxXxXxXzXzXzXzXzXcXcXcXzXxXcXcXxXxXzXzXzXzXzXzXcXzXzXzXzXzXzXzXzXzXgXfXfXfXfXsXaXaXaXaXaXaXpXaXaXpXpXpXpXpXpXpXpXiXiXtXtXtXtXtXtXrXtXtXtXrXrX9X9X9X9X9X9X9X9X0X0X7X7X7X0X0X0X0X0X0X6X6X4X4X4X4XW.T.T.Y.U.U.U.U.U.U.U.U.Y.Y.Y.Y.Y.Y.Y.T.T.T.T.T.4X4X4X4X4X4X4X4X4X4X6X6X6X6X6X6X5X5X4X6X6X6X4X4XQ.U.Z.Z.C.N.b.j.f.",
"n.n.n.n.n.V.V.V.n.V.V.V.n.b.b.n.n.b.z.z.z.z.z.z.z.c.z.z.z.c.n.M.n.n.V.V.V.V.V.V.P.B.m.m.P.P.P.n.V.V.n.B.V.B.B.U.U.R.Q.W.!.!.!.8X8X8X8X8X8X8X8X8X8X7X7X!.W.U.P.B.n.c.z.k.h.s.d.u.{ { [ ] U L P J J G f H H G J P L U ] ] | | } u.h.k.c.c.c.M.K.K.P.P.R.E.E.~.~.wXwXwXuXuXwX8X8X8X7X7X!.T.R.P.M.c.j.u.{ [ T T ] T ] ] ] [ [ { { { u.u.u.u.u.h.k.k.z.b.b.b.M.N.N.M.P.I.R.R.R.R.U.I.B.B.n.n.c.z.j.j.d.u.} } ] P N i 0 q 6 6 6 5 5 5 5 5 6 6 6 8 8 9 i i i i i p p f f f f p p p u i u u 9 9 9 9 > > > > * & & & & & & & & & & & & = & & & # @ @ @ @ @ # $ @ @ @ # # # # % % % * * ; * * ; ; ; ; & & & & & ; , ; ; 1 ; 1 1 1 O 1.mXmXnXmXmXmXmXmXmXmXmXmXmXmXmXmXmXmX<X<X<X<X2X2X2X-X=X=X+XOX Xr.q.,.%.%.OX2X2X2XmX3X2X2X2X2X2X2X2X2X2X2X2X2X2X2X2X2X2X2X2X2X3X3X>X=X=X&X+X&XOX'.D.0.-.k 4 4 4 4 4 l 4 l 0.'.|.OXOXOXOXOXOXOX+XOXOXOXOX,X:X:X=X=X+XOX].`.3.%.@.#.&.#.#.#.#.#.#.#.+.n n z n n @.@.@.@.%.&.*.%.*.*.*.5.>.>.4.4.>.>.3.).).}.}.}.}.}.}.}.}.{.}.}.}.}.{.).).).).).).6.6.e.e.e.e.6.6.6.e.).e.).).).).).).}.).).G.3.G.).).3.G.G.G.).).D.G.G.D.).).G.3.>.>.&.+.+.+.+.#.#.&.=.=.>.3.6.6.6.6.6.t.t.6.6.6.t.e.e.t.e.t.e.e.t.t.e._._.r.t.e.=.@.6.r.].OX+X$X=X=X,X,X,X+X+XOX{.b k z @.&.>.3.r.oXXX+X&X&X=X=X1X3X2X2X2X2X2X2X3X3X1X1X=XD.D.XXXX+X+X=X:X3X3X=X1X2XmX2XF.8.G.G.^ + 3 h h g ~ E E E E ~ ~ ~ _ ~ E ~ ~ ~ _ | _  .! o. .| | } } l.l.} } } h.h.h.h.h.k.k.k.z.c.M.P.P.U.T.T.!.7X7X9X9X9X9X9XuXiXiXiXiXiXiXpXpXpXaXaXaXaXaXpXdXdXdXdXpXpXdXiXiXiXiXiXiXiXiXdXdXaXaXaXaXsXsXsXsXsXjXgXzXzXzXkXkXkXkXkXkXkXkXkXkXzXzXxXxXlXxXxXzXzXzXzXzXcXcXzXzXcXxXxXcXcXcXzXzXzXzXcXzXzXzXzXzXzXzXzXzXgXfXfXfXfXaXaXaXaXaXaXpXpXpXpXpXpXpXpXpXpXpXpXiXtXtXtXtXtXtXrXrXtXtXtXrXrX9X9X9X9X9X9X9X9X0X0X7X7X7X9X9X0X0X0X0X6X6X4X4X4XW.W.T.Y.U.U.U.U.U.U.U.U.U.Y.Y.Y.Y.Y.Y.Y.Y.T.T.T.T.4X4X4X4X4X4X4X4X4X6X6X6X6X6X6X6X5X5X4X6X6X4X4XW.Y.U.Z.B.C.M.z.j.f.",
"n.n.n.n.V.V.V.V.n.V.V.V.n.n.n.n.n.n.z.z.x.x.z.z.z.z.c.c.c.c.c.M.c.M.M.V.V.V.P.P.P.P.m.m.P.P.P.m.B.V.n.V.m.m.P.I.U.U.Q.!.!.!.!.8X8X8X8X8X8X8X8X8X8X8X7X!.W.R.P.P.V.c.z.z.h.s.d.u.{ { [ ] U L J J G f f f f G J P L Y ] ] | | } u.h.h.c.c.c.c.M.K.P.P.R.E.E.~.8XuXwXwXuXuXuX8X8X8X7X!.!.E.Q.P.M.c.j.u.{ [ T ] ] T ] ] [ [ [ { { { u.u.u.u.u.u.k.k.k.k.c.b.M.M.N.N.I.R.R.R.Q.Q.R.U.U.P.V.n.n.c.z.k.h.s.d.u.] L N i i 0 6 6 7 5 5 5 5 6 8 8 8 9 i i p p p f f f N N f H H f f p p u i u i u u 9 8 > > > & & & > > > & & & & & & & & & # # # # # # # # # # # # # # % # = = * * * ; ; ; ; ; ; ; ; ; ; & & & - ; , ; 1 , 1 ; ; O ` <XmXmXmXmXmXmXmX<X<XmXmX2X2X2X2XmXmX2X<X2X2X2X2X>X>X=X=XOX X[.e.,.;.S 0.MX2X2X2XmX2X2X2X2X2X2X2X2X>X2X2X2X2XmXmXmX2X2X2X2X2X3X-X=X=X=X+X+X+X X'.0.2.b 4 4 4 4 4 4 4 k %.'.`.|.OX|.OX X|.|. X X XOXOXOX+X=X=X=X=X+XOX X`.2.@.#.#.&.#.#.#.#.#.@.n n z n n n @.@.@.@.@.@.&.*.%.%.*.5.5.4.>.>.4.>.>.4.4.G.).).}.}.}.}.}.}.}.}.}.}.}.{.).).).).).).).e.).6.3.3.3.6.e.e.e.).).).).).).).).}.).G.4.0.).).4.0.0.G.).).D.G.G.).).).).3.3.>.=.+.+.+.+.+.+.#.$.=.>.3.3.6.6.6.6.6.6.6.6.6.e.e.e.e.e.t.e.e.t.e.e._.r.e.t.e.&.+.6.r.[.OX+X+X,X:X,X:X:X:X=X$XOX;.k k n #.&.>.q.`.OX+X&X@X&X=X=X3X2X2X2X2X2X2X2X3X3X3X2XoXD..XOX+X+X=X:X3X3X3X1X3X2XmX%XG.G.G.c O - 1 1 h E E E E ~ ~ ~ ~ ~ ~ ~ _ ~ ~ _ | | | | | | | | } } l.h.} h.u.h.k.k.j.j.k.z.k.c.c.M.B.P.I.Q.T.W.6X7X0X9X9X9X9XuXuXiXiXiXiXiXpXpXpXdXdXdXdXdXdXdXdXdXpXiXiXdXiXiXiXiXiXiXiXiXdXdXaXaXaXaXsXsXsXsXsXsXjXzXzXzXzXgXzXkXkXkXkXzXzXzXzXzXzXzXzXzXcXzXzXzXzXzXzXxXxXxXzXzXcXcXcXcXcXcXcXcXcXzXzXzXzXzXzXzXzXzXzXfXsXfXsXsXaXdXdXdXpXpXiXpXpXpXpXiXiXiXiXiXiXiXiXiXrXrXrXrXrXrXrXrX9X9X9X9X9X9X9X9X9X9X9X0X0X0X0X0X9X9X9X9X7X6X6X4X4X4X4XW.W.T.Y.U.U.U.U.U.U.U.U.U.Y.Y.U.Y.U.Y.Y.Y.Y.Y.T.T.4X4X4X4X4X4X4X6X6X6X5X5X6X6X6X6X5X5X4X4X4X4X4XW.U.I.B.B.m.N.x.j.s.",
"n.n.n.V.V.V.V.V.V.V.V.V.V.n.n.n.n.n.z.z.x.x.z.z.c.z.z.z.c.c.M.n.c.c.M.M.M.m.P.P.m.m.m.n.m.P.P.m.P.n.n.m.m.m.B.P.I.U.Q.!.!.!.!.8X8X8X8X8X8X8X8X8X8X8X7X!.W.Q.P.P.n.z.c.k.h.s.d.u.} { [ ] U L P J G f f f f H J P L U ] ] | } } u.h.l.c.c.c.c.K.P.P.P.P.R.W.~.8XuXwXwXuXuXwX8X8X8X7X!.!.E.Q.P.M.z.j.u.{ [ T T ] ] ] ] [ [ { { u.u.u.u.u.u.u.u.k.k.k.k.c.c.c.M.N.M.I.R.T.T.T.T.T.Q.Q.U.P.B.V.n.c.z.x.j.h.d.| L J N i 0 0 8 6 6 5 6 6 8 8 0 i i i p f N J J J J J J J J J J J H p p p p p u u u 9 > > > > & > > > > & & & & & & & & & & # # # # # # # # # # % % % % = = * * * * ; > ; ; ; ; ; ; ; ; o o o o - - , , 1 , , 1 + ( ;X<XnXmXmXmXmXmX<X-X-X-X-X-X<X2XmXmXmXmXmX<X2X<X>X>X=X,X X[.r.t.,.&.*.MXMX2XMXmX2XmX2X2X2X2X2X2X2X2X2X2X2X2XmX2XmX2X2X2X2X2X2X-X=X=X=X,X+XOX'.'.4./ 4 4 4 4 4 4 4 4 :.`.|.|.|.|.|.OX X|.|.|.|.|. XOXOXOX+X+X+X+X+XOX Xr.;.@.@.#.&.#.#.#.@.+.n z z z n n S @.@.@.@.#.@.&.*.%.*.5.>.>.4.>.>.4.2.>.4.4.3.).).).}.}.}.}.}.).}.}.}.{._._._._._.).)._.).).6.e.e.e.e.e.6.6.).)._.).).).).).).}.).G.4.0.4.4.3.3.G.G.).).).).).).G.).3.4.3.=.+.+.n n +.+.+.$.=.=.>.,.3.6.6.6.6.6.6.e.e.e.e.e.t.e.e.e.e.e.e.r.).).e.t.6.&.+.3.e.[.}.OX+X:X:X:X:X:X:X+X$X+X'.b k z @.#.&.q._. X+X&X@XXX=X=X1X2X2X2X2X2X2X2X2X2X2XmX-X.XJ.oX+X+X=X:X=X3X3X3X3X2XmX-XH.G.G.3 + O + , w h g g C E E ~ ~ ! ~ ~ _ ~ L _ | | } | } } | } ..} l.h.} } h.h.h.k.h.h.k.x.k.c.c.M.B.P.I.Q.T.W.6X7X0X9X9X9X9X9XuXuXiXiXiXiXpXpXpXdXdXpXpXpXdXdXdXpXiXiXiXiXiXiXiXiXiXiXiXiXdXdXaXaXaXaXaXaXsXsXsXsXsXjXjXzXjXjXjXjXjXkXkXkXzXzXzXzXkXzXzXzXcXzXxXzXzXzXzXzXxXxXcXcXcXcXcXcXcXcXcXcXcXcXzXzXzXzXzXzXzXzXzXsXfXsXsXaXaXdXdXpXpXpXiXiXiXiXiXiXiXiXtXtXtXtXuXuXrXrXrXrXrX9X9XrX9X9X0X0X9X9X9X7X9X9X0X7X7X7X7X7X0X7X7X7X6X6X4X4X4XW.4XW.W.T.Y.U.U.U.U.U.U.U.U.U.U.U.U.U.U.Y.Y.Y.Y.Y.T.T.4X4X4X4X4X4X5X6X6X6X6X5X6X6X4X4X5X6X4X4X4XW.W.T.U.Z.B.m.b.b.k.f.u.",
"n.n.n.V.V.V.V.V.V.V.V.V.V.n.n.b.c.z.z.z.z.z.z.z.c.z.c.c.c.c.c.M.c.c.c.c.c.M.V.V.M.M.M.M.M.m.m.M.M.n.n.M.M.M.V.P.P.I.R.W.!.!.!.7X8X8X8X8X8X8X8X8X7X7X7X7XW.Q.U.P.n.z.z.k.s.d.d.u.i.{ ] ] U L P J G f f f H G J P L U ] ] { | } u.h.h.c.c.c.M.K.P.P.P.P.R.W.~.wXuXwXwXuXuXuX8X8X7X7X!.!.!.Q.P.M.c.j.u.{ [ T T ] ] ] [ [ [ { u.u.u.u.u.u.u.u.h.k.k.k.l.b.b.c.b.M.m.I.R.T.E.T.W.W.T.W.Q.U.P.B.B.n.n.n.z.k.h.} I P N N i 0 0 9 8 6 6 8 8 i i i p R J J J J P P P P P P P P J J J H H f f p p u u u 9 9 1 > > > > > > & & > > & & & & & # & # # # # # # # # = % % % % * * * * * * > ; ; ; ; ; ; - o + O O O o + + , , 1 , , 1 - W ;X;X<X<XmXmXmXmX<X<X-X-X-X<X<X<X<X<XmXmX<X2X2X-X-X:X=X+X Xr.t.q.,.;. XPX2XmXmX2X2XmXmX2X2X2X2X2X2X2X2X2X2X2X2X2X2X2X2X2X2X<X-X=X=X=X,X,XOX`.0.0.-.l 4 4 4 4 4 4 l D.&X:XOXOXOXOXOXOXOXOXOX X X X XOX+X+X+XOX+X+XOX X_.q.%.@.@.#.#.@.@.@.n n z z z n n n n n n @.@.#.@.#.*.*.*.5.>.>.4.5.>.4.4.4.4.4.4.0.).).)._.).}.}.).}.}._.`._._.{.}.`.{.}.}.}.).).].}.[.e.6.6.3.).).).).)._.).).}.}.}.).4.4.4.4.3.3.0.G.D.).).).D.).G.G.4.3.3.>.@.+.z n +.+.#.$.=.=.=.,.,.6.6.3.6.6.6.6.e.e.6.6.e.t.e.e.e.e.e.r.).).r.e.6.#.n 3.e.).].OXOX$X:X:X:X:X+X+X=X+X,Xq.z k z n #.2.0._.OX+X+XXX&X=X1X2X2X2X2X2X2X2X2X2X2X2X2X@XJ.oX+X+X+X=X=X:X2X2X3X2XmX<X<XH.` - + O o - , 1 w a d g C E ~ ! ~ ~ _ ~ P | | | | } } } } X.} } l.p.p.p.h.h.h.h.h.h.j.j.z.c.c.c.B.P.P.R.R.W.!.7X7X8X9X9X9XwXuXuXuXuXiXiXiXiXiXdXdXdXdXiXdXdXdXdXuXuXuXiXuXuXuXuXuXuXuXuXiXiXdXdXdXdXdXaXaXdXdXdXsXsXsXsXsXsXsXsXsXjXzXzXzXzXkXkXkXkXzXzXzXzXzXzXzXzXcXcXcXcXcXcXcXcXcXcXcXcXcXcXcXcXzXzXzXzXzXzXzXzXzXfXfXsXsXaXdXpXpXpXpXpXiXiXiXiXiXrXuXuXuXrXrXuXuXuXrXrXrX9X9X9X9X9X7X7X8X8X8X8X0X8X0X8X7X7X7X6X6X6X6X6X6X6X6X4XW.T.W.W.W.W.T.T.T.T.I.I.I.I.I.U.U.U.U.U.U.U.Y.Y.Y.T.Y.Y.T.T.4X4X4X4X5X5X6X6X6X6X6X6X6X6X4X6X6X6X6X4X4XW.W.Y.I.B.m.m.b.x.f.u.u.",
"b.n.n.V.V.V.V.V.V.V.V.V.V.V.n.b.z.z.z.z.z.z.z.z.z.z.c.c.c.z.c.c.c.c.c.c.c.c.M.M.M.M.M.M.n.M.m.M.c.c.c.M.M.M.m.P.P.P.R.T.!.!.!.!.8X8X8X8X8X8X8X8X7X7X7X!.W.Q.U.P.n.z.z.k.s.d.d.u.u.{ ] ] U L P J G G f f H G J P L U ] ] { } } u.h.h.c.c.c.M.K.P.P.P.R.R.E.~.wXuXwXuXuXuXwX8X8X7X7X!.!.!.Q.P.M.M.j.u.{ [ T ] ] ] ] [ [ { { u.u.u.u.u.u.h.k.k.k.k.k.c.N.M.b.M.N.m.I.R.T.E.T.W.!.W.W.Q.U.P.P.B.n.n.n.z.k.h.} I P N N N i i 0 9 8 8 0 i i p p R J J J P P L L L L L U L P P P P J H J f p p p u u u u 9 > > > > > > > > > > & & & & & # # # @ # $ # # # # % % % % = * * * * * ; ; ; ; ; ; ; - O O   O O O o + + , , - , 1 1 O c ;X;X1X<X<XmXmX<X<X<X-X<X<X<X<X<X<X-X<XmX<X2X<X>X-X:X+X+X Xr.t.w.,.,.MXmXMXMX-XmXmX2X2X2X2X2X2X2X2X2X2X2X2X2X2X2X2X2X2X2X2X>X=X=X&X+X,X X X'.0.2.S 4 4 4 4 4 4 v $X=X+XOX+X:XOXOXOXOXOXOX+X,XOXOXOXOX=X+XOXOX+X+XOX`.r.2.S @.+.#.#.+.n n z z z z z n n n n n n @.#.%.@.@.*.=.5.=.5.>.2.5.>.4.4.4.4.4.4.4.4.3.).).).).}.).).).)._.'.`.{.{.{.}.}.OX}.).)._.).).).).).e.e.).).).).).).).}.}.}.).4.0.0.4.3.3.3.0.D.).).).).).G.).3.3.3.>.&.+.z z n +.+.#.&.=.=.>.,.3.3.3.6.6.6.6.6.6.6.6.e.t.e.6.e.e.e.e.e.r.r.e.3.#.n 3.e.).[.].OX+X:X:X+X>X:X:X3X:X,X,X>.k k n @.>.,.r.OX+X+X+X&X=X=X3X2X2X2X2X2X2X2X2X2X2XMX=XJ.oXoX+XOX:X:X=X3X3X3X3XmXmXmX;Xd + O + + , , , w a h h g B E ~ ~ ~ ~ ~ L | | | | ..} ..} ..X.} l.p.h.h.u.p.u.s.s.h.h.h.z.c.c.c.K.P.P.R.R.T.!.6X7X7X9X9X9XwXuXuXuXuXiXiXiXiXiXiXdXuXiXiXdXdXdXiXuXuXuXiXuXuXuXuXuXuXuXdXiXiXiXiXiXiXpXpXaXaXaXaXaXsXaXsXsXsXsXsXsXsXjXkXzXkXkXkXkXkXzXzXzXzXzXzXzXzXcXcXcXcXcXcXcXcXcXcXcXcXcXcXcXcXzXzXzXzXzXzXzXzXzXgXsXsXsXsXdXpXpXpXpXpXiXiXiXtXuXrXiXuXuXrXrXrXrXrXrXrX9X9X8X8X8X8X8X7X7X7X0X0X8X6X8X0X8X7X6X!.!.!.T.4XW.W.T.T.T.T.W.W.W.W.T.T.T.T.I.I.I.I.I.I.U.U.U.U.U.U.Y.Y.Y.T.Y.T.T.4X4X4X4X4X5X5X6X6X6X6X6X6X6X6X6X6X6X7X6X4X4XW.W.Y.I.B.n.n.b.k.s.u.i.",
"b.n.V.V.V.V.V.V.V.V.V.V.V.n.n.n.z.z.z.z.z.z.z.z.c.z.c.c.c.c.c.c.c.c.c.c.c.c.P.K.P.P.P.K.M.M.M.c.c.c.c.c.M.M.K.P.P.P.U.Q.R.!.!.7X8X8X8X8X7X7X7X8X7X!.7X!.W.Q.U.B.n.c.z.k.j.s.u.i.{ [ [ ] L L P J J f f f H J J P L U ] ] | | } u.h.h.c.c.c.c.K.P.P.P.R.E.E.~.8XuXuXuXuXuXuXwX8X8X7X7X!.T.Q.P.M.c.k.u.[ [ [ ] ] [ [ [ [ [ [ i.u.u.u.u.u.k.k.k.k.k.k.k.b.b.b.M.M.m.P.R.T.!.!.6X6X!.W.T.T.Q.U.P.B.B.n.M.c.h.} ] L P J N p p i 0 9 i i i p R R J J P L L U U U U U U U U U L P P J J H H f p p p u u 9 9 < > > > > > & > > > * & & & & & # # # # # # * & * * * * = * 8 ; > > ; ; 1 1 1 ; ; + O O O O O O O + + + + 2 , 1 , 1 - w ;X<X;XmXnXmXmXmX<X;X<X<XnXmXmXnX<X-X<X<X<X<X<X-X=X=X,X X Xr.q.3.#._.PXMXMXMXmXmXmXmXmX2X2X<X2X2X2X2X2X2X2X2X2X2X2X2X2X2X2X-X=X=X&X+XOX X`.0.2./ k 4 4 4 4 4 v $X>X$X:X=X+X+X+XOX+X+XOXOXOXOXOXOX+X,XOX=X+XOXOXOX|. Xr.&.S @.@.@.+.n b z z z b z z b m n n n n @.@.@.%.#.%.&.=.>.>.>.;.;.5.4.4.4.4.4.4.4.4.4.3.0.).).).).).).).).'.{.{.}.$X$X$XoX}.}.}.}._.).).).)._.).).)._._.}.}.}.}.}.).G.4.0.).0.4.4.G.).).G.).).).).D.G.e.0.3.3.&.n n n n n +.+.$.=.=.=.,.,.3.6.6.6.6.6.6.6.6.e.e.e.e.e.e.e.e.e.e.e.r.e.3.&.n >.e.e._.}.}.+X:X+X:X:X:X:X:X:X:X:X,XS k M n %.2.0. XOX+X=X+X&X=X3X2X2X2X2X2X2X2X2X2XmX2X3X&XoXoX$X+X=X=X:X3X3X3X3X2X<XMXmXX.O + - + 3 - + - 3 h a h g g E ~ ~ ~ ~ _ _ _ | | } } } ..X...v.l.h.u.p.u.u.p.h.h.h.h.k.c.c.c.c.M.P.P.R.R.T.!.!.7X8X9X9XwXwXuXuXiXiXiXiXiXiXdXdXdXdXdXdXuXuXuXuXdXuXuXuXuXwXwXuXuXiXdXuXuXuXuXdXdXdXdXdXuXdXdXsXdXdXdXdXsXsXsXdXdXsXsXgXsXjXgXjXjXzXzXzXkXkXzXzXzXcXcXcXcXcXcXcXcXcXcXcXzXzXzXzXzXzXzXzXzXzXzXzXgXgXsXsXsXsXdXdXdXpXpXiXiXiXiXiXuXuXuXuX9X9X9X9X9X9X9X9X9X9X8X9X8X8X7X7X7X7X7X7X0X6X6X!.6X6X!.!.!.T.T.T.6X6X6XT.T.T.T.T.T.T.W.T.U.I.I.I.I.I.I.I.I.U.U.Y.I.I.Y.Y.Y.Y.Y.T.T.T.T.T.T.T.4X4X6X6X6X6X5X6X6X6X6X6X4X4X5X5X4X4XW.T.Y.U.B.m.n.z.k.f.u.i.{ ",
"n.n.V.V.V.V.B.V.V.V.V.V.V.n.n.n.z.c.z.z.z.z.z.z.z.z.c.c.c.c.c.c.c.c.c.c.c.c.M.M.M.M.M.M.M.c.c.c.c.c.c.c.c.c.M.K.P.P.R.R.T.!.!.7X8X8X8X8X8X8X8X8X7X!.7X!.Q.Q.U.B.n.c.z.k.h.s.u.i.{ [ ] ] L L P J G f f p f J J P L U ] ] | { } u.h.k.c.c.c.c.K.P.P.P.R.E.E.~.~.wXuXwXuXwXwX8X8X7X7X7X!.T.Q.P.M.c.j.u.[ [ [ ] ] [ [ [ [ [ { i.u.u.u.u.u.h.k.k.k.k.k.k.c.b.c.M.M.m.I.R.T.!.!.!.!.!.!.!.!.W.T.R.U.U.m.n.z.j.u.] L L P J N N p p i i p R R J P P L U U U U U Y T T T U U U U L P P P J J G p p s i u u 9 < 1 > > > > > > > > * & & & & # # # # # # # # # = * * = * * > > ; ; ; 1 1 9 ; - + O O O O O O O O + + + + o o 1 , 1 1 a ;XnXnXMXMXmXMXmX<X<X<X<XnXmXmXmXmXmXmXmXmX2X2X2X>X=X+X X Xr.t.,.#. XMXMXMXMXMXmXmXmXmX2X2X2X2X2X2X2X2X2X2X2X2X2X2X2X-X2X-X=X=X=X+XOX X'.r.q.:.b 4 4 4 k 4 l @X>X$X>X&X=X+X+X+X+X=X=X+X+XOXOXOXOXOX,X+X+X=XOXOX X_.`.q.@.b n n n n z z z z z z z z z z b n n n @.@.#.*.&.*.&.=.>.>.>.5.5.5.<.4.4.4.4.4.4.4.4.4.3.G.G.).).).).G.G.)._.{.oX$X$X$X$X$X}.}.}.}.).).).).).).).)._._._.}.}.}.).).G.0.0.0.0.3.3.0.G.).).).).).).).G.0.0.3.3.=.n n n n n n +.#.#.=.=.,.3.3.3.6.6.6.6.6.6.6.e.e.e.e.e.e.e.e.e.e.e.e.t.3.#.n =.e.e.'.{.{.OX:X:X:X:X:X:X:X:X:X:X:X`.M 4 z S &.3.`. XOX+X+X+X=X3X2X2X2X2X2X2X2X2X2X2XmX2X1X&XXXXX+X=X=X:X3X3X3X3X-XmXmXMX%XQ O + + 1 - - 1 1 3 a h h g K E ~ ~ _ _ ~ _ | } } } } | ..v.l.v.p.p.h.} } u.p.p.p.h.k.l.l.c.c.M.K.P.R.R.T.E.W.6X8X9X9X9XwXwXuXuXuXiXiXiXiXiXiXdXdXuXuXuXuXuXuXdXuXuXuXuXwXwXuXuXiXiXuXuXuXuXdXdXdXiXiXdXdXsXdXdXdXdXsXdXdXdXdXdXdXdXsXsXsXjXjXjXjXgXzXzXkXzXzXzXzXcXcXcXcXcXcXcXcXcXcXzXzXzXzXzXzXzXzXzXzXzXgXgXgXsXsXsXsXdXdXdXpXpXiXiXuXuXuXuXuXuXuX9X9X9X9X9X8X8X8X9X8X0X0X0X0X7X6X7X6X7X7X6X!.!.!.E.T.T.T.E.T.T.T.T.R.R.R.R.T.T.!.T.T.T.T.R.U.U.U.I.I.I.I.I.I.I.I.I.I.Y.Y.Y.Y.Y.T.T.T.T.T.T.T.4X4X6X6X6X6X6X6X6X6X6X6X6X6X6X5X4X4XT.Y.U.I.B.M.z.x.f.d.i.{ T ",
"n.V.V.V.B.B.B.B.V.V.V.V.n.n.n.n.z.c.z.z.z.z.z.z.z.k.c.c.c.c.c.c.c.c.c.c.c.c.c.c.c.c.c.c.c.c.c.c.c.c.c.c.c.c.c.M.P.P.R.R.T.!.!.7X8X8X8X8X8X8X8X8X8X7X7X!.Q.Q.U.B.M.c.z.j.s.d.u.i.{ [ ] Y L L P J G f f p f J J P L U ] ] [ | } u.h.k.c.c.c.M.P.P.P.P.R.E.!.~.8XuXuXuXuXuXwX8X8X7X7X!.!.T.Q.P.n.z.j.u.[ [ [ ] ] ] [ [ [ [ i.u.u.u.u.u.u.h.k.k.k.k.k.k.b.b.c.M.M.K.U.T.!.!.!.6X6X!.!.!.!.W.T.Q.R.R.B.m.z.j.u.[ ] L L P P J N N N N R J P P L U Y Y Y T T T T [ [ [ [ [ [ Y U L P P P J J H f f p u u u u < < 1 > > > > > > > > & & & # # # & & & * # & * * * * * > ; 1 1 1 1 1 1 1 o + O O O       O O O O + + + o o , 2 1 , a ;XnXmXMXMXmXmXmX<X<X1X<X<X<X<XnXmXmXmXnXmX2X<X>X=X=X+X|. Xr.t.,.;.,XMXMXmXMXmXmX2X2X2X2X2X2X2X2X>X>X2X2X2X2X2X2X2X2X2X2X>X>X=X+XOX X`.t.4.2.S k 4 4 4 4 4 F.2X=X=X:X=X&X&X&X&X=X=X:X=X=X=X=X=X=X+X+X=XOX&X+X X|.'._.;.m b m n z z z M M M M z z z z z b m n n S @.@.%.&.*.&.=.>.>.>.>.5.5.<.4.2.4.4.4.4.4.4.4.4.4.4.0.G.G.G.0.0.)._.).oX$X$X$X=X=XOX}.}.}._.).).).).).).).).).).).}.).).G.G.).4.4.4.G.3.4.G.).).).G.).).).G.e.3.3.4.>.+.n n n n n +.+.#.$.=.=.,.,.3.6.6.6.6.6.6.6.e.e.e.e.e.e.e.e.e.e.e.e.t.3.$.+.=.e.e.'.{.{.OX,X:X,X:X:X:X:X:X:X:X:X3X2.k k n n ;.0.`. X XOX+X=X3X2X2X2X2X2X2X2X2X2X2X2XmX2X1X&XXXXX+X=X=X:X3X3X3X1XMX<XmXPXH.h + - - + - 3 - - a h h g g K E ~ _ ~ _ | | | } } | | p.S.v.p.p.p.p.} } } p.p.p.p.h.v.l.c.M.K.K.P.P.R.R.E.E.!.8X8X8X9XwXwXwXwXuXuXuXdXuXuXuXuXuXuXuXuXuXuXuXuXuXuXwXwXwXwXwXuXuXuXuXuXuXuXdXdXuXuXuXdXdXdXdXdXdXdXdXdXdXdXdXdXdXsXdXdXsXsXsXsXsXsXgXzXzXzXzXzXzXzXzXcXcXcXcXcXcXcXcXzXzXcXcXcXcXcXcXzXzXzXzXgXgXgXfXsXdXdXdXdXiXuXuXuXuXuX9X9X9X9X9X8X8X8X8X8X8X8X8X8X8X8X!.7X8X!.!.!.!.!.!.E.E.E.E.E.E.E.E.E.T.Q.T.R.R.R.R.R.R.R.R.R.R.U.R.R.R.U.I.I.I.Z.Z.Z.Z.Z.Z.C.I.I.Y.Y.Y.Y.Y.Y.Y.T.T.T.4X4X5X6X6X6X6X5X5X6X6X6X6X6X6X6X5X4XW.Y.U.I.C.n.b.x.j.d.d.{ [ T ",
"V.V.V.V.B.B.B.B.V.V.V.V.n.n.n.n.z.z.z.k.k.z.z.k.k.k.k.c.c.c.c.k.c.c.c.c.c.c.c.c.c.c.c.c.c.c.c.c.c.c.c.c.c.c.c.M.P.P.R.R.R.!.!.7X8X8X8X8X8X8X8X8X8X7X7X!.Q.R.U.B.n.c.z.j.s.d.u.i.{ [ ] U L P P J G f f f f J J P L U ] ] | | } u.h.k.c.c.c.M.P.P.P.P.R.W.!.~.wXuXuXuXuXuXuXwX8X8X7X!.!.T.Q.P.M.c.k.u.{ [ ] ] [ [ [ [ [ [ i.u.u.u.u.u.h.k.k.k.k.k.k.k.b.b.b.M.m.P.T.T.!.!.6X7X7X6X!.!.!.!.W.T.R.R.B.m.b.k.s.{ ] Y L L L P P P P P P P L U Y T T T T [ [ [ [ [ [ [ i.i.[ [ U U L L L P J J G f p p u u u t t < > > 1 > > > ; ; & & & # # # & & * * & * * * * * > 1 9 9 w w 9 1 ; , O O O         O O O O O + o o o & > 2 1 , 3 /.nX<XnXmXmXmXmXnXnX<X<X<X<X<X<X<X<XnX<X<X<X<X-X=X=X+X X Xr.t.,.3.2XMXMXmXmXmX2X2X2X2X2X2X2X2X2X>X-X>X2X2X2X2X2X2X2X2X2X>X=X+XOX X'.r.0.2.%.l 4 k 4 4 4 D.mX&X>X:X:X:X:X=X=X=X=X:X:X=X=X=X=X=X=X=X+X=X+XOXOX|.'.'.0.S b b m z M M M M l l M M M M M z z b m m n n n @.%.&.*.=.>.>.>.>.>.5.<.<.<.<.4.4.4.4.4.4.4.4.4.4.4.G.G.G.G.).).).}.$X$X=X:X$XOX}.}.}.).).).).e.).).).).).).).).).).G.).0.4.4.4.).3.3.).).).).G.).).G.0.e.6.3.4.>.+.n n n n n +.+.#.#.$.=.=.,.,.6.6.3.6.6.6.6.e.e.e.e.e.e.e.e.e.e.e.t.t.,.=.+.&.3.e._.}.}.OX+X,X,X:X:X:X:X:X3X3X3X&X:X;.4 k z S ;.0._.'. XOX=X3X3X2X2X2X2X2X2X2X2X2X2X2X2X2X=XXX+X+X=X=X=X:X3X3X2XmX2XmXMXnX1.+ + + + - 3 3 - 3 w a g g E ~ ~ ~ _ _ | _ _ | | o...v.v.p.} } } } } } } } ..p.p.p.h.l.c.K.K.K.K.P.P.R.E.E.!.0X0X8X8XwXwXwXwXuXuXuXuXuXwXwXwXwXwXuXuXuXuXuXuXuXwXwXwXwXwXwXuXuXuXuXuXuXuXuXuXuXuXuXuXuXdXdXdXdXdXuXdXdXdXdXdXdXdXdXsXdXsXsXsXsXsXgXzXzXzXzXzXzXzXzXzXzXcXcXcXcXcXcXcXcXcXcXcXcXcXcXzXzXzXzXgXgXgXgXsXdXdXiXiXuXuXuX9X9X9X9X8X8X8X8X8X8X8X8X8X8X7X8X8X!.!.!.!.!.!.!.!.!.!.!.E.E.E.E.E.E.E.E.E.R.R.R.R.R.R.R.I.I.I.I.I.P.P.I.I.I.P.P.I.Z.Z.Z.Z.Z.Z.C.C.I.I.I.Y.Y.Y.Y.Y.Y.T.T.4X4X4X4X6X6X6X6X6X5X6X6X6X6X6X6X6X4XW.Y.U.I.B.m.n.z.k.f.d.u.{ T Y ",
"N.V.V.C.B.B.B.B.V.V.V.V.n.n.n.n.z.z.z.z.k.k.k.k.k.k.l.l.l.l.l.k.c.c.c.c.c.c.c.c.c.c.c.c.c.c.c.c.c.c.l.c.c.c.c.c.K.P.P.R.R.E.!.7X7X8X8X8X8X8X8X8X8X7X7X!.Q.U.U.B.n.c.z.j.s.u.u.i.{ [ ] U L P P J G f f f G J J P L U ] ] | { } u.h.k.c.c.c.K.P.P.P.P.R.E.~.~.wXuXuXuXuXuXuXwX8X8X7X!.!.T.Q.P.M.M.x.s.{ ] ] [ [ [ [ [ [ [ i.i.u.u.u.u.u.k.k.k.k.k.k.z.b.b.M.M.m.P.U.T.6X6X7X7X7X7X7X7X7X7X!.!.T.T.U.B.n.z.j.u.[ [ Y Y Y U L L L L L Y Y T T T [ [ i.i.i.i.i.i.i.i.[ [ [ [ T U U U L P J J G H p p u u u u u 1 > > 1 > > > ; ; > & = = & & & = * * * * * > > > 1 9 w w w w 1 1 - + O O O               O O o o o o & & , 1 , , H.nX<XmXnXmXmXnXmXmXnXmXnXnXnXnXmXmXnXnX<X<X<X-X=X=XOXOX Xr.q.2.t.MXmXmXmXmXmX2X2X2X2X2X>X>X>X>X<X<X>X>X2X2X2X2X<X>X2X>X=X+XOX X`._.0.q.;.m 4 4 k 4 4 9.MX-X3X3X>X:X:X:X:X:X:X=X:X:X=X=X=X=X=X=X&X&X+X=XOXOX|.'.'.;.z z z M l k l l k M M l l M M M M z z m n n S @.@.%.&.&.=.=.>.>.>.5.5.5.5.5.<.<.1.<.4.4.4.<.4.4.4.4.4.4.4.G.).G.).).}.OXOX}.}.}.}.}.).).).).).).).).).).).).).).).).).).3.4.4.0.).).).).).).G.G.).).).6.3.3.3.3.>.@.n n n n n n +.#.#.$.=.=.>.,.3.3.6.6.6.6.6.6.e.e.e.e.e.e.e.e.e.r.t.t.,.=.+.#.3.e.).`.}.OX+X,X:X:X:X:X:X3X3X3X3X=X>X+Xb 4 k z &.q.0.r. XOX+X3X3X2X2X2X2X2X2X2X2X2X2X2X2X2X3X=XXX&X&X=X=X=X3X3X2X2XMXmX<XMX;Xd O + 1 , 1 w 3 3 w h g C E ~ ~ ~ | ~ _ | | _ | | p.p.........} } } } } } X...p.p.h.l.c.K.K.K.K.K.P.E.E.E.E.~.8X8X8XwXwXwXwXwXuXuXuXuXuXwXwXwXwXwXwXwXwXwXwXwXwXwXwXwXwXwXwXuXwXuXuXuXuXuXuXuXuXuXuXuXuXuXdXdXuXdXiXwXiXiXiXdXdXdXdXsXdXdXdXsXsXsXsXfXfXgXgXzXzXzXzXzXzXcXcXcXcXcXcXcXcXcXcXcXcXcXzXzXzXzXgXgXsXgXdXdXdXdXuXuXuXwXwXwX9X9X8X8X8X8X8X8X8X8X8X0X~.~.!.!.!.!.!.!.!.!.!.!.!.!.E.E.E.R.E.E.E.R.R.R.R.I.K.P.I.I.I.I.I.R.I.P.P.P.P.P.P.B.C.C.Z.Z.Z.I.I.I.C.I.I.Y.Y.Y.Y.Y.Y.T.4X4X4X4X4X4X6X6X6X6X6X5X6X6X6X6X6X6X4X4XY.U.Z.C.m.n.b.x.j.s.u.{ [ Y Y ",
"V.V.V.C.C.B.B.B.B.B.B.V.n.n.n.z.z.z.z.z.k.k.k.h.l.l.k.l.k.k.k.k.c.c.c.c.c.c.c.c.c.c.l.c.c.c.c.l.c.c.c.l.c.c.c.K.K.P.P.R.R.E.!.7X!.7X8X8X8X8X8X8X8X7X7X!.Q.U.U.B.n.c.z.j.s.d.u.i.{ [ ] U L P P J G f G f G J J P L U ] ] [ | } u.h.l.c.c.c.M.K.P.P.P.R.E.E.~.wXuXuXuXuXuXwX8X8X7X!.!.!.E.Q.P.n.M.x.s.{ ] [ [ [ [ [ [ { { i.i.u.u.u.u.u.k.k.k.k.k.k.k.b.b.b.M.m.P.I.T.T.6X!.6X7X6X8X8X8X0X7X!.E.T.U.B.M.z.j.u.{ { { [ [ [ ] Y Y Y Y T T [ [ [ i.i.i.i.i.i.i.u.u.u.i.i.i.[ [ T Y U U L P J J H p p i u u u u t > > > > > > ; ; > * & = # # & = * * * * ; * ; 1 9 9 w w 3 1 1 , - o O O O                 O O O o o & & , 1 , - (.nX<XnXmXmXmXnX<XnXmXmXmXMXMXMXmXmXmXmXmX2X2X-X=X=XOXOX|.r.0.,.r.2X2X2XmXmXmX2X2X2X2X2X>X>X>X>X<X-X>X2X2X2X2X<X-X-X>X=X&XOX X_.r.r.q.;.S k 4 k 4 4 -.MX*X-X=X=X3X=X=X=X=X:X:X>X>X>X:X:X=X:X:X:X=X&XOX:XOXOX X0.2.b l M l k k l l l l M l M M l M M M z z b m m n S @.%.&.&.=.>.>.>.5.>.>.<.5.<.<.<.<.4.9.8.4.1.<.4.1.<.<.<.4.G.).).).).).}.}.).).).).).).).).e.).).e.e.e.e.).).).).).).).).3.4.4.).).).).).).3.3.0.0.e.6.3.3.3.3.3.>.@.n n n n n z +.+.#.$.=.=.>.>.,.3.3.6.6.6.6.6.e.e.e.e.e.e.e.e.e.r.t.t.,.=.+.+.,.3.)._.}.}.OX,X=X:X:X:X:X:X3X3X3X2X>X2X0.z 4 l ;.q.r.[.OX+X+X=X3X3X2X2X2X2X2X2X2X2X3X3X2X2X2X3XXXXX$X&X=X=X3X3X3X2X2X2XmXmXMX8.1 + w 3 , a a a h d C E ~ ! ~ ~ ! ~ ~ ] _ _ | X.X.} p.p.p.} } } } } } } } ..p.p.v.v.l.K.K.K.K.K.P.E.E.E.E.!.0X0X8X8XwXwXwXwXwXuXuXuXwXwXwXwXwXwXwXwXwXwXwXwXwXwXwXwXwXwXwXwXwXwXuXuXuXuXuXuXuXuXuXuXuXuXdXdXdXdXwXwXwXwXiXiXdXdXdXdXdXsXdXdXsXsXsXsXsXfXgXgXzXzXzXzXzXcXcXcXcXcXcXcXcXcXcXcXzXzXzXzXzXgXgXsXsXsXdXdXuXuXuXuXwXwX8X8X8X8X8X8X8X8X8X8X8X8X8X8X~.~.!.!.!.!.!.!.!.~.!.!.E.E.E.E.R.R.P.P.P.P.P.P.P.P.K.K.K.K.K.K.K.P.I.P.P.P.P.P.B.m.m.B.B.Z.Z.I.I.I.C.I.I.I.Y.Y.Y.Y.Y.T.4X4XT.4X4X4X6X6X6X6X5X5X6X6X4X4X4X4X4XY.I.Z.B.m.n.b.x.j.s.d.{ [ ] L L ",
"V.V.C.C.C.B.B.B.B.B.B.V.V.n.n.z.z.c.z.z.z.k.h.h.k.k.l.l.k.k.k.l.l.l.c.c.c.c.l.l.c.c.c.c.c.c.c.l.c.c.c.c.c.c.c.K.K.P.P.R.R.E.!.7X!.7X8X8X8X8X8X8X8X7X7X!.Q.Q.U.B.n.c.z.k.h.d.u.i.{ [ ] U L P J J H f f f G J J P L Y ] [ [ | } u.h.l.c.c.M.K.P.P.P.P.R.E.~.~.wXuXuXuXuXuXuX8X8X7X7X!.!.T.Q.P.n.M.j.u.{ [ [ [ [ [ [ [ { i.i.i.u.u.u.u.u.u.k.k.k.k.k.c.b.M.M.M.K.I.T.T.6X6X6X6X7X6X7X7X7X7X7X!.E.T.Q.P.n.n.z.s.u.u.i.{ { { { [ [ [ { { { i.i.i.i.u.u.u.u.u.u.u.d.s.u.u.i.i.[ [ Y U U L L P J G p p a u u u u u < > > > > > > * * * & = = = = * * > > 1 1 1 1 9 w a w 3 1 1 , , + + O O               .     O O O O & . & 1 1 - (.nX<XmXnXmXmX<X;X<X<XnXmXnXmXmXmXmXmXmXmX2X<X=X=X+XOX X`.'.0.;.'.2X2X<X2X2X2X2X>X2X2X>X>X>X2X2X<X-X>X2X2X2X2X<X-X-X>X=X+X X_.q.3.,.;.b l 4 k k 4 / mX%X2X&X=X=X:X:X=X=X=X=X=X>X>X>X>X=X=X=X:X:X=X&X+X&XOX|. X0.%.k l l k k l l l l l k l M M k k M z z b b m m n @.@.%.*.&.=.>.>.>.>.>.4.4.<.4.4.4.9.9.4.1.1.1.1.1.1.1.<.<.4.4.).).e.e.).).).).).).).e.e.6.6.6.6.e.e.e.e.e.).).).).).).).).0.0.0.G.G.G.).).G.3.3.3.3.3.3.3.3.3.3.3.>.@.+.+.n n z z n +.@.#.=.=.=.>.,.3.3.3.6.6.6.6.6.e.e.6.e.e.e.e.e.e.6.6.,.=.+.z >.3.).).`.}.OX,X=X=X:X:X:X3X3X3X3X2X2X3X3Xq.k n ,.q.r. XOXOX+X+X3X3X2X2X2X2X2X2X2X2X2X3X<X2X2X2X&XXXXX&X=X=X3X3X3X2X2X<X2XmXMX<XQ 3 3 1 - w h h h g E Q ! ~ ~ ~ K K ~ ~ ~ | X.| } X.p.v...| | X.| X.| |  .X.p.p.p.v.l.c.K.K.K.K.K.R.E.E.E.E.~.~.0X8XwXwXwXwXwXwXwXwXwXwXwXwXwXwXwXwXwXwXwXwXuXuXuXuXwXwXwXuXwXwXuXuXuXuXuXuXuXuXuXuXuXuXuXuXuXwXdXwXwXwXwXiXiXdXwXuXdXdXdXdXdXdXsXsXsXfXgXgXzXzXzXzXzXzXzXcXcXcXcXcXcXcXzXzXzXzXgXgXgXgXgXsXdXdXdXiXuXuXwXwXwX9X8X8X8X8X8X8X8X8X8X8X8X8X8X~.~.!.!.!.~.!.!.E.!.!.E.E.E.E.E.R.R.P.P.P.P.P.K.K.K.K.K.m.m.m.M.M.M.m.K.K.K.m.m.n.m.m.m.m.m.B.C.C.C.C.C.C.I.I.I.I.Y.Y.Y.T.T.T.T.4X4X5X4X4X6X6X6X6X4X4X4X4XT.T.Y.Y.Z.B.m.M.b.x.g.s.u.{ [ ] U L P ",
"V.V.C.C.Z.C.Z.B.B.B.B.V.V.n.n.z.z.c.z.z.z.x.k.h.k.l.l.h.l.k.k.l.l.l.l.l.c.l.l.l.l.l.l.l.l.l.l.l.c.l.l.c.c.l.c.c.P.P.P.R.R.E.!.!.7X8X8X8X8X8X8X8X8X7X7X!.Q.Q.U.B.n.c.z.k.h.d.u.i.{ [ ] U L P J H f p f f H J J P L Y ] | | | } u.h.l.c.c.M.K.P.P.P.R.E.E.~.~.uXuXuXuXuXuXuXwX8X8X!.!.!.E.R.P.m.M.h.u.{ [ [ [ [ [ [ [ [ i.i.u.u.u.u.u.u.u.u.k.k.k.k.c.b.M.M.M.K.I.T.T.6X6X6X7X7X6X6X7X7X0X7X7X!.!.W.U.V.n.b.j.s.s.d.i.i.u.u.{ [ { u.u.u.d.u.u.f.f.f.f.f.f.f.f.s.s.u.u.i.i.i.{ [ Y Y U L L P G H p p i i u u u 1 1 > > > > & & & * & = & = & * > > ; 1 9 9 9 a a a w 3 1 , - - + o O O                       O O o & . , 1 1 - S.nX<XmXmXmXnX<X1X<X<X<XnXmXmXmXmXmXmXmX<X<X-X*X@XOX&XOX'.'.0.,.'.MX2X<X2X2X<X-X=X=X=X=X-X-X2X2X2X<X-X>X2X2X2X<X-X-X=X=XOX'.q.,.&.#.z k k k k 4 v mX%X2X*X3X3X=X:X=X=X=X=X=X=X=X=X>X>X=X=X:X:X:X=X+X:XOXOX'.|.r.S k k l k k k k l l k k k l M k k l z z z b m n @.%.%.*.*.&.=.>.>.>.>.2.4.4.<.<.<.<.4.4.1.1.1.1.8.G.<.4.4.<.4.4.4.4.3.6.).).)._.).6.).e.6.e.6.3.6.6.e.6.e.e.e.).e.e.).).).0.0.).0.0.4.4.0.).G.3.4.3.3.6.3.3.4.3.3.3.=.@.+.@.+.+.z z n +.+.#.#.=.=.=.>.,.3.3.3.6.6.6.6.6.6.6.6.e.e.e.t.e.6.6.3.=.+.z &.3.e.'.}.}.}.OX=X=X:X:X:X3X3X3X2X2X3X3X2X,X%.@.,.3.t. X XOX+X+X3X3X2X2X2X2X2X2X2X2X2X3X<X2X2X2X=X&X@X&X&X=X=X:X3X2X2X2X2XMXnXMXS.h - , + 1 a h h g W ! ! ~ ~ E K K ~ _ _ | | | } } p...X. . . . . .|  . .X.p.p.v.v.l.l.S.K.K.K.K.^.E.E.E.E.E.E.~.0X8XwXwXwXwXwXwXwXwXwXwXwXwXwXwXwXwXwXwXwXuXuXuXuXwXwXuXuXwXwXuXuXuXuXuXuXwXwXuXwXwXwXwXwXwXwXwXwXwXwXwXwXwXiXwXwXdXdXdXdXdXdXsXsXsXfXfXgXgXgXzXzXzXzXcXcXcXcXcXcXcXzXzXzXzXgXgXgXgXfXfXdXdXdXdXuXuXuXwXwX9X9X8X8X8X8X8X8X8X8X0X0X0X~.~.!.!.!.T.!.~.~.!.E.E.!.E.E.E.R.R.R.P.P.R.P.P.K.K.K.K.M.M.M.M.M.M.M.m.m.m.m.m.m.M.M.M.M.M.M.m.m.C.C.C.C.C.C.I.I.I.I.Y.Y.Y.Y.Y.T.T.4X5X6X4X4X6X6X6X6X4X4X4XT.T.Y.Y.I.B.m.M.n.z.j.s.u.{ { ] ] L P J ",
"V.V.Z.Z.U.U.Z.Z.B.B.B.B.V.n.M.n.z.c.k.k.k.k.h.h.h.h.h.v.v.h.l.l.l.l.l.l.l.l.l.l.l.l.l.l.l.l.l.l.l.l.l.l.l.c.c.c.K.P.P.R.R.E.!.8X8X8X8X8X8X8X8X8X7X8X7X!.T.Q.P.B.c.x.k.j.d.u.u.{ { [ ] U L P J G G H f f H J P L L ] ] [ } } } u.h.l.c.c.c.K.P.P.P.R.R.E.~.8XwXuXuXuXuXuXuXuXwX8X8X!.!.!.E.I.K.M.j.u.{ [ [ [ [ [ [ { i.u.u.u.u.u.u.u.u.u.u.j.j.k.z.z.z.c.b.M.m.I.R.R.T.6X7X7X6X6X7X7X7X0X0X0X6X!.T.U.Z.m.n.z.j.s.f.u.u.s.u.u.i.u.u.d.s.s.u.s.f.k.k.k.k.f.f.f.f.f.u.u.u.i.i.i.i.[ T U U L P J G f p p p u u u < 1 1 > > > & & & & & > > > & * ; 1 u u 9 w 9 9 w w 3 1 1 1 - o O O X                     X X X o X & o , - , - S.nX<X<XmXmX<XmX-X<XnX;X-X<XmX<X<XmX<X<X<X<X-X-X*X+X=XOX`.0.0.2.'.MX<X<X<X-X-X*X*X*X-X*X*X=X-X-X-X<X<X<X-X-X<X<X>X>X=X$XOX_.0.,.#.M k l 4 4 e e @X<X*X=X-X=X=X=X=X=X=X=X=X=X=X=X=X>X=X=X>X:X:X:X=X=X+X+X X`.|.0.b k l l k k k k l l l l l l k k k k M M z z m S S S %.%.*.&.=.=.;.;.>.2.4.4.2.<.<.<.1.1.4.4.4.<.4.8.8.9.4.<.4.4.4.G.4.3.e.).)._.).e.e.6.6.6.6.e.6.3.3.0.e.e.e.e.e.e.6.).).).0.4.4.3.4.3.3.3.4.3.3.6.6.3.3.3.3.6.3.5.&.@.m n n n n n n n n @.#.&.=.=.>.>.,.3.3.6.6.6.6.e.e.6.3.6.e.e.e.e.e.3.,.=.#.n #.3.6.e.].'.].OX$X=X:X:X:X>X3X3X2X3X2X2X:X3X X&.;.3.t.[. X,X X:X3X3X3X2X2X2X2X2X2X2X2X2X2X2X<X<X<X1X%XXX=X=X+X:X3X3X2X2XmXmXMXMXnXE 1 1 - 1 1 w d g E Q E ! E E K ~ _ _ _ | | } ......} } X.|  . . .| | | X...p.p.v.S.S.S.S.K.K.K.^.R.E.R.E.E.E.E.E.~.~.8XwXwXwXwXwXwXwXwXwXwXwXwXwXwXwXwXwXwXuXwXuXuXuXuXuXuXuXuXuXuXuXuXuXwXwXwXuXuXuXwXwXwXwXwXwXwXwXwXwXwXwXwXwXuXiXuXdXdXdXsXsXsXgXgXgXgXzXzXzXzXzXcXcXcXcXcXcXzXzXgXgXgXgXfXfXfXhXdXhXdXdXuXwXwXwXwX8X8X8X8X8X~.~.0X8X0X~.~.~.!.!.!.!.!.!.!.!.!.!.E.E.E.R.E.T.R.R.R.P.P.K.K.K.K.K.K.M.M.c.M.c.c.c.M.M.M.M.M.M.M.M.M.M.M.M.M.M.M.m.m.B.I.I.C.C.C.C.I.Y.Y.Y.Y.Y.T.4X4X4X4X6X6X6X6X6X6X6X6X4XT.Y.Y.U.I.Z.m.M.b.z.j.s.u.{ [ T Y L P J H ",
"V.V.B.Z.I.Z.Z.Z.B.B.B.V.V.n.n.n.c.c.z.k.k.k.h.h.h.h.h.h.v.v.v.v.l.l.l.l.l.l.l.l.l.l.l.l.l.l.l.l.l.l.l.l.l.c.c.c.M.K.P.P.R.E.!.~.8X8X8X8X8X8X8X8X7X7X7X!.T.R.P.V.n.z.x.j.d.u.i.{ { ] ] U L P J J G H f f H J P L L ] ] [ } } } u.h.l.c.c.K.K.P.P.P.R.E.E.~.wXuXuXuXuXuXuXuXwX8X8X8X8X!.!.R.P.M.M.j.u.i.[ [ [ [ [ [ [ i.i.u.u.u.u.u.u.u.u.j.k.k.k.k.z.c.b.M.N.C.I.R.R.T.6X6X6X6X7X7X7X7X0X9X0X7X6XW.T.U.C.N.b.z.j.j.f.f.k.f.u.u.u.d.s.f.f.f.f.j.z.b.z.z.k.k.k.k.k.f.f.u.u.i.i.i.[ T U U L P J G H p p p u u u t 1 1 1 1 > > * & & > > > > ; 1 9 a a a a a w w 3 w 1 1 1 1 - o O                         . X X X X o O - + - - S.nX<X<XnXmX1X<X%X;X;X<X<XmXmX<X<X<X<X<X<X-X-X-X=X&X+X X Xr.0.2.'.2X2X2X<X<X-X-X-X-X-X*X*X-X-X-X-X-X<X<X<X<X<X<X-X-X=X+XOX_.e.3.=.S l k k 4 4 D.<X*X=X=X=X=X=X=X=X=X=X=X=X=X=X=X=X=X=X=X>X:X:X:X=X+XOX+XOX X|.0.l k l l l k k k l l l k l l k k k k k M z z m S S @.%.%.*.*.&.;.>.>.>.2.2.<.<.<.<.<.4.4.4.9.9.1.1.4.1.<.<.<.<.<.4.9.G.e.0.e.).).e.e.e.e.6.6.6.6.3.3.3.3.0.e.e.e.e.e.e.e.e.e.0.3.0.0.3.3.4.3.3.3.3.3.3.3.3.6.3.3.4.5.&.@.@.n +.n n n n n n +.#.&.=.=.=.>.,.,.3.3.6.6.3.6.6.6.6.t.e.e.e.e.6.3.,.>.#.+.+.,.6.t._.`.}.OX$X$X:X:X>X>X3X3X3X3X3X3X3X3X:X0.;.3.r.'.`.OXOX+X:X:X3X2X2X2X2X2X2X2X2X2X2X2X<X<XmX<X;XXX@X=X+X:X3X3X2X2XmXmXMXMXMX..3 h 3 3 w h h g ~ Q E ~ E E ~ ~ _ _ | | | } } ..p...X.X.| |  . . . .| X.p.p.p.v.v.S.S.S.K.K.K.K.P.R.R.R.R.R.~.~.~.~.8X8XwXwXwXwXwXwXwXwXwXwXwXwXwXwXwXwXwXwXwXwXuXuXuXuXuXuXuXuXuXuXuXuXwXwXwXwXeXeXwXwXwXwXwXwXwXwXwXwXwXwXwXwXwXwXuXuXdXdXaXsXsXgXgXzXgXzXzXzXzXzXzXzXzXzXzXzXzXzXgXgXgXgXfXfXhXhXhXhXdXuXwXwXwX8X8X8X8X8X8X0X~.~.0X0X~.!.~.~.!.!.!.!.!.!.!.!.!.E.E.E.E.E.E.R.R.R.P.P.P.K.K.K.K.K.c.c.l.l.l.l.l.l.l.c.c.c.c.c.M.M.M.M.M.M.M.M.M.M.m.m.C.I.C.C.C.C.I.Y.Y.Y.Y.Y.T.T.4X4X4X4X6X6X6X6X6X4X4XT.T.Y.Y.Z.C.B.N.b.z.k.f.u.i.{ T Y L L J J p ",
"V.B.Z.Z.I.I.Z.Z.B.B.B.V.V.m.n.M.c.z.c.k.k.k.h.h.h.h.h.h.h.h.h.h.h.l.k.k.l.l.l.l.v.l.l.l.l.l.l.l.v.l.l.l.l.c.c.c.M.M.P.P.R.E.!.~.8X8X8X8X8X8X8X8X7X7X7X!.R.R.P.B.n.z.x.j.d.u.u.{ { [ ] U L P K J G f f f H J P L L Y ] ] { } } u.h.l.c.c.c.K.P.P.P.R.E.E.~.wXwXuXuXuXuXuXuXwX8X8X8X8X!.!.R.P.M.c.k.u.i.[ [ [ [ [ [ [ [ i.u.u.u.u.u.u.u.h.k.j.k.k.k.z.b.M.M.m.C.I.T.T.T.6X6X7X7X7X7X7X7X0X9X0X7X6X6X4XT.I.C.M.b.z.z.k.k.z.k.k.f.f.f.f.f.f.j.k.z.b.b.b.z.z.b.z.z.k.k.f.u.u.u.i.i.[ T U U L P J G G f p p u u u u u 1 1 > > > > > > > > 1 1 1 9 a h a a a a a a 3 1 1 1 1 , - o O                         .     X X o o , + - + 8.nX<X<X<XnX;X;XH.;X;X<XmX<X-X-X-X-X2X2X<X-X-X-X-X=X+X X X_.0.2.D.2X2XmX2X<X<X<X<X<X-X-X-X<X2X2X<X<X2X<X<X2X2X<X-X=X=XOX`._.t.3.,.&.m k k 4 1.mX<X-X=X=X>X=X=X=X=X=X=X=X=X=X=X>X=X>X=X=X>X>X:X:X=X+XOXOXOX X'.2.4 l k l k k k k k k k k k l k k k l k z z z b m S @.%.%.*.*.=.;.>.>.>.<.<.<.<.<.<.<.4.1.4.9.4.1.1.4.1.1.<.<.<.<.<.4.0.0.0.0.e.).e.e.e.e.6.6.6.3.3.3.3.3.3.6.e.e.e.e.e.e.e.e.3.3.3.3.3.3.3.3.3.3.3.,.,.3.3.6.3.3.>.5.&.%.@.@.+.n n n n n n +.#.&.=.=.=.=.>.,.,.3.3.3.,.3.3.6.6.e.e.e.6.3.3.3.3.>.$.#.n =.t.e.e.].OXOXOX$X:X:X>X>X3X3X3X3X3X3X:X3X3X+X2.2.e.r.r. XOXOX+X:X2X2X2X2X2X2X2X2X2X3X2X<X2XmXMXMX<X#XXX&X=X=X:X3X3X2XmXMXMXMXMX/.w a w 1 w a h g ! Q E E E E ~ _ | | | | } ..X.......} } X.|  . . . .X.X.p.p.p.p.p.v.S.S.S.S.K.K.K.^.^.^.R.R.E.E.~.~.~.~.~.~.~.~.wXwXwXwXwXwXwXwXwXwXwXwXwXwXwXwXwXwXwXwXwXwXuXuXwXwXwXwXwXwXwXwXwXwXwXwXwXwXwXwXwXwXwXwXwXwXwXwXwXwXwXiXdXdXdXaXsXgXgXgXgXgXzXzXzXzXzXzXgXgXzXzXgXgXgXgXgXgXfXfXhXhXhXuXuXuXwXwX8X8X8X8X8X8X~.~.0X0X~.~.!.!.~.~.!.!.!.!.!.!.E.E.E.E.E.E.E.E.R.R.R.P.P.P.K.K.K.K.K.K.c.l.l.l.l.l.l.l.l.l.l.l.l.l.c.c.M.c.M.c.M.M.M.M.M.M.m.C.C.C.C.C.I.I.Y.Y.Y.Y.T.4XT.4X4X4X5X6X6X6X6X4XT.T.Y.U.I.B.m.M.b.x.z.j.u.i.{ T Y U P P J p p ",
"B.B.Z.Z.I.I.Z.Z.I.B.B.B.V.m.n.M.c.z.c.z.k.k.h.h.h.h.h.h.h.h.v.v.h.h.l.k.l.l.l.l.v.l.l.l.l.l.l.l.h.h.l.l.l.l.c.c.M.K.P.P.R.!.!.!.7X8X7X8X8X7X8X8X7X7X7X!.T.R.P.B.n.z.k.j.d.u.u.} } [ ] U L P J G G f f f H J P L L Y ] ] { } } u.h.l.c.c.c.K.K.K.P.^.R.E.~.~.wXwXuXuXuXuXuXwX8X8X8X8X!.!.R.P.M.c.k.f.i.[ [ [ [ [ [ [ [ i.u.u.u.u.u.u.h.j.j.k.j.k.k.z.b.M.M.M.C.I.T.T.4X6X6X7X7X7X7X7X7X0X9X0X7X6X6X4XT.I.C.N.b.b.N.b.b.b.b.z.k.k.k.x.x.z.b.b.b.N.b.b.b.b.b.z.z.k.k.k.f.u.u.i.i.[ T U U L P J J G G f p p u u u u 1 1 > > > > , > > 1 9 9 a a a a a a a a a 3 1 1 1 1 , , + o O X                         .   X X o o , , , + ..<X;X;X;X<X1X;XH.%X-X<X<X-X;X-X-X-X2X2X<X-X-X-X-X=X+XOX X'.0.2.D.2X2X<X<X-X-X-X-X-X-X-X-X<X2X<X<X2X2X2X2X2X2X-X=X=X=X X_.e.3.,.>.=.@.b 4 / 2X2X*X2X-X>X:X=X&X&X&X=X&X&X=X=X=X>X>X3X=X>X>X=X:X=X=X+XOXOXOX'.'.-.4 l l k k k k k k k k k k k k k k M M b b z b m S %.*.*.*.&.;.;.;.>.;.5.<.<.<.<.<.<.4.1.4.4.4.4.4.9.4.<.<.<.<.1.1.4.4.4.0.e.).e.6.6.6.6.3.3.3.3.3.3.3.3.3.3.3.6.e.e.6.6.6.3.3.3.3.3.,.3.3.3.>.>.,.>.3.3.6.6.3.4.>.5.&.%.#.@.@.+.n n n n n +.@.#.&.&.=.=.=.>.,.3.3.3.,.3.6.6.e.e.e.6.3.3.3.3.3.=.$.#.z #.6.e.0.`.].}.OX$X=X:X:X>X:X3X3X3X3X3X3X3X3X:X0.,.q.0.r.'.OX X+X:X3X2X2X2X2X2X2X2X2X2X2X<X2XmXMXMXnX*XXX$X=X=X:X3X3X2XmXmXMXMXMXnXc a a a a h d E  .! ~ E ~ ~ ~ _ | | | | } } } X.....} X.| |  . . . .X.X...p.p.p.p.v.S.S.S.S.S.S.K.K.L.^.^.R.R.E.E.E.E.~.~.~.~.~.wXwXwXwXwXwXwXwXwXwXwXwXwXwXwXwXwXuXwXwXwXwXuXuXwXwXwXwXwXwXwXwXwXwXwXwXwXwXwXwXwXwXwXwXwXwXwXwXwXwXwXwXdXdXdXaXsXgXgXgXgXgXzXzXzXzXgXgXgXgXzXgXgXgXgXgXgXgXsXhXhXhXuXuXuXwXwXwX8X8X8X8X8X~.E.~.0X0X~.!.!.!.~.~.!.!.!.!.!.!.!.!.E.E.E.E.E.R.R.R.P.K.K.K.K.K.K.K.S.l.l.l.l.v.v.v.l.l.l.l.l.l.l.l.l.l.l.c.l.l.M.M.M.M.M.M.m.C.C.C.C.I.I.I.Y.Y.Y.Y.T.4X4X4X4X4X6X6X6X4X4XT.T.Y.I.I.B.m.M.b.b.k.j.s.u.{ [ Y U L J J f i i ",
"Z.Z.Z.Z.U.U.U.Z.I.I.P.B.B.V.n.M.c.z.c.z.k.k.h.h.h.h.h.h.h.v.v.v.h.h.h.k.k.k.k.h.v.v.l.l.l.l.l.l.v.l.l.l.l.l.c.c.K.K.P.P.R.!.!.!.7X7X8X8X8X8X8X8X7X7X7X!.T.Q.I.B.n.z.k.h.d.u.u.} { [ ] U L P J G f f f f G G K L L Y ] ] | } } u.h.l.c.c.c.c.K.P.P.P.R.E.~.~.wXwXuXuXuXuXuXwXwX8X8X8X!.!.T.R.M.c.j.u.i.[ [ [ [ [ [ [ [ i.u.u.u.u.u.u.u.j.k.k.k.k.k.z.b.b.N.N.I.Y.T.T.6X7X7X7X7X6X0X0X0X0X0X0X6X6X6X6XT.Y.I.m.M.M.N.N.N.b.b.z.z.z.b.b.b.b.b.b.N.N.b.b.b.N.b.b.z.k.k.j.j.u.u.i.[ [ T Y U L P K G G G f f p p u u 9 9 1 1 > , < < < 1 9 w a a a a w a a a a a 3 1 1 1 , - o O O O                               X X & o - - , +  .;X%X;X;X<X<X;XF.#X<X-X;X;X;X-X-X<X2X2X<X<X-X-X-X&X&XOX X'.0.2.D.2X2X<X-X-X-X-X-X*X-X-X-X<X<X<X<X<X2X2X2X2X2X-X=X&X+X`.e.q.,.>.=.$.&.S b =X>X2X2X>X>X=X=X+XOX+X$X&X&X&X=X=X=X>X>X>X-X>X>X=X=X=X=X+XOX+X|.'.D.S k l l l l k k l l l k k k k k k k M M z z z m S @.%.*.*.&.=.;.;.;.;.*.;.<.<.<.<.<.<.4.4.4.<.4.G.G.G.9.4.4.<.<.1.1.2.4.4.0.0.e.3.3.3.3.3.3.3.3.3.3.3.3.3.3.3.3.3.6.6.3.3.3.3.3.3.3.3.,.,.,.>.>.>.3.3.,.,.3.3.>.>.>.=.%.%.%.@.@.+.n n n n n +.+.#.#.#.=.=.=.>.,.3.3.3.3.3.6.6.6.6.6.3.3.3.3.6.3.=.$.#.n +.,.e.0.'.'.}.OX+X:X:X>X>X3X3X:X3X3X3X3X3X3X3XOX,.2.q.r.r. X X+X=X3X2X2X2X2X2X2X2X2X2X2X2XmXmXMXMXMX1X@X$X=X=X:X1X3X2X2XmXMXnXnXPXX.3 h h d d E Q  .! ! ~ | _ ~ _ | | | | | } } } ........X.X. . . . .X.X.....p.p.UXS.S.S.S.S.S.S.K.K.K.K.L.^.^.R.E.E.E.~.~.~.~.~.~.wXwXwXwXwXwXwXwXwXwXwXwXwXwXwXwXwXwXuXwXuXwXwXwXwXwXwXwXwXwXwXwXwXwXwXwXwXwXwXwXwXwXwXwXwXwXwXwXwXwXwXuXdXdXdXdXsXgXgXgXgXgXgXgXgXgXgXgXzXgXgXgXgXgXgXgXgXhXdXhXuXuXwXwXwXwXwX8X8X8X8X~.~.E.~.~.~.!.!.!.!.~.~.!.!.!.!.!.!.!.!.!.E.E.R.R.R.P.P.K.K.K.K.K.K.l.l.l.l.l.v.p.p.p.p.p.p.p.p.l.l.l.l.l.k.l.l.l.l.M.M.M.M.M.M.C.C.C.C.C.I.I.Y.Y.Y.Y.T.4X4X4X4X4X4X4X4X4X4XT.T.Y.I.C.m.M.b.b.b.k.j.s.u.{ [ ] U P J J p i u y ",
"B.Z.Z.Z.U.U.U.Z.I.I.P.B.B.B.n.M.c.z.c.z.k.k.h.h.h.h.h.h.h.v.v.v.h.h.h.l.l.k.h.h.l.v.l.l.v.l.l.l.l.l.l.l.l.l.c.c.M.K.P.P.R.E.!.!.7X7X8X8X8X8X8X8X7X8X7X!.T.Q.I.B.n.z.x.j.d.u.} { [ [ Y U L P J J G f f f H G J P L ] ] [ } } u.u.h.l.c.c.c.K.K.P.P.P.R.E.~.wXwXuXuXuXuXuXuXwX8X8X8X8X!.!.E.R.m.M.k.u.i.[ [ [ [ [ [ [ [ i.u.u.u.u.u.u.u.j.k.k.k.k.z.z.b.b.b.N.I.Y.T.T.6X7X7X7X6X6X0X0X0X0X0X0X6X6X6X6X4XT.I.C.m.m.N.N.N.N.N.b.b.b.b.b.b.b.N.N.N.N.N.N.N.N.N.b.b.z.k.j.h.u.u.i.[ [ [ Y U L P K K G G f f p p u u 1 u 1 1 > < 1 1 1 a a a a a a a a a a a a 3 1 1 1 , - o O O O                                 X X o + o - , + ( ;X%X-X-X<XmX-XH.#X-X-X%X-X-X-X-X<X<X<X<X-X-X-X=X&X&XOX X'.D.2.D.MXmXmX<X<X<X<X<X<X<X-X-X<X<X<X<X2X2X2X2X2X2X=X&X+XOX_.e.3.,.=.=.$.&.m '.mX>X>XmX>X>X=X=X+X+X&X=X=X=X=X&X=X=X=X=X=X=X>X>X=X=X=X&X+XOXOX{.|.9.v l l l l l k k k l l k k k k k k k M M z z z m n @.%.%.%.*.&.;.;.;.;.*.;.<.<.<.<.<.4.4.G.4.1.<.G.G.4.9.9.4.<.<.<.1.2.2.4.4.0.0.3.3.3.3.3.3.3.3.3.3.3.3.3.3.3.3.6.3.3.3.3.,.>.3.3.3.,.>.*.%.*.*.=.>.,.>.>.>.>.>.>.5.=.%.%.@.@.@.+.n n n n n n +.#.#.$.&.=.=.=.>.3.3.3.3.3.6.6.3.6.3.3.3.3.3.3.3.=.=.$.+.+.&.3.e.e.'.}.OX+X:X:X:X:X3X3X3X3X3X:X3X3X3X3X:X2.,.q.0.r. X X+X+X=X3X2X2X2X2X2X2X2X2X2XmXmXmXnXMXMX<X%XXX=X=X=X1X3X2X<XmXnXnXnXPX(.h h d g g ~ _  ._ _ | X.| _ | | | | | | | } } X...X...X.X. . .X. .X.X.......p.UXS.S.v.S.S.S.S.S.K.K.K.L.^.R.R.E.E.E.E.E.~.~.~.~.~.wXwXwXwXwXwXwXwXwXwXwXwXwXwXwXwXuXuXuXuXwXwXwXwXwXwXwXwXwXwXwXwXwXwXwXwXwX8X6X~.~.~.~.~.wXwXwXwXwXwXwXiXpXdXaXsXsXsXgXgXgXgXgXgXgXgXgXgXgXfXfXfXfXfXfXsXhXdXuXwXwXwXwXwXwXwX8X8X~.~.~.~.E.~.~.~.!.!.!.!.~.~.!.!.!.!.!.!.!.!.E.E.R.R.R.P.P.K.K.K.K.K.S.S.l.l.v.v.v.p.p.p.p.p.p.p.p.p.p.v.v.v.h.h.k.l.l.l.l.M.M.b.M.M.m.m.C.C.C.I.I.Y.Y.Y.T.T.4X4X4X4X4X5X4X4X4X4XT.Y.I.C.m.m.M.b.z.k.h.u.i.i.[ ] U L J J f p u y 8 ",
"B.Z.Z.Q.Q.U.U.U.I.I.I.I.P.B.n.n.c.c.c.z.k.h.h.h.h.h.h.h.h.h.v.h.v.v.v.v.h.h.v.v.v.v.l.l.l.l.v.v.l.h.l.l.c.l.c.c.K.P.P.R.R.R.E.!.7X8X8X8X8X8X8X8X8X8X7X!.T.R.P.m.n.c.x.j.u.i.} { [ [ ] U L P J J J G f f H G J L ~ ] ] [ } } u.p.h.l.c.c.c.K.K.K.P.P.R.E.~.wXuXuXuXuXuXuXuXwX8X8X8X8X!.!.E.R.m.M.k.u.i.[ [ [ [ [ [ [ i.u.u.u.u.u.u.h.h.h.j.j.k.k.k.z.N.N.N.M.C.Y.T.T.4X6X6X6X6X7X7X7X0X0X0X0X6X6X6X6X6X4XR.I.C.C.m.C.C.N.N.N.N.N.N.N.N.N.n.N.N.N.N.N.N.N.b.b.z.k.k.k.k.u.u.u.i.i.[ Y U U L P J G G G f p p u u t r 1 1 1 1 1 a a a a a a a a a a a a a 3 1 1 1 1 , - o O O O                             X X X X o , - , - O W ;X%X<X-X<XmX<XH.#X;X-X-X-X-X-X<X<X<X<X<X-X-X-X=X&X&XOX|.`.'.2.'.MXMXmXmXmXmXmXmXmX2X<X<X<X<X<X<X<X-X<X2X-X>X=X&XOX Xr.q.3.,.=.=.$.@.*.:X2X2X2X=X2X>X:X:X:X:X:X:X:X=X=X=X=X=X*X=X=X=X=X=X=X=X=X&X+XXXoX'.'./ l l k l l l k k k k k l k k k k k l M b b b b m m n @.%.%.*.&.;.>.;.;.;.;.5.<.<.<.4.4.<.4.<.<.<.4.4.<.<.4.4.<.<.<.<.<.<.2.2.4.4.3.3.3.3.3.3.,.,.3.3.3.,.,.3.3.3.3.3.3.,.>.>.>.>.,.=.*.n z z z z n %.&.=.=.>.>.5.5.5.&.*.*.%.@.@.@.+.n +.n n n +.#.#.#.&.=.=.=.>.,.,.,.3.3.3.3.6.3.3.3.3.3.3.,.>.=.=.$.+.+.@.>.3.0.'.}.OX+X=X:X:X:X>X3X3X3X3X:X:X:X3X:X:Xw.;.w.q.r.'.|.OX+X=X3X3X2X2X2X2X2X2X2XmXmXmXmXnXMXMXmX%XXX&X=X=X3X3X2X2X2XmXnXMXPXnXW g g c E ~  . .| _ } ..| | | | | | | | | } } } X.X.X.X.X.X.X.X.X.X.X.X.....p.p.p.p.p.S.S.S.S.S.S.S.K.L.L.L.L.^.^.E.E.E.E.E.~.~.~.6XwXwXwXwXwXwXwXwXwXwXwXwXwXwXwXwXuXuXuXwXwXwXwXwXwXwXwXwXwXwXwXwXwXwXwX~.~.~.~.E.E.E.E.wXwXwXwXwXwXwXuXdXdXdXdXdXfXgXgXgXgXgXgXgXgXgXgXgXfXfXsXsXhXhXhXhXuXwXwXwXwXwXwXwX8X~.~.~.~.~.~.~.~.E.E.~.~.~.~.~.~.!.!.!.!.!.!.E.E.E.E.E.R.P.P.K.K.K.K.K.S.S.S.l.v.v.p.p.p.p.p.X.X.p.p.p.p.p.p.p.h.h.h.k.k.k.k.k.b.M.b.M.M.m.m.C.C.C.I.I.Y.Y.Y.T.T.4X4X4X4X4X4X4X4X4XT.Y.I.C.B.m.M.b.x.k.j.u.u.{ { [ Y U P J H p i u 8 > ",
"B.Z.U.Q.Q.Q.U.U.I.I.I.I.P.B.n.n.c.c.c.z.k.j.h.h.h.h.h.h.h.h.h.h.v.v.v.v.h.h.v.v.h.v.l.l.l.l.v.h.l.h.h.l.c.l.c.c.P.P.R.R.R.R.!.!.7X8X8X8X8X8X8X8X8X8X7X!.R.U.P.m.n.z.k.j.u.u.} { } [ ] U L P J G J G G f G G J P ~ ] ] | { | } h.h.l.c.c.K.K.K.K.P.P.R.E.~.8XuXuXwXuXuXuXwX8XwXuX8X8X!.!.R.R.m.c.x.u.i.[ [ [ [ [ { { i.u.u.u.u.u.u.u.u.h.j.k.k.z.k.z.N.M.M.N.C.I.T.T.T.4X6X6X7X0X6X6X7X0X0X0X7X6X6X6X6X4XT.I.C.C.C.I.C.C.N.N.N.N.N.N.N.N.N.N.C.C.C.N.N.N.N.b.z.k.k.k.j.u.u.u.i.i.[ T U U U P K G J G p a p u u r 1 1 1 9 j a a h a a a a a a a w w w 3 1 1 , , , - - o o o o                             X X X o X , - - +   c /.#X-X%X-X<X<XH.H.%X<X<X;X%X-X<X<X2X2X<X-X-X-X=X=X+XOX|.|.'.9.'.MXmXmXmXmXmXmX<X<X2X<X<X-X-X*X-X-X-X-X-X=X>X=X+XOX`.r.q.,.=.=.=.#.@.D.>X2X2X2X2X=X=X=X=X:X3X3X>X=X=X&X=X=X=X=X=X=X=X=X=X=X=X=X&X+X+X{.'.D.l k k l l l l l k k k k l k k k k k M M b b b b m m n %.%.%.*.&.>.>.>.;.>.>.;.5.<.<.4.4.<.<.<.<.4.<.<.<.1.<.<.1.<.2.<.;.;.<.2.2.4.2.2.2.3.3.>.>.>.>.,.>.>.>.>.=.=.>.>.>.=.=.=.>.>.&.+.z z M M z M z @.=.>.=.5.5.5.5.5.*.*.*.%.@.@.@.@.+.+.+.n n +.+.#.#.&.=.=.=.>.,.3.3.3.3.3.3.6.6.3.3.3.3.3.>.=.=.=.$.+.n n &.3.3.).`.OX+X$X:X:X:X:X>X3X3X3X3X:X3X3X:X:Xq.:.2.w.r.r.`.OX+X:X3X3X2X2X2X2X2X2X2XmXMXMXMXMXMXMXmX%XXX=X=X=X=X3X2X2X2XmXMXMXPXnX` g h g E ~ X. . .| X...| ] | | | | | | | } } } X...X.X.X.X.X.X.X.X.X.X.X.......p.p.p.UXS.S.S.S.S.S.S.K.K.L.L.L.L.^.E.E.E.E.E.E.~.~.6XwXwXwXwXwXwXwXwXwXwXwXwXwXwXwXwXwXwXwXwXwXwXwXwXwXwXwXwXwXwXwXwXwXwX~.~.E.E.E.E.E.E.E.~.wXwXwXwXwXuXdXdXdXdXdXdXfXgXfXgXgXgXgXgXfXfXfXfXfXhXhXdXdXhXuXuXwXwXwXwXwXwXwX~.~.~.~.~.~.~.0X~.E.E.~.~.~.~.~.~.!.!.!.!.!.!.E.E.E.E.E.R.P.P.K.K.K.K.K.S.S.S.v.p.p.p.p.X.X.X.X.X.X.X.X.p.p.p.p.p.h.h.k.k.k.k.k.c.M.b.M.m.C.m.C.C.C.I.I.Y.Y.Y.Y.T.4X4X4X4X4X4X4X4X4XT.Y.I.C.m.M.b.z.j.j.s.u.i.{ [ Y U L J H f i i 9 8 > ",
"B.Z.U.Q.Q.Q.U.U.I.I.I.B.B.V.n.n.M.c.z.k.k.k.h.h.h.h.h.h.h.h.h.h.v.h.v.l.l.h.v.v.h.h.v.l.l.l.l.h.l.l.l.l.l.l.c.c.P.P.P.R.R.!.!.8X!.!.8X8X8X8X8X8X8X8X7X!.Q.R.P.m.z.z.j.s.u.} } } [ ] Y U L P J G f G G f H J P L U ] ] | [ { u.u.h.l.c.c.M.K.K.K.P.P.P.E.~.wXuXuXuXuXuXuXuXwX8X8X8X8X!.!.E.R.K.M.z.s.i.[ [ ] [ [ { { i.i.u.u.u.u.j.u.u.j.k.k.k.k.z.z.b.N.N.m.C.C.R.T.4X4X4X4X6X6X0X0X0X0X0X6X6X6X6X6X6X4X4XT.Y.I.I.I.I.C.C.C.C.C.C.C.C.N.C.C.C.C.N.N.N.N.N.b.b.z.k.k.f.u.u.u.i.i.[ T U U U L P G G G f f a u r r a a a a j j a a a a a a a a a a w 1 1 1 , , + + o o + - + o                               X X X o , O o o O ; H.;X%X<X<X<X<X#XH.;X-X-X%X-X<X<X-X<X<X<X-X-X-X-X=XXXOXOX|.D.9.XXmXmXmXmXmX-X<X<X<X<X-X2X<X*X*X=X*X=X-X=X=X=X&X+XOX_.t.3.,.,.=.$.#.@.=X2XmX2X2X2X3X=X:X:X:X=X=X=X=X=X=X=X=X=X-X-X-X-X=X=X=X&X&X&X+XoXoXXX/ 4 k k l l k l k k k k k k k k k l l M M b b z m n m @.%.%.*.&.&.;.>.>.>.;.;.;.2.4.4.4.<.<.2.4.<.<.<.1.-.;.<.<.1.1.<.<.;.;.;.;.;.>.4.4.2.,.>.;.>.>.3.>.>.=.=.=.=.=.=.>.>.=.=.=.=.*.@.n m m m m m ) *.*.5.5.5.5.>.5.5.5.5.=.&.*.@.@.@.@.+.+.+.n n +.+.#.&.&.&.=.=.=.>.,.,.3.3.6.6.6.6.3.3.,.3.3.,.>.=.=.#.#.+.z z =.3.)._.OX+X=X=X:X>X3X:X3X3X3X3X3X3X3X3X3X:X:.:.q.0.'. X X+X=X:X3X2X2X2X2X2XmXmXmXmXMXMXnXMXMXMX-X%X&X=X=X=X3X3X2X2XmXmXMXMXLXX.a h E Q  .X.X.~ _ v..._ ] ] | | | } } } } ..} X.X.p.p.X.X.X.X.X.X.X.X.X.........p.p.p.p.p.v.S.S.S.S.S.S.L.L.L.L.L.^.E.E.E.E.E.~.~.~.~.~.~.8XwXwXwXwXwXwXwXwXuXwXwXwXwXwXwXwXwXwXwXwXwXwXwXwXwXwXwXwX~.E.E.E.E.E.E.E.E.E.E.~.wXwXwXwXwXwXdXdXdXdXdXdXsXfXfXfXfXfXfXfXgXgXsXsXdXhXhXuXuXuXwXeXwXwXwXwXwXwX~.~.~.~.~.~.~.~.~.~.~.~.~.~.!.!.!.!.!.!.!.!.!.!.E.E.R.R.R.P.K.K.K.K.K.K.S.S.l.p.p.p.p.p.X.X. . . . .X.X.p.p.p.p.p.p.p.h.k.k.k.k.l.l.b.M.b.M.m.C.C.C.C.I.I.I.Y.Y.Y.Y.T.4X4X4X4X4XT.T.T.Y.I.C.m.M.b.z.j.h.s.u.u.i.[ T U L J J p p u 9 8 8 8 ",
"B.Z.Q.Q.Q.Q.U.U.I.I.I.B.B.V.n.n.M.c.c.k.k.k.h.h.h.h.h.h.h.h.h.h.h.h.h.v.k.h.v.v.h.v.v.l.l.l.l.l.l.l.l.l.l.l.c.c.K.P.P.R.R.!.!.~.!.7X8X8X8X8X8X8X8X8X7XW.Q.U.P.M.z.z.j.s.u.} { } [ ] U L L P J G f f G G H J P P L U ] ] [ { u.u.h.l.c.c.c.K.K.K.P.P.R.E.~.~.wXuXuXuXuXuXuXwX8X8X8X8X!.!.E.R.m.M.x.u.i.[ [ [ [ [ { { i.u.u.u.u.u.j.j.k.k.k.k.k.k.z.b.b.N.N.C.C.I.R.T.4X4X4X4X6X6X0X7X0X0X0X0X6X6X7X6X6X4X4XT.R.R.I.I.I.C.C.C.C.C.C.C.C.C.C.C.C.C.N.N.N.N.b.b.b.z.z.k.k.f.u.u.i.i.[ T U U L L P K G f f a a a u a a a a a j j a a a a a a a a a 1 w 1 , , , - + + o o o o o O                               X X X o , O O O O + S.1X%X;X-X<X<X%X%X%X-X-X-X-X-X*X*X-X-X-X-X-X-X-X=X&X+XOX|.D.9.XXmXmXmXmXmXmX<X<X<X<X*X*X%XXXXX%X&X=X-X=X=X=X&XOXOX_.0.3.=.>.=.=.#.:.3X2XmXMXmXmX2X3X3X3X:X:X=X=X=X=X=X&X&X=X-X-X=X-X-X=X=X&X&X$X+X.X{.D.v 4 k l l l k k k k k k k l k k l M l M M M b z m n m S @.%.*.*.&.>.>.>.;.>.>.;.2.4.4.4.4.<.<.<.<.4.4.1.-.1.1.<.<.1.;.;.;.;.:.;.-.;.;.>.>.2.2.>.>.>.,.>.>.=.>.>.=.;.&.&.&.&.&.&.*.*.%.%.%.*.*.%.) %.*.5.5.5.5.5.5.5.5.5.5.=.&.*.%.@.@.@.+.+.+.n n +.+.#.#.&.&.=.=.=.>.,.3.3.3.3.3.3.3.3.3.3.3.,.>.=.=.&.#.#.+.n z +.&.3.e.'.|.+X=X:X:X:X:X3X3X3X3X3X3X3X3X2X3X'.:.w.q.r.r. XOX+X:X3X2X2X2X2X2X2XmXmXmXMXMXMXMXMXMX<X%X@X=X=X:X3X2X2X2XmXMXMXMXLX..1 g ~ Q  . . .| X...| | | | { } } } } } } p.p...} ..X.X.X.X.X.X.X.X.X...X.X.......p.p.p.p.p.S.S.S.S.S.S.K.L.L.L.^.^.^.E.E.E.E.E.~.~.~.~.~.8XwXwXwXwXwXwXwXwXwXwXwXwXwXwXwXwXwXwXwXwXwXwXwXwXwXwXwX~.E.E.E.E.E.E.E.E.E.E.E.~.wXwXwXwXwXwXuXdXdXdXdXdXdXdXfXfXhXhXhXhXhXhXsXhXdXuXuXuXwXwXwXwXwXwXwXwX~.~.~.~.~.~.~.~.~.~.~.~.~.~.~.~.!.!.!.!.!.!.!.!.!.!.E.E.R.R.P.P.K.K.K.K.K.l.l.l.v.p.p.p.p.X.X. .o.o. . . .X.X.p.p.p.p.p.p.h.h.k.k.k.k.z.b.b.M.M.m.C.C.C.C.I.I.I.Y.Y.Y.Y.T.4X4X4X4X4XT.T.Y.Y.I.C.M.b.z.j.h.s.u.u.{ { Y U L P J H p p u y 8 > 8 ",
"B.Z.Q.Q.Q.U.U.U.I.U.U.P.B.B.V.n.M.c.z.k.k.h.h.h.h.h.h.h.h.h.h.h.v.v.h.h.h.v.v.l.h.h.l.l.l.l.l.l.l.l.l.l.l.l.c.c.M.K.P.R.R.!.!.~.7X8X8X8X8X8X8X8X8X7X7XW.R.U.B.n.z.k.h.s.u.} } { [ ] U L L K J G f f G f H J P P L ~ ] | [ { } u.h.l.c.c.c.c.K.K.P.P.R.E.E.~.wXuXuXuXuXuXuXwX8X8X8X~.!.!.R.R.M.c.h.u.{ [ [ [ [ [ { i.u.u.u.u.u.u.p.k.k.k.k.k.z.z.z.z.b.N.N.N.C.I.R.T.T.4X4X4X6X6X6X6X7X0X0X0X6X6X0X6XqX4XY.Y.R.R.I.I.I.I.C.C.C.C.C.C.C.C.C.C.C.m.m.N.N.N.N.b.b.z.k.f.f.u.u.u.i.i.i.[ U U U L P K G f f a a a a a a a a a j a a a a a a a w a a 1 1 , , - - + o o o o o O O O                                 X X X o O X .     ` <X%X%X-X-X-X-X*X#X%X%X-X-X%X@X%X*X-X-X-X-X-X=X&X&X+XOX|.D.9.&XMXmX-X<XmX-X-X-X*X*X@X%X%XoX.XXX&X=X=X=X=X&X&XOX Xr.q.3.=.=.=.=.#.q.2X2X2X2X2X2X2X2X3X3X>X>X=X=X=X=X&X&X*X=X=X-X-X-X-X=X=X=X&X+X+XoX{.<.4 4 k k l l k k k k k k k l k k k l l M M M b z b b m S @.@.%.%.*.>.>.;.=.;.2.<.2.4.4.G.<.<.<.<.<.9.4.1.1.<.<.<.<.1.;.;.1.-.-.-.:.:.*.-.;.4.4.4.2.>.>.5.;.;.5.5.;.=.&.%.%.%.%.%.%.*.*.*.;.5.5.5.*.5.5.5.5.5.5.5.5.5.*.*.5.5.=.*.%.@.@.@.+.+.+.+.n n +.@.#.&.&.&.=.=.=.,.3.6.3.3.3.3.3.3.3.3.3.,.>.=.=.&.#.#.+.+.z M n >.e.0.D.'.OX=X=X:X3X3X3X3X3X3X3X3X3X3X3X:Xw.<.q.r.0. X X+X=X:X3X2X2X2X2X2XmXmXmXmXMXMXnXMXMXmX%X@X=X=X:X3X3X2X2XmXmXMXMXPX(.h g ~ ! X. . .X...| | | | | } } } } } } } } p.p.p...X.X.X.X.X.X.X.X.X...X.X.X.X.........p.p.p.v.v.S.S.S.S.K.L.L.^.^.^.^.E.E.E.~.~.~.~.~.~.~.wXwXwXwXwXwXwXwXwXwXwXwXwXwXwXwXwXwXwXwXwXwXwXwXwXwXwX~.E.E.E.E.E.E.E.E.E.E.E.~.6X8XwXwXwXwXuXuXdXhXdXdXdXdXdXdXdXdXhXdXdXhXhXhXuXeXwXwXwXwXwXwXwXwX~.~.~.~.~.~.~.~.~.E.E.E.~.~.~.~.~.!.!.!.!.!.!.!.!.!.E.E.E.E.R.P.P.K.K.K.K.K.S.l.v.p.p.p.p.X.X.X. . .o.o. . . . .X.X.p.p.p.p.p.p.p.k.k.k.k.k.z.b.M.N.m.m.m.C.C.C.I.I.Y.Y.Y.Y.T.4X4X4X4X4XY.Y.Y.U.Z.N.n.b.k.h.s.u.u.i.[ ] U L P J H p p u u y 8 8 8 ",
"Z.Z.Q.Q.Q.Q.Q.U.U.U.U.P.B.B.V.n.M.c.c.k.k.h.h.h.h.h.h.h.h.h.h.h.v.v.v.h.h.v.v.v.h.h.l.l.l.l.l.l.l.l.l.l.l.l.c.c.c.K.P.R.E.!.!.~.8X8X8X8X8X8X8X8X7X7X!.W.R.I.m.c.k.j.h.u.i.{ [ [ [ ] Y L L P J J G G G f H J P P L ~ ] ] [ { } } h.h.l.c.c.c.c.K.P.P.R.E.E.~.wXuXuXuXuXuXwX8X8X8X8X~.!.!.E.R.M.c.h.u.{ [ [ [ [ [ { i.u.u.u.u.u.u.u.k.k.k.k.k.z.z.z.b.b.N.N.N.C.I.Y.T.T.4X4X4X4X6X6X6X6X7X0X0X6X6X6XqX4XT.Y.R.Y.Y.I.I.I.I.C.C.C.C.C.C.C.C.C.C.m.m.m.N.N.N.b.b.b.z.k.k.f.f.u.u.i.i.i.[ [ Y U L K G f f a a a a a a a a a a a a a a a a h a 3 h h 1 , - - + - o o o O O O O O                                   X X   o     . O   C %X%X#X-X-X-X-X%X%X%X%X%X%X%X%X-X*X-X-X-X-X-X=X&X+XOX|.|.D.9.*XmX<X-X;X-X*X%X%X%XXX@X*X@X.X.XXX=X*X*X*X&X&X+XOX Xr.q.,.=.=.=.=.#.0.2X1X<X<X-X-X*X=X=X=X=X:X=X-X=X&X$X$X&X=X=X-X-X>X-X-X=X=X&X@XXXoX.X) 4 l k k k l l k k k k k k l k k l l l k k l b z z z m @.@.@.%.%.&.>.>.;.;.;.2.2.4.9.9.G.4.1.<.4.4.4.<.<.4.<.<.<.1.-.-.-.;.;.-.:.<.<.:.-.:.2.2.4.2.4.2.<.5.;.;.;.*.*.%.%.%.%.%.%.*.*.;.;.;.;.5.5.5.<.<.5.5.5.5.5.5.5.*.*.5.5.;.&.*.@.@.@.+.+.+.+.+.n +.+.#.#.&.&.=.=.=.>.3.3.3.3.,.,.,.3.3.,.,.,.>.=.=.&.#.#.+.+.z M k @.2.4.q.D.OX=X3X3X3X3X2X2X2X3X3X3X3X=X3X:X|.:.w.0.r.|. X+X,X=X3X3X3X2X2X2XmXmXmXMXMXMXMXMXMXmX%XXX=X=X=X3X3X2X2XmXmXMXMXPXnXE g ~ o...p. .} | ] | | [ [ { } u.} } } } } p.v.p...X...X.X.X.X.X.X.X.X.X.X.X.X.X.X.......p.p.p.p.S.S.S.S.S.K.L.L.^.^.^.^.E.E.E.E.E.~.~.~.~.wXwXwXwXwXwXwXwXwXwXwXwXwXwXwXwXwXwXwXwXwXwXwXwXwXwXwX~.E.E.E.E.E.E.E.E.E.E.E.~.6X8XwXwXwXwXuXuXdXdXdXdXdXhXdXdXhXhXhXdXhXhXuXuXuXwXwXwXwXwXwXwXwX~.~.~.~.~.~.~.~.~.E.E.E.E.~.~.~.~.!.!.!.!.!.!.!.E.T.E.E.E.E.R.R.P.K.K.K.K.K.K.S.l.p.p.p.p.p.X.X. . . . .o.o.o.o. . .| } p.p.p.p.p.p.p.h.h.k.k.z.b.M.M.m.m.C.C.C.I.I.I.Y.Y.Y.Y.4X4X4X4X4X4XT.Y.Y.C.C.m.b.z.j.f.d.u.u.{ [ Y L P J H p p u u u u y 8 8 ",
"U.Z.U.Q.Q.Q.Q.U.U.U.U.I.B.B.V.n.M.c.c.k.k.h.h.h.h.h.h.h.h.v.h.h.h.v.h.v.v.v.h.h.h.h.l.l.l.l.l.l.l.l.l.l.l.c.c.c.M.K.P.R.E.!.!.8X8X8X8X8X8X8X8X8X7X7X!.W.Q.I.m.z.k.k.s.u.} { [ ] [ ] Y U L P J J J G f f G J K L L U Y ] | | } } h.h.l.c.c.c.c.c.K.P.R.E.E.~.wXuXuXwXwXwXwX8X8X8X8X!.!.!.T.I.M.c.h.u.{ [ [ ] [ [ [ i.u.u.u.u.u.u.k.p.p.k.k.z.z.z.N.N.N.N.N.C.C.I.I.Y.4X4X4X4X4X6XqX6X6X0X0X6X6X6X4X4X4X4XT.Y.Y.I.I.I.I.C.C.C.C.C.C.C.C.C.C.C.m.m.m.N.N.N.N.b.b.b.b.k.k.u.u.u.i.i.[ [ o.U L K G f a a a a a a a a a w 3 w a a a a a a a a 1 a h , - o o - + o o O o O O O                                     X X   X       O   w F.%XH.-X-X*X*X#X%X*X%X#X%X*X*X-X-X-X-X-X-X-X=X=X&XOXoX|.D.9.&X<X-X;X*X-X*X*X*X*X@X&XXXF.F.oXXX&X&X*X=X=X=X+XOX`.r.t.,.=.=.=.$.#.|.2X2X2X<X-X*X*X*X&X&X&X&X&X=X*X*X$X&X*X*X-X-X-X>X-X-X=X=X&X+XXXoXD.l 4 l k l l v l k k k k k k k l l l l l l M l b z z z m %.@.%.%.*.&.>.>.;.;.>.2.2.9.G.4.9.9.<.4.4.4.4.<.<.G.<.<.1.-.*.-.-.-.;.:.1.1.<.<.<.<.<.2.4.4.4.4.2.<.5.5.-.*.*.*.*.*.%.;.;.;.5.5.5.1.<.<.5.5.5.1.<.<.<.<.5.5.5.*.5.5.&.&.&.%.@.@.@.+.n n n n n n +.@.#.#.&.=.=.=.>.>.,.,.,.,.,.,.,.3.,.,.>.>.=.=.&.#.#.+.+.n M k M S ;.q.OX=X3X2X2X3X2X2X2X2X2X3X3X:X3X2X3X:Xq.2.q.'. X XOX+X=X3X3X3X2X2X2X2X2XmXmXMXMXMXMXMXMX%XoX=X=X=X:X3X3X2X2XmXmXMXPXMX! ~ o.o...v.X.| | | } { { { { } u.p.u.} p.} p.v.p.X.X.X.X.X.X.X.X.X.X.X.X.X.X.X.X.X.X.X.....p.p.p.S.S.S.S.S.S.L.K.L.L.L.^.^.E.E.E.E.E.E.E.~.~.wXwXwXwXwXwXwXwXwXwXwXwXwXwXwXwXwXwXwXwXwXwXwX~.~.wX~.E.E.E.E.E.E.E.E.E.E.~.wX8X0XwXwXwXwXuXuXuXuXhXhXhXhXdXhXhXhXdXdXdXdXuXeXeXeXeXwXwXwX~.~.~.~.~.~.~.~.~.~.~.~.E.~.E.E.~.~.~.~.!.!.!.!.!.!.E.E.E.E.E.E.E.R.P.K.K.K.K.K.K.K.l.v.v.v.p.p.p.X.X. . . . . .o.o.o.|  . .X.X.p.p.p.p.p.p.h.k.k.k.z.b.M.M.m.m.C.C.C.I.I.Y.Y.Y.Y.T.4X4X4X4XW.4XY.Y.C.C.C.n.b.k.g.s.d.u.i.{ T U L J R p p p p u y y u y y ",
"U.Z.U.Q.Q.Q.Q.U.U.U.U.I.B.B.B.m.M.c.c.z.k.h.h.h.h.h.h.h.h.v.h.h.h.v.v.l.l.v.v.h.l.l.l.l.l.l.l.l.l.l.l.l.l.c.c.c.K.P.P.R.E.!.!.8X7X8X8X8X8X8X8X8X7X7X!.T.R.P.n.z.k.h.s.u.} [ [ ] ] Y U L L K J J G G f f H J P P L L Y ] ] | } } u.h.l.l.c.c.c.c.K.P.^.E.~.~.wXuXwXwXwXwX8X8X8X8X8X!.!.!.R.I.M.c.h.u.{ [ [ [ [ [ [ i.u.u.u.u.u.p.k.k.k.k.z.b.b.z.N.N.N.N.N.C.C.C.I.R.T.4X4X4X4X4X6XqX6X6X6X6XqXqX4X4X4X4X4XT.Y.I.I.I.I.C.C.C.C.C.C.C.C.C.C.C.m.N.N.N.N.N.N.b.b.k.k.k.u.u.u.u.i.i.| o.~ K G f f u a a a a a a a a w w 3 w a a a a a a a 1 , 1 1 o o o o o o O O O O O O O                                     X X X       . .   + 8.;XoX-X-X-X-X%X%X*X%X%X*X-X-X-X<X<X-X-X-X-X=X=X+XOXOXoX'.G.*X*X*X-X-X-X*X-X*XXX@XXXF.D.XX&X&X+X&X*X=X=X=X+X X_.r.t.,.>.=.=.#.@.OX2X2XmX<X-X*X=X=X&X$X+X$X$X@X@X=X=X*X*X*X=X=X-X-X-X>X-X=X&XXXoX.X<.4 k k 4 k l v l l k k k k k k k l l k k M M M z z z b m %.%.%.*.*.*.;.;.;.>.>.<.>.4.4.4.4.9.4.9.4.4.9.9.4.4.4.4.<.-.-.5.1.1.-.:.<.<.<.4.2.<.<.4.4.9.9.9.4.<.<.<.-.-.;.;.;.;.:.;.;.1.;.5.1.1.<.<.5.-.;.1.1.5.<.5.5.5.;.5.5.*.=.*.*.%.%.@.@.@.+.n n n n n +.@.#.#.&.=.=.=.=.=.>.>.,.,.,.,.,.,.,.>.>.>.=.&.&.#.#.+.n z z z k k 2.'.:X3X3X3X2X2X2X2X2X2X2X3X>X=X2X-X3X3XOX2.q.r. X XOX+X,X3X3X3X2X2X2X2X2XmXmXMXnXMXMXMXMX*XoX&X=X=X:X3X3X2X2XmXmXMXMXPXS.!  . .X.p.} | | } } } } { } } h.h.p.} p.p.p.v.v.p.X.X.X.X.X...X.X.X.X.X.X.X. .X.X.X.X.......p.p.S.S.S.S.S.S.S.S.K.L.L.L.L.^.E.E.E.E.E.E.~.~.wXwXwXwXwXwXwXwXwXwXwXwXwXwXwXwXwXwXwXwXwXwX~.~.~.wXwX~.~.E.E.E.E.E.E.E.~.~.wX0XwXwXwXwXuXuXuXuXuXdXdXuXuXuXuXuXuXuXuXuXuXwXeXwXwXwXwX~.wX~.~.~.~.~.~.~.~.E.E.E.E.E.E.E.E.~.~.~.~.!.!.!.!.!.!.E.E.E.E.E.E.E.R.P.K.K.K.K.K.K.c.l.v.v.p.p.p.X.X. . . . .o.o.o.o.o.|  . .X.X.u.u.p.p.p.h.l.k.k.z.b.M.M.M.m.m.C.C.I.I.I.Y.Y.Y.Y.T.4X4X4X4XW.4XY.Y.C.C.N.b.b.j.g.s.u.i.i.T T U P J R p p p p p u u u i i ",
"Z.U.Q.Q.Q.Q.Q.Q.U.U.U.I.P.B.B.V.M.n.c.z.k.k.h.h.h.h.h.h.v.v.h.h.h.h.v.l.l.l.v.v.l.l.l.l.l.l.l.l.l.l.l.l.c.c.c.c.K.P.P.R.E.!.!.8X!.8X8X8X8X8X8X8X7X7X!.R.U.P.M.c.k.h.u.i.} { [ [ ] Y U L P K J K G G G f G J P P L L Y ] ] | } u.u.h.l.l.l.c.c.c.K.P.P.E.!.~.8X8XwXuXwXwX8X8X8X8X8X!.!.E.R.P.M.c.h.u.{ [ [ [ [ [ [ i.u.u.u.u.u.k.k.k.k.k.z.b.b.z.b.b.N.N.N.m.C.C.I.R.T.4X4X4X4X4XqXqXqXqXqXqX4X4X4X4X4X4XT.Y.Y.Y.I.I.C.C.C.C.C.C.C.C.C.C.C.m.N.N.N.N.N.N.N.N.b.k.k.k.p.p.u.u.} | o.K G f a a u 1 a a a a a a a a w w w w a a a w 3 3 1 1 , , - o o o o o o X X O O O O                                           o           .   ' -X#X%X-X-X-X%X.X#X%X%X-X*X*X-X-X-X-X-X-X-X-X=X+XoXOXoXF.G.*X*X-X-X<X-X%X*X%XH.XX.XD..X&X&XOX&X*X=X-X=X=X+X X[.r.t.,.,.=.&.#.#.&X<X-X<X-X-X*X*X=X$X$XOXOXOX$X@X=X=X*X*X*X*X=X=X-X-X-X-X=X&XXX.XF.D 4 k k 4 4 k l l l l l k k k k k k k k l M M M b z b m m @.%.%.&.%.&.;.;.;.>.>.2.<.2.4.4.4.4.<.9.9.9.9.G.9.4.4.4.<.5.1.<.<.<.*.1.4.4.4.4.<.<.<.9.9.9.9.9.4.4.<.<.1.1.<.<.<.<.;.:.1.1.1.1.1.<.1.1.1.1.1.1.1.-.<.5.5.5.5.5.5.*.5.*.*.*.%.%.%.@.@.n n n +.n n +.#.#.#.=.=.=.=.=.=.>.,.,.,.>.>.>.,.>.>.=.=.&.&.#.@.+.n z z z k b _.+X3X3X:X3X2X2X2X2X2X2X2X3X3X3X3X=X2X3X:X0.2.0.[. XOX+X+X:X3X3X2X2X2X2X2XmXmXMXnXMXMXMXMX<XXX+X=X=X:X3X3X2X2XmXMXMXnXLX/. .X.X. .} } | | } } u.u.u.u.h.h.h.h.p.h.h.h.v.l.v.p.p.X.X.....X.X.X.X.X.X.X.X.X. .X.X.........p.p.v.v.S.S.S.S.S.S.K.L.L.L.^.^.E.E.E.E.~.~.E.wXwXwXwXwXwXwXwXwXwXwXwXwXwXwXwXwXwXwXwXwXwXwX~.~.wXwXwXwX~.~.~.~.E.E.~.wX8XwX0XwXwXwXwXuXuXuXuXuXuXuXuXuXuXuXuXuXuXuXuXwXwXwXwXwX~.~.~.~.E.E.~.E.E.E.E.E.E.E.E.E.E.E.E.E.E.E.~.~.!.E.E.E.!.E.E.E.E.E.E.E.E.R.P.K.K.K.K.K.K.c.l.l.v.p.p.p.X.X.X. . . . .o.o.o.o.|  .X.X.p.p.u.p.p.p.h.l.l.k.z.b.M.M.M.m.m.C.C.I.I.I.Y.Y.Y.Y.T.4X4X4X4XW.Y.Y.Y.C.N.n.b.x.f.s.d.i.i.{ T Y U P J R H f p p p p p p p p ",
"Z.U.Q.Q.Q.Q.Q.Q.Q.Q.U.I.P.B.B.V.n.n.z.z.k.k.h.h.h.h.h.h.h.v.h.h.v.v.h.h.h.h.h.v.v.v.l.l.l.l.l.l.l.l.l.l.c.c.c.c.K.P.P.R.R.!.!.8X!.7X8X8X8X8X8X8X!.!.W.R.I.P.M.c.k.h.u.} } [ [ [ Y Y U L L P J J G G G J J J P P L U ] ] ] | } } h.h.l.l.l.l.c.c.P.P.P.R.E.~.~.~.uXuXwXwX8X8X8X8X8X!.E.R.R.P.M.c.h.u.{ [ [ [ [ [ [ i.u.u.u.u.k.k.p.k.k.k.k.z.b.b.b.N.N.N.C.C.C.C.I.Y.T.4X4X4X4X4XqX6X6X6XqX4X4X4X4X4XT.Y.Y.Y.Y.Y.I.I.C.C.C.C.C.C.C.m.m.m.m.m.m.m.M.M.N.M.N.b.z.k.l.h.p.u.| o.L K G f a a a a a a r a a a 3 1 3 3 3 3 3 a a 9 3 3 1 1 1 1 1 , o o & o o O X   X O O O O                                           o           .   Q ;XH.%X%X%X%X#XF.H.#X%X-X%X%X<X*X-X-X-X-X-X=X=X&XOXoXOXD.G.@X@X-X-X-X%X#X*X*XXX&XoX'.oXXX'..X=X=X-X>X=X&X+X X].r.t.,.,.&.$.#.&.:X<X*X-X*X*X@X%X$X$XOXOXOXOX$X=X$X&X*X*X*X*X-X-X-X-X-X=X=X$XXX.X9.l k l 4 l 4 k l l l l l k k k k k k k l M l M l b b m m b S %.*.*.%.&.;.;.;.;.>.4.4.4.4.4.9.4.<.9.G.G.9.9.9.9.4.<.<.1.<.<.<.<.1.4.9.4.4.4.9.9.9.9.9.9.9.9.9.4.<.<.1.1.<.4.<.<.<.<.<.<.<.<.<.<.4.<.1.-.-.1.1.1.<.5.;.;.;.;.5.*.5.*.*.%.%.@.%.@.@.m n n n n n +.#.#.#.&.=.=.=.=.=.>.,.,.>.>.>.>.>.>.=.=.=.&.&.&.#.+.n n z M k >.,X=X:X3X3X2X2X3X2X2X2X2X2X2X3X2X2X<X2X2X3X+X<.0.'. X XOX,X:X3X3X2X2X2X2X2XmXmXMXMXMXMXMXPX<X@XXX=X=X:X3X3X2X2XmX<XPXMXPXnXX... .X...h.} } h.u.h.u.h.h.h.h.h.k.k.l.l.l.l.l.l.p.p.p.X.X.X.X.X.X.X.X.X.X.X.X.X.X.X.X.X.X...p.p.p.p.S.S.S.S.S.S.S.K.L.L.K.^.E.E.E.E.~.~.E.~.wXwXwXwXwXwXwXwXwXwXwXwXwXwXwXwXwXwXwXwXwXwXwXwXwXwXwXwX~.~.wX~.~.~.wXwX8XwXwXwXwXiXwXuXuXuXuXuXuXuXuXuXuXuXuXwXwXwXwXwXwXwXwX~.E.E.~.~.~.E.E.E.^.^.^.^.^.E.E.E.E.E.E.E.E.~.~.~.E.E.E.E.!.E.E.E.E.E.E.E.E.E.P.P.K.K.K.K.c.K.c.l.v.p.p.p.p.p.X.X. . . . . . .| | | X.} p.u.u.p.p.p.p.k.k.k.z.b.M.M.M.m.C.C.C.C.I.I.Y.Y.Y.Y.T.4X4X4X4XT.T.Y.C.C.N.b.b.k.f.g.d.i.i.{ T T U J J R J J H p p p p p p p ",
"I.U.U.W.W.W.W.W.W.Q.U.U.I.B.V.n.n.n.z.z.x.k.k.h.h.h.h.h.h.h.l.h.h.v.h.h.h.h.l.l.h.l.l.l.k.k.l.l.l.c.c.c.c.c.c.c.P.P.P.R.E.W.!.!.7X7X8X8X8X8X7X7X!.!.T.U.P.B.M.z.j.s.u.u.} [ ] ] ] ] Y ~ L L P K J J J J J P P L Y Y ] ] ] | } } h.h.l.l.c.c.c.c.K.P.P.P.E.~.~.~.wXwXwXwXwXwX8X8X~.~.!.R.R.K.M.l.h.u.[ [ [ [ ] [ { { { i.i.u.u.j.k.k.k.k.k.k.b.N.N.N.N.N.N.m.C.I.C.4X4X4X4X4X4XqX4X4X4X4X4X4X4X4XT.Y.Y.I.I.I.I.I.I.I.I.I.C.m.m.m.m.m.m.M.M.M.M.M.M.M.M.c.c.l.k.p.} | ~ P K g a u u a a a a a a a a 3 1 1 w a w 1 1 3 3 3 3 1 1 1 1 , , , , , - o o o O O X     . X X                                                             h H.%X%X%X@X#X%XoXJ.H.#XXX#X%X-X-X*X%X*X*X*X*X*XXX$XXX.X.X9.oX=X-X*X%X%X-X-X*XXX*X.X.X#XF..X&X&X*X*X*X=X=X+XOX`._.e.3.,.=.$.@.;.3X1X-X=X=X*X*X@X@XoX{.{.XX@X$X$X*X*X*X*X=X-X-X-X-X=X=X=X&XXX{.{./ k k k k k l l l l l l l l k k k k k k l l l M b b b b m m S @.%.&.&.*.&.;.;.;.2.4.0.0.9.9.4.4.<.4.G.D.G.4.4.9.4.1.;.<.4.<.;.;.1.<.4.4.9.9.9.<.<.<.9.G.G.9.9.9.9.9.4.<.<.<.<.<.4.<.<.<.<.<.<.<.4.4.4.1.1.1.<.<.<.5.5.5.5.5.;.5.5.*.*.*.%.%.@.@.m m n n n n n n @.@.#.&.=.=.=.=.>.>.>.>.>.>.>.>.=.=.=.&.=.=.&.#.#.+.n n z k S `.OX=X3X2X2X2X2X2X2X2X2X2X2X2X2X2X2X1XmX<X<X<XG.9.r. X X X,X:X:X3X2X2X2X2X2XmXmXMXMXnXnXMXMXMX#X#X&X=X:X3X3X<X2X2XmXMXnXnXPX/.X.X.X.p.p.} u.h.u.u.u.k.k.k.l.k.k.c.l.l.l.l.l.l.v.p.p.X.X.X.X.X.X.X.X.X.X.X.X.X. . . .X.X.X.X...p.p.p.UXS.S.S.S.S.K.K.K.K.L.^.E.E.E.E.E.~.~.8X8X8X8XwXwXwXwXwXwXwXwXwXwX8XwXwXwXwXwXwXwX~.~.~.8XwX~.~.6X6X6XwX0XwX0XwXwXwXwXwXuXiXdXuXuXuXuXwXwXwXwXwXwXwXwXwXwXwXwXwX~.~.~.~.~.~.E.E.E.^.^.L.L.^.^.^.^.^.^.E.E.E.E.E.E.E.E.E.E.E.E.E.E.E.E.E.E.E.E.R.R.R.P.K.K.K.K.M.c.l.l.v.p.p.p.p.X.X.X.X. . . .| | | | | } } } u.p.p.p.p.h.k.k.z.z.b.b.M.M.m.m.C.C.I.I.C.Y.Y.Y.Y.T.4X4X4XW.Y.Y.Z.Z.V.V.n.b.k.f.f.d.i.i.{ T Y U L P P J J J H H p f f f p ",
"I.U.Q.W.W.W.W.W.W.U.U.I.I.B.B.m.n.n.z.x.x.k.h.h.h.h.h.h.h.h.k.h.v.h.h.h.l.k.l.l.l.l.l.l.l.l.l.l.l.c.c.c.c.c.c.c.P.P.R.E.W.!.!.~.7X8X8X8X8X8X7X7X!.!.T.U.P.m.M.c.j.s.u.} } [ ] ] ] ] Y ~ L L P P J K K K P P L L ~ Y ] ] ] | } } h.l.l.l.c.c.c.c.K.P.P.P.E.~.~.~.wXwXwXwXwXwX8X8X!.E.E.R.I.K.M.l.h.} [ [ [ [ ] [ [ [ i.i.u.u.u.j.k.k.k.k.k.b.N.N.b.b.N.N.N.m.C.C.I.Y.4X4X4XY.Y.Y.4X4X4XT.T.T.T.T.T.T.T.R.R.I.P.m.I.K.K.K.P.P.P.K.M.M.K.K.M.M.c.c.c.c.l.h.} | o.K G f a a s a u 9 a a j a 3 j 3 3 3 1 1 1 1 3 3 3 j j 1 3 1 1 1 1 , , , - - + o o o O O O O X     X                                                               + S.%X#X-X*X#X@X#XJ.J.oX#X%X-X-X%X%X%X%X*X*X*X*X@X&XXX{.F.9.XX-X*X*X*X-X-X*XXXXXoX.X#XXXF.#X=X&X*X*X*X*X&X+XOX]._.e.6.,.=.$.@.;.3X1X-X=X=X=X*X@XXXoX{.oXXX$X&X=X*X*X*X*X=X-X-X-X-X2X3X=X=XXX4./ v k l k l l k k l l l l l l l k k k k l l l l k M z b b m n n S @.%.&.*.;.;.;.>.<.4.4.4.4.4.4.4.4.9.G.G.G.9.4.4.1.<.4.4.<.-.1.<.4.<.<.4.G.G.9.<.1.<.9.G.G.G.G.G.G.G.9.4.4.4.4.4.4.<.<.<.<.<.<.<.4.<.<.<.<.<.<.<.<.5.5.;.5.5.5.5.5.*.5.*.%.%.@.@.@.n m n n z z n +.@.%.&.=.=.=.=.=.=.=.=.=.>.>.>.=.=.=.=.&.&.#.#.@.+.n n z M *.OX&X=X3X2X3X2X2X2X2X2X2X2X2X2X2X2X2X=X<X1XmXMXXX9.0.[. X X,X,X=X:X3X2X2X2XmXmXmXMXMXMXnXMXMXMX%X#X&X+X=X3X3X3X2X2XnXMXnXnXLXeX..X...v.v.p.u.u.u.h.k.l.l.l.l.k.k.M.l.l.l.l.l.l.l.p.p.X.X.X.X.X.X.X.X.X. . . . . . . .X.X.X.X.X...p.p.UXv.S.S.S.S.K.K.K.K.L.^.E.E.E.E.!.~.8X8X8X8X8XwXwXwXwXwXwXwXwXwXwXwXwXwXwXwXwXwXwX~.~.wX8XwXwXwXwX6X6X0X0X0X0XwXwXwXwXwXwXiXiXuXuXuXuXwXwXwXwXwXwXwXwXwXwXwXwX~.~.~.~.E.E.E.E.^.^.^.L.L.L.L.^.^.^.^.^.^.E.E.E.E.E.E.~.E.!.E.E.E.E.E.E.E.E.E.E.P.P.P.K.K.K.K.K.K.M.l.l.l.v.p.p.p.p.X.X.X.X. .| | | | } } } u.u.p.u.p.p.h.k.k.z.z.b.b.b.M.m.C.C.C.C.C.I.C.Y.Y.Y.Y.T.4X4X4XY.Y.Y.Z.C.V.V.n.b.f.f.f.s.d.u.{ { Y U L L P P J J J R J J J R H ",
"I.U.Q.W.W.W.W.W.Q.U.U.I.U.P.B.V.n.n.c.z.z.k.k.h.h.h.h.h.h.h.h.h.v.h.h.h.l.l.l.l.l.l.l.l.l.c.c.l.l.l.c.c.c.c.K.K.P.P.R.E.!.!.!.~.8X8X8X8X8X8X7X7X!.!.R.I.P.m.n.c.j.h.u.} } [ ] | ] ] Y U L L P P J K P P P L L ~ U Y | | | | } } h.h.l.l.c.l.l.c.K.K.P.P.E.~.~.~.wX8XwXwX8X8X~.!.E.E.R.R.P.m.M.l.h.i.[ [ [ [ [ { i.i.i.u.u.u.u.f.k.k.z.b.b.b.b.b.b.M.M.M.m.m.C.C.I.I.R.T.T.T.6X6X6X!.T.!.~.~.!.R.R.R.R.R.P.P.K.K.K.K.c.l.l.l.l.l.} } } } } | | | o.o.~ K G f f u a a u a a a a a a a 3 3 1 1 3 1 1 1 1 1 1 1 1 w a j 1 1 1 1 1 1 , , - - o o o O O O O O X X X X   X                                                               ` %XH.-X-X@X%XH.J.H.H.%X*X*X-X%X%X%X%X*X*X*X*X&X&XXX{.F.G.XX-X-X%X*X-X*XXX.XXXH.XX*X@XoX&X=X@X*X*X*X&X@XXX X]._.e.t.3.=.$.@.>.3X<X1X-X-X=X$X&X{.{.{.oX@X$X$X*X*X*X*X*X=X-X-X-X=X2X-X=X>X$X2.b l k l l l l l l l l l l l l l k k k k l l l k M z z m n m n n S @.%.*.&.=.;.;.>.>.2.4.4.4.4.q.9.9.9.G.G.G.G.4.4.<.4.4.4.1.1.<.<.4.9.9.9.9.9.4.<.4.9.G.G.G.G.9.9.G.G.G.9.9.9.9.9.4.4.9.9.4.<.<.<.4.<.<.<.2.<.<.<.5.<.5.5.;.5.5.5.5.*.5.*.%.%.@.%.%.@.m n m z z n n @.&.&.&.&.=.=.=.=.=.=.>.>.>.>.=.=.=.=.&.#.#.#.#.+.n n z M 4.+X=X>X3X3X3X2X2X2X2X2X2X2XmX2XmX2X2X1X1X1X<XMX*X9.0.'. X XOX+X=X:X3X2X2X2X2XmXmXmXMXMXMXMXMXMX;XH.&X+X=X=X3X2X2X2XmXMXMXnXLXnXv.X.p.v.v.p.p.u.h.l.l.l.l.l.l.k.z.m.c.l.l.l.l.K.l.p.p.X.X.X.X.X.X.X.X.X. . . . . . . . .X.X.X.X.X...p.p.UXS.S.S.S.K.K.K.K.L.^.E.E.E.~.~.~.8X8X8X8X8X8X8X8X8XwXwXwXwX8X8XwXwXwXwXwX8XwXwXwXwXwXwXwXwXwXwXwX6X0X0X8X8XwXwXwXwXwXwXwXiXuXuXuXwXwXwXwXwXwXwXwXwXwXwXwXwX~.E.E.^.^.^.^.^.L.L.L.L.L.L.L.L.L.^.^.^.^.E.E.E.E.E.E.~.~.!.E.E.E.E.E.E.E.R.E.R.P.P.K.K.K.K.K.K.K.K.l.l.l.v.p.p.p.p.p.p.X.X.X. .X.X.X.} X.} p.p.p.p.p.p.k.k.k.z.b.b.b.b.M.m.m.C.C.C.C.I.C.U.Y.Y.T.T.4X4X4XY.Y.Y.Y.C.N.n.n.b.b.f.f.f.d.d.u.{ [ Y U U L L P P P J J J J J R ",
"I.U.Q.W.W.W.W.W.W.Q.U.U.U.I.B.V.n.n.c.c.z.z.k.h.h.h.h.h.h.h.h.h.v.v.h.h.l.l.l.l.l.l.l.l.l.c.c.l.l.c.c.c.c.c.K.P.P.P.R.E.W.!.!.!.7X8X8X8X8X7X7X7X!.!.R.I.P.m.c.z.j.s.u.} [ [ ] ] ] ] ] U ~ L L P K K K P P L ~ ~ U o.| | | | } } p.h.l.l.l.l.l.c.K.K.P.P.E.~.~.~.8X8X8X8X8X8X!.!.!.!.R.I.P.m.c.k.h.i.[ [ [ [ [ [ { i.i.u.u.u.u.j.j.k.k.k.k.k.k.k.M.M.M.M.N.m.m.K.K.K.P.P.P.R.E.E.E.E.^.^.L.L.K.l.l.l.h.p.} } } } o.o.~ ~ L K K G f f f f f a p a a u u t u u a a a a u a a w a a w 3 1 1 1 , 1 1 1 1 1 1 1 1 1 a a 1 1 1 1 1 1 , , , - + o o O O                                                                                   c /.%X;X;X%X%XG.H.H.#X%X%X%X*X%X%X%X*X*X-X*X*X&X&XXXoX.XD..X=X-X*X*X*X@XoXoX@X@X@X*X*X@X@X&X@X&X*X*X&X@XXX|.`._.t.t.3.>.$.@.,.2X2X<X<X-X*X&X@XoXoXoX@X@X&X$X*X*X*X*X=X=X-X-X-X-X-X=X=X>X&X'.4.D l l l l l l l l v v l v l l l l k k k l l l M z z m n n S S S S @.*.*.=.;.;.>.>.2.4.2.4.4.0.0.G.G.G.G.G.G.G.9.G.G.4.<.<.<.4.<.4.9.G.G.9.<.<.4.G.G.G.G.G.9.9.9.G.G.G.G.G.G.G.G.4.9.9.9.4.<.<.<.<.4.<.<.<.4.4.<.5.<.<.5.;.5.5.5.5.*.5.*.%.%.@.%.%.@.m n n m n n z n @.&.*.&.&.&.=.=.=.=.=.>.>.>.=.=.&.&.#.#.#.#.@.+.n z z M ).OX=X>X3X3X3X3X2X2X2X2X2X2X2X2X2X2X2X2X<X<X1X<X2XD.q.r.r. X X+X=X3X3X2X2X2X2X2XmXnXmXmXnXnXMXMX1XH.XX+X+X=X3X3X2X2XmXnXMXMXMXnXS...p.h.p.h.h.k.l.c.c.c.l.M.c.c.c.m.M.c.c.l.l.K.K.p.p...X.X.X.X.X.X.X. . . . . . .`  . . . . .X.X.X...p.v.v.S.S.S.K.K.K.K.K.^.E.E.E.~.~.~.8X8X8X8X8X8X8X8X8X8X8X8XwX~.8X8X8X8X8X8X8XwXwXwXwXwXwXwXwXwXwXwXwX0XwXwXwXwXwXwXwXwXwXwXuXuXuXwXwXwXwXwXwXwXwXwXwXwX~.~.E.^.^.^.^.^.L.L.L.L.L.L.L.L.L.L.L.L.^.^.^.E.E.E.E.E.E.!.E.!.!.E.E.E.E.E.E.R.R.R.R.P.P.K.K.K.K.K.K.K.K.l.l.l.p.p.p.p.p.p.p.X.X.X.X.X.X.X.X.p.p.p.p.p.p.p.h.k.k.z.z.b.b.b.M.M.M.m.m.C.C.C.I.C.I.Y.Y.T.4X4X4XW.Y.Y.Y.Z.C.N.n.n.b.b.b.x.k.g.d.u.i.{ [ Y Y U U U U L P P P J J R ",
"U.U.W.W.W.W.W.W.W.W.Q.U.U.I.B.V.n.n.c.c.z.x.k.h.h.h.h.h.h.h.h.h.h.h.h.h.l.l.l.l.l.l.l.l.l.l.c.c.c.c.c.c.c.c.K.P.P.P.P.R.R.W.!.!.8X8X8X8X8X7X7X7X!.W.Q.I.B.m.c.k.h.h.i.{ ] ] ] ] ] ] Y U ~ ~ L P P P K K P L ~ ~ U o.| | | | } } } h.k.l.l.l.c.c.c.K.P.P.R.~.~.8X8X8X8X8X8X!.!.!.!.!.Q.P.P.m.c.k.u.} [ [ [ [ [ [ [ [ } u.u.p.h.k.l.l.l.l.c.c.M.c.M.M.M.K.K.K.K.K.K.K.S.l.v.p.p.p.X.X.| | o._ ~ K K g f f s a a a a a a u u r r r a a a a a a a a r u u a a a w 1 w 1 1 1 1 1 1 1 3 1 1 , , , , , 1 1 , 1 1 3 w w 1 1 1 1 1 1 1 , , , - + o O O O                                                                                   - G.;X%X%X-X#XF.oX#X#X%X%X@X%X%X%X*X*X*X*X*X*X&X&X@XXX.XF..X*X*X*X@X@X#X#X@X@X%X@X@X@XXX#X#XXX&X&X*X=X&XXX|.`._.t.t.3.,.&.@.,.2X<X<X<X-X=X$X&X@X@X$X*X=X=X=X=X=X=X=X=X-X-X-X-X2X-X=X>X>X$X+X$X2.A k l l l l l v v l l l l k k l l k k k l M M M z z b n n n S @.@.%.&.=.*.&.>.>.2.4.4.3.4.3.q.G.G.D.G.G.G.G.G.G.G.G.G.4.1.<.4.<.4.G.9.4.4.4.9.9.9.G.G.G.G.9.G.G.G.G.G.G.G.9.9.<.9.9.9.4.<.<.<.<.4.4.1.1.<.4.<.<.2.2.5.;.5.5.;.=.*.*.*.*.%.%.@.%.@.m n n z z b z n n @.%.&.&.&.&.&.=.=.=.=.=.=.=.=.&.$.#.@.@.@.+.+.n z M z ].OX=X3X3X3X3X2X2X2X2X2X2X2X2X2X2X2X2X2X2X2X<XmXMXXXq.r.r. X X+X+X3X3X3X2X2X2X2XmXmXmXnXMXmXMXMXmXH.oXOX+X=X=X3X2X2X<X<XMXMXMXPX^.v.p.p.p.h.l.l.l.M.M.c.M.K.M.c.n.m.M.M.M.l.l.K.K.v.p.p.X.X.X.X. . . . . . . . .( ( `  . . . .X.X.X...p.p.p.S.S.S.K.K.K.K.^.E.E.E.E.~.~.~.~.~.~.6X6X8X8X~.8X~.~.8X8X8X8X8X8X8X8X8X8X8X8X8X8X8X8X8XwXwXwX0X0XwXwXwXwXwXwXwXwXuXwXwXuXwXwXwXwXwXwXwXwXwXwXwX~.~.E.E.E.^.^.L.L.L.L.L.L.L.L.L.K.L.L.L.L.L.^.E.E.E.E.E.E.E.E.!.~.E.E.E.E.E.E.E.E.E.R.R.P.P.P.P.K.K.K.K.M.K.K.c.l.l.l.p.p.p.p.p.p.p.X.X.X.X.p.u.p.p.p.p.p.h.h.h.k.k.l.l.c.b.b.M.M.M.m.N.N.C.C.I.I.C.I.Y.Y.T.4X4X4XW.Y.Y.Y.Y.C.C.C.n.b.b.b.b.x.j.g.d.u.i.{ [ [ T Y Y Y U L L L L J J ",
"U.U.W.W.W.W.W.W.W.W.T.Q.U.I.B.V.n.n.c.z.z.k.k.h.h.h.h.h.h.h.h.h.h.h.l.l.l.l.l.l.l.c.c.c.c.c.c.c.c.c.c.c.c.c.M.K.P.P.P.R.W.!.!.!.8X8X8X7X7X7X!.!.!.T.R.P.B.M.c.k.h.u.} [ ] ] ] ] Y Y U ~ ~ ~ ~ L L L P P P L ~ ~ U o.| | | | } } } h.h.h.l.l.l.c.c.K.P.P.R.E.~.~.8X8X8X8X8X!.!.!.W.E.R.P.P.P.c.l.u.} [ [ [ [ [ { } u.p.p.p.p.p.p.v.v.h.h.p.p.p.p.p.p.p.p.p.} | | ~ ~ K K g f f f f f h a a a 1 > 1 1 u u a a a a u a a a a a a h w w w w w 3 3 1 1 w w w w 3 1 ; w 3 1 1 1 1 1 1 1 1 , , , , , , , 1 1 1 w a a w 1 1 1 1 1 1 1 , - - + o O X X X X X                                                                                  .;X;X%X-X%X%X#XH.#X%X%X%X%X%X%X*X*X*X*X&X&X*X&XXXXX.X.XF.&X%X@X#X#X@X*X%X@XoX#XXXF..X@X@X.X@X&X&X=X&X+X|.`._.t.t.3.,.&.@.,.2X<X<X2X<X-X*X=X$X*X=X=X>X>X-X-X=X-X>X-X-X-X-X-X=X-X-X=X=X=X$XXXoX%.l v l l l l v v l l l k k k 4 k k k k M l l l M z z b m m S @.#.%.&.=.&.&.>.2.2.3.4.4.4.3.4.0.G.D.G.G.D.D.G.9.9.G.G.9.<.<.<.<.<.4.4.9.9.9.9.<.<.9.G.G.G.G.G.G.G.G.G.G.9.4.<.<.4.9.4.4.4.<.<.1.4.4.1.1.<.4.<.<.2.2.5.;.;.;.5.*.%.*.*.*.*.%.@.m @.@.m n z z z z z n n @.*.&.&.&.&.=.=.=.=.=.=.=.&.#.#.@.@.+.@.n n n z M b OXOX=X3X3X3X2X2X2X2X2X2X2X2X2X2XmX2X2X2X2X2XmXmXMX$X0.r.r.r. XOX+X:X3X3X2X2X2X2X2XmXmXmXmXMXMXMXMX#X.XOX=X=X=X1X3X2XmX<XnXnXMXLX/...p.v.h.k.c.c.c.c.c.c.M.K.M.M.M.M.K.M.M.c.c.K.K.l.p.p...X.X.X. . . . . . . .( ( ( ( `  . . . .X.X.p.p.p.S.S.S.S.K.K.K.L.^.E.E.E.E.~.~.~.~.~.~.~.~.8X8X~.~.~.~.~.0X8X8X8X8X8X8X8X8X~.8X8X8X8X8X8XwXwXwXwXwXwXwXwXwXwXwXwXwXuXuXiXiXwXwXwXwXwXwXwXwXwXwXwX~.E.E.^.^.^.L.L.L.L.L.L.L.L.L.L.(.L.L.L.L.L.^.E.E.E.E.E.E.~.~.~.~.~.~.E.E.E.E.E.R.E.R.R.P.P.P.P.K.K.K.K.M.K.K.c.c.l.l.v.p.p.p.p.p.p.p.p.p.p.p.p.p.p.p.p.p.k.h.k.k.k.l.b.c.n.M.M.M.m.m.m.m.C.I.I.I.I.Y.Y.Y.T.T.4XT.Y.Y.Y.Y.Y.Z.Z.C.V.n.n.n.b.b.x.x.f.s.u.i.{ { { [ [ T Y U U L L P J ",
"U.U.W.W.W.W.W.W.W.W.T.U.U.I.P.B.n.n.z.z.z.x.k.k.h.k.h.h.h.h.h.k.h.l.l.l.l.l.l.l.c.c.c.c.c.c.c.c.c.c.c.c.c.c.c.K.P.P.P.R.!.!.!.!.8X8X7X7X!.!.!.!.W.T.R.P.B.M.c.k.u.u.} ] ] Y Y U U U ~ ~ ~ ~ L L L L P P L L ~ ~ U Y ] ] | { } } } h.h.h.l.c.c.c.c.c.K.P.R.E.~.~.8X8X8X8X~.!.!.W.E.R.R.P.P.K.c.h.p.} | | | | | | | | | | | o.o.~ ~ ~ ~ ~ K K K K K K K K G f u u u a a u u u a a a 9 1 9 a a w 1 1 1 1 3 3 3 1 1 1 3 3 3 3 3 3 w w w w w 3 3 3 3 w w 3 3 3 3 3 w 3 1 , 1 1 , , , 1 , ; ; , ; ; ; 1 1 1 a a a 3 3 1 1 1 1 1 1 , , o o o O       X                                                                                     c /.;X;X<X-X<X%X#X#X%X%X%X%X%X%X%X*X*X%X%X%X*X@XXXXXF..XD.&X*X@X#X@X*X*X@X@X.XXXXX.XoX@X#XXX&X&X&X&X&XXX|.`._.e.e.3.,.&.@.,.2X<X<X2X<X*X*X*X*X*X*X=X-X-X-X=X=X>X>X=X=X=X=X=X&X=X=X=X=X=X$XoX+X9.v v l l l l l l l l l l k k 4 4 4 4 k k k l l l l M z b n n n @.@.*.&.*.&.>.2.2.2.3.3.q.q.q.0.0.G.G.D.).D.G.G.9.4.9.9.4.<.<.4.4.4.4.9.4.4.4.4.4.9.G.G.9.9.G.G.9.9.9.9.4.4.4.4.4.4.4.4.4.4.<.1.<.<.<.<.<.<.<.<.5.5.5.;.*.*.5.*.%.*.*.%.%.@.@.m m S @.n n z z z z b m n @.%.%.&.&.&.=.=.=.=.=.&.#.#.@.@.@.+.n n n z z l S  X+X:X3X2X2X2X2X2X2X2X2X2X2XmX2XmX2X2X2X2X<XmXmX2X&X0.r.r.r. XOX+X=X3X3X2X2X2X2X2X2XmX<XmXmXMXnXMX%X.XXX=X=X=X3X3X<X2X<XmXnXnXMXnXS...v.l.l.c.c.c.M.M.M.M.K.M.M.n.c.P.K.M.c.c.c.K.l.p.p.p.X. . . . . . . .o.o.( ( ( ( (  . . . .X.X.p.p.p.S.S.S.K.K.K.K.L.^.E.E.E.E.~.!.~.~.~.~.~.~.~.~.~.~.~.8X0X0X8X8X~.~.~.8X8XwX~.8XwXwX8X8XwXwXwXwXwXwXwXwXwXwXwXwXuXuXiXuXiXiXwXwXwXwXwXwXwXwX~.~.~.E.E.^.L.L.L.L.L.L.L.L.L.L.L.L.L.L.L.L.L.L.^.^.E.E.E.~.~.E.6X6X0X0X!.!.E.E.E.E.E.E.R.R.P.P.P.P.P.K.K.K.K.M.c.c.c.l.l.l.v.v.p.p.p.p.p.p.p.p.p.p.p.p.p.h.h.k.l.k.k.k.l.b.b.b.b.M.M.m.m.B.C.C.C.C.I.I.U.Y.Y.4XT.T.T.T.Y.W.T.Y.Y.Y.Z.Z.C.N.n.N.b.b.b.b.x.g.d.u.i.i.i.{ { { [ T Y U L P J ",
"U.U.W.W.W.W.W.W.W.W.T.Q.U.U.I.B.V.n.c.c.z.z.k.k.k.k.k.h.h.h.h.k.h.h.l.l.l.l.l.l.c.l.l.c.c.c.c.c.c.c.c.c.c.c.c.K.P.P.R.R.W.!.!.7X8X8X7X7X!.!.!.!.T.R.R.P.m.M.z.j.u.u.} ] Y U U ~ U U ~ ~ L L P P P P P P L L ~ L L L Y ] ] [ } } u.h.h.h.l.c.c.c.c.c.K.P.R.W.~.~.8X8X8X~.~.!.!.E.E.E.R.P.P.K.l.h.} | o.o.o.~ ~ ~ ~ K G f f a a a a a h a a u u r u r u u u a a u r u a a 9 1 1 1 w 1 1 1 1 1 1 1 3 1 1 1 1 3 3 3 w w 3 3 3 3 3 3 3 3 3 1 1 3 3 3 3 3 3 w w 3 1 1 3 1 , , 1 1 1 1 , - - ; ; ; - - , 1 a a a 1 1 1 1 1 1 1 1 1 , 2 o o o O       O                                                                                     1 F.#X;X-X<X1X#X%X*X#XoX@X*X%X%X%X*X*X%X%X%X@X#XXXXX.XoXD.XX-X%X#X%X*X@X#X@X#X#X#X*X*XXXoX&X&X&X@X@X@XXX|.`._.t.t.q.,.&.@.2.2X<X<XmX<X*X*X*X=X=X*X=X-X-X*X&X=X=X=X=X=X&X&X&X=X=X=X*X&X$X$X$XXX'.D l l v l l l l l l l l l k k k 4 4 4 4 4 k k k k k M M z z z n n @.*.*.*.;.,.,.,.2.3.3.0.0.0.0.0.0.).'.).0.G.9.4.4.4.4.4.4.4.4.4.9.4.<.2.4.G.9.G.G.9.4.4.9.G.G.G.G.9.4.4.9.4.9.9.4.4.9.4.4.<.1.1.<.4.1.1.<.5.5.;.;.;.*.*.5.*.%.*.%.%.m m @.%.S m m m n m m b m m m n @.#.%.&.&.&.&.&.&.=.=.&.#.#.@.+.@.+.n n n z z k S `.=X:X3X2X2X2X2X2X3X2X2X2X2X2X2XmX2X2X2XmXmXMXmX<X-X0.r.r.r. XOX+X=X=X3X2X2X2X2X2X2XmX<X<X<XmX<XMX%X.XXX+X=X=X3X<X1X1X<X<X<X<XnXPX(...l.c.l.c.c.M.M.m.m.P.K.M.m.P.n.P.M.M.c.c.c.K.l.p.p.p.X. . . .o. . .o.( ! ! ( ( ! ! (  . . .X...p.p.p.S.S.S.K.K.K.K.P.^.E.E.E.!.~.~.~.~.~.~.~.~.~.~.~.8X8X8X8X0X8X8X~.~.~.~.8X8X~.wXwXwXwX8XwXwXwXwXwXwXwXwXwXwXwXwXiXiXiXuXiXiXwXwXwXwXwXwX~.~.~.E.E.E.^.^.L.L.L.L.L.L.S.L.L.S.L.K.L.L.L.L.L.L.^.E.E.E.E.~.~.~.~.6X!.!.!.!.E.E.E.E.E.E.E.R.P.P.K.K.K.K.K.K.K.M.l.c.c.l.l.l.v.p.p.p.p.p.p.p.p.p.p.p.p.h.h.h.k.k.l.l.k.z.b.b.b.b.b.b.M.m.B.B.C.C.C.C.I.I.Y.Y.4X4XY.Y.T.T.W.W.4X4X4XY.Z.Z.C.V.N.n.n.b.b.b.x.f.g.s.d.d.u.i.i.{ { [ Y Y U L P ",
"I.U.W.W.W.W.W.W.W.W.W.Q.U.U.P.V.B.V.c.z.z.z.k.k.h.h.h.h.l.l.l.k.h.l.l.l.k.l.l.l.c.c.l.c.c.c.c.c.c.c.c.c.c.c.M.M.P.P.R.R.W.R.!.7X8X8X8X7X!.!.T.T.!.T.R.P.m.n.z.h.u.u.} ] Y L L ~ ~ ~ ~ ~ L P L L K P P P L L L L L L Y Y ] ] [ { } d.h.h.h.l.c.c.c.c.K.P.R.E.~.8X8X~.~.~.~.E.E.^.^.(.K.l.v.} _ ~ K K f f a s a a r 1 1 1 1 1 9 3 a a a a a a j j j j j j a a a a w 1 1 1 w w 1 1 3 3 1 1 1 1 3 3 1 3 3 3 3 3 3 3 3 3 3 3 3 3 3 3 1 1 1 1 1 1 , 1 1 3 3 3 1 1 1 3 3 3 3 3 1 1 , - - - - - - - ; ; 1 1 w w 1 1 1 1 1 1 1 1 , 2 o o o o o O O X                                                                                     .     ` ;X;X-X<X<X-X%XH.H.#X%X*X@X%X%X%X%X%X*X%X*XXX%X@XoX.XD.@X*X%X*X*X@X#X#X%X#X%X&XXXXX@XXX.X.XoX@X&X@XXX|.|._.r.q.3.,.>.@.2.2X<X2XmX-X%X*X-X-X=X&X@X*X*X@X*X=X=X&X&X=X&X@X&X=X*X*X=X=X&X&X&XXXoX:.l l l l l l l l l l l l l l k k 4 4 4 4 4 4 4 k k k k M z z z b m n S @.%.*.=.>.>.2.3.0.3.3.3.3.3.0.).).0.0.0.0.4.q.0.q.4.0.9.4.4.4.4.4.9.4.G.0.9.4.4.4.9.G.G.G.0.G.9.4.4.9.4.4.4.4.9.4.4.<.1.1.<.1.1.<.<.<.;.;.5.5.;.*.*.*.*.%.@.@.@.@.%.S @.S S m m n m m m b b m S @.%.%.&.&.&.&.&.&.#.#.#.@.S n n n n z z z z M m  XOX:X3X2X2X2X2X2X2X2X2X2X2XmXmXmXmX2X2XmXmXMXmX2X=X0.q.t.r. XOXOX+X=X1X3X2X2X2X2X2X2X<X<X<XmXmXnX<XXX.X&X3X3X3X=X2X-X1X<X<XmXMXMX/.v.l.l.K.M.n.n.M.m.P.P.K.K.m.n.m.P.K.M.M.M.c.c.S.v.p.p.X.X. . . . .( ( ! ( ( ( ( ( ! ! (  .X.X.X.p.p.p.v.v.S.K.K.K.K.P.E.E.E.E.E.E.E.E.!.~.~.~.~.~.~.~.8X8X8X0X~.~.~.~.~.~.~.~.~.8X8XwXwXwXwXwXwXwXwXwXwXwXwXwXwXiXiXuXuXuXwXwXwXwXwXwXwX~.E.~.~.~.E.^.^.^.^.L.K.L.L.L.L.S.S.S.L.L.K.L.L.L.L.^.^.^.E.E.E.E.~.6X6X0X0X~.~.!.E.E.E.E.E.E.E.E.R.K.K.K.K.K.K.K.K.M.M.c.c.l.l.l.l.v.v.p.p.p.p.p.p.p.p.v.v.v.h.h.h.l.l.l.l.z.b.b.b.M.M.b.n.M.m.N.m.C.C.C.C.C.I.Y.Y.Y.Y.4XT.W.W.4X4X4X4XY.Y.Y.C.C.V.N.n.V.V.V.n.b.x.j.g.f.g.d.d.d.i.i.{ [ T Y U U ",
"U.U.Q.W.W.W.W.W.W.W.W.Q.U.U.P.B.B.n.c.z.z.z.k.k.k.k.k.k.l.l.l.l.h.l.l.l.l.l.l.l.c.c.c.c.c.c.c.c.c.c.c.c.c.c.M.m.P.P.P.R.R.R.!.7X7X8X8X7X!.!.E.T.!.R.I.P.m.M.z.h.u.} { ] U L L ~ L L L ~ L P P L P P P P L L L P L L Y ] ] ] [ [ } h.h.h.h.l.l.v.l.c.K.P.E.E.~.~.~.~.~.~.E.L.S.v.X.| ~ K f a a u u u u 1 1 1 1 1 1 1 1 1 3 3 3 3 3 3 3 3 3 3 3 3 3 3 3 3 3 3 3 3 1 1 1 1 1 1 1 1 1 1 1 1 1 1 1 3 3 3 3 3 3 3 1 1 1 1 3 3 3 3 3 1 1 ; , 1 1 1 , , 1 1 1 1 1 , , 1 1 1 1 1 1 1 , - - - - - - - ; , , 1 1 1 1 1 1 1 1 1 1 1 , + o o o o o O X                                                                                             c ;X;X%X<X<X-X%XH.H.#X@X*X%X%X%X%X%X%X*X%X%XXX%X#XoX.XF.XX*X*X%X%X%X#X#X@X%X*X&X#XoXXXoXoXoX@X&X&X@XXX|.`._.e.0.3.3.>.@.2.2X<X<XmX-X*X*X-X%X%X@X%X*X&X&X*XoX$X=X=X$XXX@X=X*X*X=X=X=X=X&X&X$XXX2.l l l l l l l l l l l l l l l k k 4 4 4 4 4 4 4 4 k k k l M M z b m n n n @.%.*.*.=.>.2.2.>.,.2.3.3.3.3.3.0.0.0.0.0.0.0.0.0.0.0.0.4.4.4.4.4.0.0.9.9.4.4.0.G.G.0.0.9.9.9.9.4.4.9.4.4.4.4.4.<.<.<.<.1.<.<.<.;.;.5.;.;.;.*.*.*.*.%.%.@.m S @.S @.S S m S n m m m b b b m S @.@.#.%.%.&.&.#.#.#.#.@.n n n n n n n z z l m `.+X=X3X2X2X3X3X2X2X2X2X2X2X2X2XmXmX2X2XmXmXnXmX2X1Xq.q.q.t.r. XOX=X=X1X3X2X2X2X2X2X2X<X<X1X<XnXnX<X@XoX+X=X=X=X1X1X<X1X<X<X<XnXnXnX(.l.c.K.M.m.B.n.B.P.I.I.P.m.m.m.P.K.M.M.M.c.l.S.v.p...X. . . . .` ( ( ( ( ! ! ! ( ( ! (  .X.X.X.p.p.v.v.S.S.K.K.K.K.P.E.E.E.E.E.E.E.E.!.~.~.~.~.~.~.~.0X8X~.~.~.0X~.~.~.~.~.~.~.8X8XwXwXwXwXwXwXwXwXwXwXwXwXwXwXiXuXuXuXwXwXiXwXwXwXwXwX~.~.~.~.E.^.^.^.L.L.K.S.S.S.S.S.S.S.L.L.L.L.L.L.^.L.^.E.E.E.E.E.~.~.~.~.6X!.~.~.!.E.E.E.E.E.E.E.R.R.P.K.K.K.K.K.K.K.K.M.c.c.l.l.l.l.l.l.v.l.v.v.v.h.h.h.k.l.l.l.k.k.l.l.l.c.c.z.b.b.M.M.n.n.M.m.m.B.C.C.C.C.I.Y.Y.Y.Y.Y.T.T.W.W.W.W.4XW.Y.Y.Y.U.C.C.C.C.C.V.V.V.n.b.b.z.x.j.g.g.d.d.i.i.[ T Y Y U ",
"U.U.Q.W.W.W.W.W.W.W.W.T.U.U.I.B.n.M.c.c.c.z.k.k.k.k.k.k.k.k.k.l.h.h.l.l.l.l.l.l.c.c.c.c.c.c.c.c.c.c.c.c.c.c.M.K.P.P.P.R.R.W.!.!.!.7X7X7X!.!.E.T.W.R.P.B.n.b.k.h.u.} [ ] U L L L L L L L ~ P P P L P P P P L L L L L L U U ] | | } } } h.v.l.l.l.c.K.K.(.E.~.~.E.L.K.v... .~ G f f a u 1 1 1 9 a 1 1 1 1 1 1 1 1 3 3 1 1 1 1 1 3 3 3 3 3 3 3 3 3 3 3 3 3 3 3 3 1 1 1 1 1 1 1 1 1 1 1 1 1 1 1 1 1 1 1 3 3 3 1 1 1 1 1 1 1 1 1 1 1 , , , ; 1 1 1 , 1 1 1 1 1 , , , 1 , 1 1 1 1 , , - - - - - - ; , , 1 1 1 1 1 1 1 1 1 1 , , o o O o o O O                                                                                         .     3 H.;X#X<X<X-X*X#X#X#X%X%X*X*X*X%X%X%X%X%X%X@X%XXXoXoXF.H.*X*X@X@X@X@X#XXX%X@X@XXXXXoXoXXX@X&X@X&X@XXX|.`._.r.0.3.3.>.@.,.2X-X<X2X-X-X*X=X@XXX@X@X@X@X&X$X$X$XXXoXoXoXoX$X&X=X=X=X=X=X*X@X$XoX'.b l l l l l l l l l l l l l l k k k k 4 4 4 4 4 4 4 4 k k k k M M b m m m m m S @.%.%.*.*.&.&.=.>.>.>.,.,.2.3.e.e.e.0.0.0.0.0.4.4.4.4.4.0.4.9.9.4.9.9.9.0.0.0.0.9.9.4.9.0.4.4.9.4.4.4.4.4.<.4.4.<.<.4.4.<.5.;.;.;.;.;.*.*.*.*.*.%.@.@.S @.@.@.@.S S S S S m m m b b b m m S @.#.#.%.#.#.#.#.@.@.n n n z z z z z z l b 0.+X=X>X3X3X3X3X2X2X2X2X2X2X2X2XmXmX2X2X<XmXmXmX2X2Xq.w.q.t.r. XOX=X=X3X3X2X2X2X2X2X-X1X1X1X<XnXMXmX&XXX&X&X&X=X=X-X2X-X<XmX<X<XnXMX/.S.K.K.M.P.B.n.P.P.P.I.P.P.P.P.P.K.M.M.c.l.l.S.p.p...X. . .o.o.` ( ! ( ( Q W W ( ( (  . .X.....p.p.S.S.S.K.K.K.K.L.E.E.R.R.E.E.!.E.E.!.!.!.~.~.!.!.~.0X~.~.~.~.0X0X0X0X8X~.~.~.8X8XwXwXwXwXwXwXwXwXwXiXiXiXwXwXiXuXuXuXiXiXwXwXwXwXwXwXwX~.~.E.^.^.^.L.K.S.S.S.S.S.S.S.S.S.K.L.L.S.L.L.^.^.^.E.E.E.E.~.~.~.~.!.!.!.!.!.!.!.E.E.E.E.R.R.R.R.P.K.K.K.K.K.K.K.M.M.M.M.c.c.l.l.l.l.l.l.l.l.l.l.k.k.l.l.c.c.l.k.l.M.M.M.M.b.b.b.n.M.M.M.M.M.B.C.C.C.C.C.I.Y.Y.Y.Y.Y.T.4X4X4X4X4X4XW.4XW.Y.Y.I.C.C.C.C.C.Z.C.V.m.n.b.b.x.x.f.g.g.d.i.{ { T Y Y ",
"I.U.Q.W.W.W.W.W.W.W.W.T.U.U.I.B.m.M.c.c.c.z.k.k.k.k.k.k.k.k.l.l.h.h.l.l.l.l.l.l.c.c.c.c.c.c.c.c.c.c.c.c.c.c.M.K.P.P.P.R.R.W.!.!.!.7X7X7X7X!.E.T.T.R.P.m.M.b.k.h.u.} [ ] U L L L L L L ~ ~ L P P P P P P P P L L ~ ~ ~ ~ U ] | | } } ..h.v.v.v.v.v.v.....X.} | ! K g h a a a a r 1 1 1 w 1 1 1 1 1 1 1 1 1 1 , , 3 3 1 1 1 1 1 1 3 3 3 3 3 3 3 3 3 3 3 1 3 1 1 1 1 1 1 1 1 , 1 1 1 1 1 1 1 1 1 1 1 1 1 1 1 1 1 1 1 1 1 1 1 1 1 , ; , , ; 1 1 1 1 1 1 1 1 1 1 1 1 1 , 1 1 1 1 ; , - - - - - - ; , , 1 1 1 1 1 1 1 1 1 1 , o o o o O O O X                                                                                                 X.;X%X-X<X<X-X%X#X@X%X%X*X*X*X%X%X%X%X%X%X%X%XXXoXoX.XF.%X%X@X@X@X@X@X#X#X#XXX#X#XoXXX@X$X&X@X&X&XXXoX|.`.r.e.q.3.>.@.;.2X-X<X2X-X-X=X*X@XoX@X@XoXoX@X@XXXXXoXoXXXXX@X&X@X&X=X=X=X=X*X@X+XoXOX%.l l l l l l l l l l l v l k k k k k k k k 4 4 4 4 4 k k k k k M M z m m m m m S S S @.%.%.%.&.&.=.=.>.,.>.2.3.0.0.0.e.e.0.4.4.4.4.4.4.0.4.0.4.9.0.9.q.0.9.9.0.9.4.4.9.9.9.9.4.9.0.0.9.4.4.4.4.4.<.4.4.<.;.5.5.;.;.;.5.*.&.&.*.*.%.@.@.@.@.@.S m m S S S m m m b b z b m m S @.#.%.%.#.#.#.#.@.S n n z z z z M M k l 2.+X=X>X3X3X3X2X2X2X2X2X2X2X2X2XmXmX2X2X<XmXmXnXmX2Xq.,.3.q.r. XOX=X=X3X3X2X2X3X3X1X=X-X-X1X<XmXnXmX&XoX&X&X=X1X=X=X1X-X<X2X<X<XMXPX/.l.K.K.M.P.n.B.P.P.I.I.P.P.P.P.P.m.M.c.c.l.l.l.p.p...X. . .o.( ( ( ! ! ( Q W Q Q ( `  . .X...p.p.p.S.S.S.K.K.K.L.L.R.R.E.R.E.E.!.E.E.!.!.!.~.~.!.!.!.~.~.~.~.~.0X0X0X0X8X8X8X8X8X8XwXwXwXwXwXwXwXwXwXwXiXiXuXuXuXuXuXiXiXwXwXwXwXwXwXwXwX~.E.^.^.^.L.L.S.S.S.S.S.S.S.S.S.S.K.L.K.L.L.L.^.^.E.E.~.E.~.~.~.~.0X0X0X0X!.!.E.!.E.E.E.R.R.R.R.P.P.K.K.K.K.K.K.K.M.M.K.M.c.c.c.l.l.l.l.l.l.l.l.l.k.k.l.c.c.c.c.l.M.M.M.M.M.M.M.n.M.M.M.M.n.M.B.C.C.m.C.I.I.Y.Y.Y.Y.Y.Y.4X4X4X4X4X4XW.4XW.Y.Y.Y.Y.U.Y.C.C.C.Z.Z.V.n.n.b.b.x.x.j.f.s.d.i.{ { T T ",
"I.U.W.W.W.W.W.W.W.W.W.T.Q.U.I.B.B.n.M.c.c.z.k.h.k.k.k.k.k.k.k.l.k.l.l.l.k.l.l.l.l.c.c.c.c.c.c.c.c.c.c.c.c.c.n.m.P.P.P.R.R.!.!.!.7X8X8X7X!.!.!.T.T.R.P.m.M.z.k.h.u.} [ ] ] L L L L L L L ~ L P P K P P P P P P L ~ ~ o.] o.o.o._ | | _ _ ! ~ ~ E E K K g f u t < u 1 1 1 w w 1 1 3 3 3 1 , , , , , , ; , , ; 1 1 1 1 1 1 1 1 1 , 1 1 1 1 1 1 3 3 3 1 1 1 3 1 1 1 1 1 1 1 1 1 1 1 1 1 1 1 1 1 1 1 1 1 1 1 1 1 1 1 , , , - - - - , - ; , , 1 1 1 , 1 1 1 1 1 1 1 1 1 1 1 , , , , , - - - - - - , , , 1 1 1 1 1 1 1 1 1 , + o o o o X X                                                                                                     d %X;X;X;X<X-X*X%X#X@X%X*X*X*X%X%X%X%X%X%X*X%X@XXX@XoXF.@X%X*X@X#X@X@X@X#XXX#X@X#XXX#X@X*X&X@X&X@X@XXX|.`.r.r.0.3.,.@.;.2X-X-X-X-X=X=X*X$XXX$X@XoXoX@X@X{.XX$X$X+XXXXX&X@X&X*X*X*X=X*X@X@XOXXX<.l l l l l l l l M M l l l l l l l l k k k k 4 4 4 k k k k k k k M M M z b m m m m m m *.%.@.%.&.&.&.=.>.;.>.2.3.3.0.e.e.4.4.4.4.4.4.3.4.0.0.0.0.0.0.0.0.9.0.G.G.9.9.9.9.G.9.4.9.G.G.9.4.4.<.<.4.4.4.2.5.;.5.>.;.;.;.5.*.&.*.*.%.%.%.%.@.S S m m m m m m m m m b b b b b m m S @.@.@.#.%.#.@.S n m b z z z M M M l k -.&X=X>X3X3X2X2X2X2X2X2X2X2XmX2XmXmX2X2X<XmXmXmXmX2X9.:.,.q.r. X+X=X=X1X3X3X3X3X3X1X1X1X1X1X<X<XnXmX<XXX@X=X=X=X=X3X-X-X-X<X<X<XmXnX/.v.K.K.M.P.B.U.I.I.I.I.I.I.P.P.P.m.M.c.c.l.v.l.p.p.X. . . .o.! ( W W W W W W W W ( ( (  .X.....p.S.S.S.S.K.K.K.L.R.E.R.E.R.E.E.!.!.E.!.!.!.~.~.!.!.~.~.~.0X~.~.0X0X~.~.~.8X8X8X8X8XwXwXwXwXwXwXwXwXwXiXuXuXuXuXuXuXuXiXiXiXwXwXwXwXwXwXwX~.E.^.^.^.L.S.S.S.S.S.S.S.S.S.S.S.K.K.K.L.L.L.^.E.E.E.E.~.~.~.~.~.0X0X6X6X6X!.!.E.E.E.E.E.R.P.I.P.K.K.K.K.K.K.K.K.M.c.M.c.c.c.c.c.l.l.l.l.l.l.l.l.l.l.l.l.l.M.M.M.M.M.M.M.M.m.M.M.n.n.M.M.M.m.B.C.C.m.C.I.I.Y.Y.Y.Y.Y.Y.Y.4X4X4X4X4XW.T.T.T.T.T.Y.Y.Y.Y.Y.Y.Y.U.C.C.V.V.V.n.b.b.x.f.s.d.i.{ [ [ ",
"I.U.W.W.W.W.W.W.W.W.W.Q.U.U.I.B.B.m.n.c.c.z.k.h.k.k.k.k.k.k.k.k.l.l.l.l.l.l.l.l.c.c.c.c.c.c.c.c.c.c.c.c.c.c.M.m.P.P.I.U.R.!.7X7X7X7X7X7X!.!.!.T.W.R.P.m.M.z.k.h.u.u.{ ] ] ~ L L L L L L L P P P K P P ~ P L ~ ~ ~ ~ ~ ~ K K G g f f f s h a u a u w a 1 1 1 1 3 1 1 1 w a w w 1 1 1 1 1 1 1 1 1 1 , , , ; 1 1 1 1 1 1 1 1 1 1 , , 1 1 1 , , 1 1 1 1 1 1 1 1 1 1 1 1 1 1 1 1 1 1 1 1 1 1 1 1 1 1 , 1 1 1 1 1 1 1 , , - + + - - ; ; ; ; , , , 1 1 1 , , 1 1 1 1 1 , , , , , , - - - - - - - - ; - 1 1 1 1 1 1 1 1 1 , 2 o o O o o                                                                                                       O + G.;X;X;X1X<X;X%X@X@X@X*X*X%X%X%X%X%X%X%X*X%X%X@X@XXXH.@X*X-X*X@X@X@X#X#X@X@X@X#XXX#X@X=X&X&X&X@X@XXX.X|.r.r.t.3.,.@.&.3X-X-X-X*X=X=X&XXX@X$X$XXXXX@X@X$X=X$XoXoXoXoXXX$X&X*X*X*X*X*X&X&X+XOX0.l l l l l l l M M M l l l l l l l l l l k k k k k k k k k k k l M M M M M M M M M M m %.%.%.%.*.&.*.*.*.&.;.>.>.2.3.3.3.3.3.4.4.3.0.0.0.0.0.0.G.G.0.0.G.0.G.G.G.0.9.9.9.9.9.9.0.0.4.4.4.4.2.2.4.4.4.2.5.;.5.;.5.5.5.5.*.&.*.%.%.%.%.%.@.@.S S n m m m m m m b b b b z z b m m S @.@.@.#.@.n n b b b b b z M M l l k / +X=X:X3X3X2X2X2X2X2X2X2X2XmX2XmX2X2X2X<XmXmXmXmX2XD.;.,.t.r. X+X+X=X1X3X3X3X3X3X3X1X1X1X1X1X<XnXMXmX&X@X*X=X=X=X2X*X<X-X*X-X;X-X;X/.S.K.P.K.P.I.T.I.I.I.I.R.I.P.P.P.K.M.M.c.l.l.v.p...X. . . .o.( ( W O.O.O.O.W W ( ( `  . .X...p.v.S.S.S.K.K.K.K.^.E.R.R.R.R.E.E.E.!.E.!.!.!.~.~.~.~.~.~.~.0X0X0X0X0X~.~.~.0X8X8X8X8XwXwXwXwXwXwXwXwXwXiXuXiXuXuXuXuXiXiXiXwXwXwXwXwXwX~.~.E.^.^.^.L.S.S.S.S.S.S.S.S.S.S.S.S.K.K.L.L.L.^.E.E.E.E.E.E.E.~.~.~.0X0X0X6X6X!.T.E.E.E.E.E.R.P.I.P.K.K.K.K.K.K.K.K.M.c.M.c.c.l.c.l.l.l.l.l.l.l.l.l.l.c.c.l.l.b.M.M.M.M.n.M.m.m.m.m.m.n.m.M.M.m.B.B.C.m.C.C.I.I.Y.Y.Y.Y.Y.Y.Y.Y.4X4XW.T.Y.T.4X4X4XT.Y.Y.Y.Y.Y.Y.Y.U.C.C.V.V.N.n.b.x.f.f.d.u.i.{ { ",
"I.U.W.Q.W.W.W.W.T.W.W.Q.Q.U.I.B.P.V.n.c.c.c.k.k.k.k.k.k.k.k.k.k.l.k.l.k.l.l.l.l.c.c.c.c.c.c.c.c.c.c.c.c.c.M.m.m.P.P.P.U.Q.!.7X!.7X7X7X7X!.!.!.T.W.Q.P.B.m.M.k.h.u.} [ ] ] L L L L L L L P P P K K K K ~ L ~ ~ ~ K K g f a a u u 1 1 1 1 a 3 j a j 3 3 3 3 1 3 1 3 1 3 1 , ; , ; 1 1 1 1 1 , - + , 1 1 , , , , , 1 1 1 1 1 1 1 , 1 1 1 1 1 1 1 1 , , , 1 1 1 1 ; , , , , , , , , 1 1 1 1 , , 1 1 1 ; ; ; ; , , , 1 , ; - - - - ; ; ; ; ; , , , , , , , , ; ; , , , , , , , , - - - - - - - - - - , , , , , , , , , 2 + o O O O O                                                                                                           ( ;X;X;X1X<X-X%X%X@X@X*X%X%X%X%X%X%X%X*X*X%X%X%XXX@XoX#X*X-X*X@X%X@XXX@X%X&X#XoXXX@X@X&X&X&X&X@X@XXX|.|.r._.e.3.,.@.%.=X-X-X-X*X*X=X@XXX$X$XXXXXXXXX$X$X+X'.D.{.OX$X$X&X&X&X*X=X*X*X&X=X+XOX'.b k l l l l l l M M l l l l k k k k k k l k k k k k k k k k l M M z z z M M M k k M M b m m m %.%.*.*.%.*.*.;.;.>.,.,.>.3.3.3.3.3.0.0.0.0.0.0.G.).0.0.D.G.G.G.G.0.0.0.0.4.4.4.9.0.4.4.4.4.4.4.4.4.4.2.5.;.;.;.;.;.5.5.*.*.*.%.@.%.%.%.%.%.%.S m m m m m m m m b b z l l b m m n n n @.@.n n n b b b b b z M M l l 4 b oX=X:X3X3X2X2X2X2X2X2X2X2X2X2XmX2X2X<X<XnXnXnX2X2X+Xq.q.r.].OX+X+X=X=X3X3X3X3X3X3X1X-X-X-X-X1XnXMXMX*X&X*X=X=X=X3X-X-X-X*X-X;X%X;XnX^.K.P.R.Q.T.W.T.U.R.R.R.I.P.K.K.M.M.M.c.l.v.v.p...X. . . .( ! ( W O.O.O.O.W ( ( (  . .X.X...p.v.S.S.K.K.K.K.^.E.R.R.E.R.E.E.!.E.E.E.!.!.!.!.~.~.~.0X0X~.0X0X0X0X~.~.~.~.0X8X8X8X8XwXwXwXwXwXwXwXwXuXiXiXiXiXiXiXiXiXiXwXwXwXwXwXwX~.~.E.E.^.L.L.K.S.S.S.S.S.S.S.S.S.S.S.S.K.K.K.L.^.^.E.E.!.!.E.~.~.~.~.~.0X0X0X6X!.T.E.E.E.E.E.R.R.R.P.P.K.K.K.K.K.K.K.K.M.M.c.c.c.c.c.l.l.l.c.l.l.l.l.l.c.b.M.M.M.M.M.M.M.M.M.M.M.m.m.m.n.m.M.M.m.m.B.B.C.C.C.C.C.I.U.Y.Y.Y.Y.Y.Y.Y.Y.Y.Y.T.Y.Y.T.4XT.T.Y.Y.U.Y.Y.Y.Y.Y.U.Z.C.V.C.N.b.b.f.g.d.d.u.i.i.",
"U.U.W.W.W.W.W.W.Q.W.T.Q.U.U.I.B.B.B.n.c.c.c.z.k.c.c.c.l.k.k.k.k.k.l.l.l.k.l.l.l.c.c.c.c.c.c.c.c.c.c.c.c.M.n.m.m.P.P.P.P.Q.!.7X!.!.!.!.7X7X!.!.!.W.Q.I.P.m.M.l.h.u.} [ ] ] L L L L L L P P K K K K K K K K K G g u a a a a u 1 1 1 1 1 1 1 1 3 j j 3 3 1 1 1 1 - - , 1 1 1 1 1 3 1 1 , , 1 1 1 1 , 1 1 1 1 1 1 1 1 1 1 1 1 1 1 , , , 1 1 ; ; ; ; , , , , 1 1 ; ; , , , , , , , , 1 1 1 1 , 1 1 1 1 1 1 ; , , ; - , ; ; - - - - - ; - - - - ; , , , , , , ; , ; ; , , , , , , , - - , , , - - - + , , - , , , - + + + o o o O X                                                                                                             c %X;X;X<XmX<X-X%X%X%X*X%X%X*X%X%X%X%X*X*X@X%X%XXX@XoXXX%X*X%X@X*X@XoX@X*X&XoXoX#X&X@X@X@X&X&X&X&XXXOX|.'._.e.3.3.#.%.=X*X-X-X*X*X*XXX@X=XXX{.{.oXXX&XXX+XOX{.oXXXOX$X&X$X&X=X-X=X*X&X=XXXXX'.S k z l l l l l l l l l z l l k k k k k l M M M M M M k k k M z b z M M M M M M M k k k M b m m %.*.*.*.%.*.&.;.;.>.;.;.,.3.4.3.3.3.0.0.3.0.0.e.e.0.4.e.0.0.0.0.0.0.0.0.9.4.2.4.G.G.9.4.2.4.4.4.<.2.2.;.;.;.*.;.5.5.*.*.&.*.%.@.@.%.%.%.@.S S m m m m m m m m m b l l l b b m m m n m n n m m m m m b z M M M l l 4 v |.=X:X3X2X2X2X2X2X2X2X2X2X2X2X2X2X<X<X<X<XnX<X<X2X=Xq.q.[.[. X+X=X=X=X=X3X3X3X3X3X1X-X*X%X#X%X;X<XmX*X&X*X=X3X=X=X*X-X*X*X<X-X%X;XLXeXP.P.R.W.W.U.T.T.T.T.R.I.I.K.K.K.M.M.c.l.v.p.p.X.X. . . .( ! W O.O.O.O.O.Q ( ( ( (  .X.X...p.p.v.S.K.K.K.K.E.R.R.E.T.E.E.E.!.E.E.E.!.!.!.!.~.0X0X0X0X8X8X8X8X0X~.~.~.0X0X8X8X8X8XwXwXwXwXwXwXwXuXiXiXuXuXuXuXiXiXiXiXwXwXwXwXwX6X~.E.E.E.^.L.K.S.S.S.S.S.S.S.S.S.S.S.S.S.K.K.K.L.^.^.E.E.~.!.~.~.8X8X8X8X0X0X0X6X!.T.E.E.E.E.R.R.R.P.P.R.P.P.K.K.K.K.K.K.K.M.c.M.c.c.c.l.l.c.c.c.c.l.l.b.b.b.M.M.N.M.M.b.M.M.M.M.n.n.n.M.m.m.M.M.m.m.m.m.C.C.C.C.C.I.C.C.C.C.Z.Z.Z.Y.Y.Y.Y.Y.Y.Y.Y.Y.Y.Y.Y.Y.T.T.W.W.T.Y.Y.Y.Z.Z.C.C.n.b.b.x.g.s.d.u.u.",
"U.U.W.W.Q.W.W.W.W.W.W.Q.U.U.I.B.B.B.n.n.z.z.c.z.z.k.k.k.k.c.c.c.k.k.h.h.k.l.l.k.c.c.c.c.c.c.c.c.c.c.c.c.c.M.M.V.V.P.P.U.R.W.!.!.7X8X7X!.!.!.!.W.W.T.R.P.M.M.l.k.u.} { ] ] ] L L L L P P K K K K K E E K f a u u u a a a r 1 1 1 1 1 1 1 1 1 1 1 1 1 1 1 1 1 1 , , , 1 1 1 , 1 1 1 1 1 1 1 1 1 1 1 , , , , , 1 1 1 1 , ; , , , , - ; ; ; , , , ; 1 1 1 1 1 , , , , , , , , , , , , , , ; ; ; 1 1 1 , , , , - + + - - - + + - , - - + + ; , - , , , , , - - ; , , , - - - - - + + - - - + + + - - - + + + + + + o o O O O O O O                                                                                                           O + G.<X;X;X<X<X-X%X#X%X%X%X@X%X%X%X*X*X%X*X*X*X%X%X%X@XXX&X-X-X*X*X*XXX%X@XoX.XoXXXXXXX@X&X=X=X&XXXXXXX'.'.r.0.3.>.=.@.oX-X*X*X%X*X@X%X@X@XXXoX{.{.oXoX.XXXXXXXoXOXXX@X@X$X=X=X*X=X*X&X*X+XXXXX:.k M k M l l M l k l z b z M M M M M M z M z z z z M M M M z z z M M b b b b b b b M M M M M m m ) %.%.*.*.*.*.*.*.&.;.;.>.>.>.,.3.3.3.>.3.3.3.3.3.3.3.3.0.0.4.0.0.0.4.4.4.9.9.4.4.4.9.2.2.2.2.2.2.>.;.;.;.*.&.*.;.*.*.*.%.%.@.@.@.S @.m m @.m b m m m S S S m b b M l z b m m m m m m m m m m m m b z z z k l k k k D.=X=X:X3X3X3X2X2X2X2X2X2XmX2X2X2X2X<X<X<X<X<X<X2X=X0.0.'.|.OXOX=X=X=X3X1X3X3X1X<X1X*X@X@X#X#X%X*X=X=X&X=X-X-X-X*X-X%X%X%X%X%X%X;XnXNXR.K.!.T.Y.W.W.T.Q.R.R.R.I.I.m.K.M.c.M.l.p.v.p.X.X. . . .! W O.O.O.O.O.W ! ! (  . . .X.X...p.p.v.S.K.K.K.K.^.E.E.E.E.E.E.E.E.E.!.!.!.!.!.~.6X8X8X6X6X6X6X6X6X~.~.~.0X0X~.~.~.0X8XwXwXwXwXwXwXwXwXuXwXiXiXuXuXuXuXwXwXwXwXwXwXwXwXE.E.^.^.L.L.S.S.S.S.S.S.S.S.S.S.S.S.S.S.K.K.K.K.^.E.E.E.E.~.~.~.8X8X8X~.~.~.0X0X!.!.!.!.T.E.R.R.R.P.P.P.K.K.K.K.K.K.M.M.K.M.c.M.c.c.c.l.l.l.l.l.l.l.c.b.b.b.b.M.M.N.M.M.M.N.m.m.m.m.N.N.M.M.N.m.m.m.m.C.m.m.C.C.C.Y.I.I.C.C.B.B.C.Z.Z.U.Y.Y.Y.Y.4X4XY.Y.Y.4XT.T.4X4X4XT.T.T.T.Y.Z.C.V.b.x.f.f.s.d.d.d.",
"I.U.W.W.W.W.W.W.U.W.W.U.U.U.I.B.B.B.m.n.z.z.c.z.k.k.k.k.c.c.l.l.l.l.k.l.l.c.c.l.c.c.c.c.c.c.c.c.c.c.c.c.c.M.M.V.P.P.P.Q.W.!.!.!.~.~.7X!.!.!.W.W.W.T.I.P.M.c.l.h.u.u.{ ] ] L L L ~ L L P K K K K E K g f a u u 1 u u 9 1 1 1 1 1 1 1 1 1 1 1 1 1 1 1 1 , , , , 1 , , , 1 , , 1 1 1 1 1 , , , 1 1 , , , , , , , , , , - - ; ; - - - - ; , , , , , ; , 1 1 , 1 , , , , , , , , , , , , , , , , ; ; , , , , - - + + - - - - - - , - - - - , , - - , , - - - - ; ; ; - - - - + - - - - - - + + + + + + + o o o o o O O O O O O                                                                                                               O O ..<X;X;X<XnX<X%X#X%X%X%X%X%X%X*X*X*X*X*X*X*X%X%X%X%X@X&X*X*X%X%X%X@X%X#XoXoXXXXXXXXX&X&X&X&X&XXXXXXX|.'.r.e.q.,.=.@.|.-X*X*X%X*X%X%X@X@X$XXXoX.XoXoX.XoXXXoXoXoXoXoXXX$X$X&X&X*X*X*X*X@XXXXX<.l l k M M M z z z z b n z z M M M z z z z z n n n z z z z z z z z z m m m m m m m b M M M M M b m ) *.*.*.*.*.*.*.*.*.&.=.=.=.>.>.>.>.>.>.>.>.>.>.,.3.3.4.3.3.3.0.0.0.0.9.9.9.4.2.2.4.2.2.2.2.2.>.;.;.;.;.*.;.;.;.*.%.%.%.%.@.@.n S S m S S m m m m m S S S S m b z z l M b m m m m m m m m b b b z M z M k l k k k 2.+X=X=X3X3X3X2X2X2X2X2X2X2X2X2X2X2X<X<X<X<X<X2X2X=X0.0.'.|. XOX=X=X3X3X3X3X3X1X1X=X*X*X-X*X*X%X*X=X=X=X=X-X-X-X*X%X#X*X%XoXJ.H.;XnXNX~.^.!.T.Y.W.W.T.Q.R.R.R.I.I.K.K.M.M.K.l.v.v.p.X.X. . .( ! W O.O.O.O.O.W ! ! (  . . .X.X.p.p.p.l.S.K.K.K.K.E.E.E.R.E.E.E.E.E.!.!.6X6X!.!.~.8X6X6X6X6X6X8XwX8X~.~.~.0X~.~.0X0X8X8X8X8X8XwXwXwXwXwXiXiXiXiXuXuXuXuXwXwXwXwXwXwXwXE.E.E.^.L.L.L.S.S.S.v.p.p.p.v.S.S.S.S.S.S.K.K.K.K.^.E.E.E.~.~.~.~.8X8X8X~.~.~.0X~.!.!.E.E.E.R.R.R.R.P.P.P.P.K.K.K.K.K.K.K.M.M.M.M.c.c.c.c.l.l.c.c.l.c.M.M.M.M.b.M.M.M.M.M.M.N.N.m.m.m.N.M.N.N.m.m.m.m.C.C.C.C.C.C.I.I.C.C.C.B.C.V.C.C.C.Z.C.C.I.Y.4XY.Y.Y.Y.4XT.T.T.4X4X4X4X4XT.Y.Z.C.C.n.b.x.j.g.g.d.d.",
"U.U.W.W.W.W.W.W.U.U.U.U.U.U.I.V.B.B.n.n.z.z.z.k.k.k.k.c.c.c.l.k.l.l.l.l.c.c.c.c.c.c.c.c.c.c.c.c.c.c.c.c.c.c.n.M.B.P.P.R.T.!.!.!.~.~.7X!.!.!.W.W.W.T.U.P.n.c.k.h.u.u.} [ ] L L ~ L K K K K K K K g g a u 1 1 1 1 1 1 1 1 1 w 3 3 1 1 , 1 1 1 1 1 1 1 1 , , , , 1 , , , , , , , , 1 1 , , , , , , , , , , , ; - - - - - ; ; - - - - ; , , , , , , , , , 1 , , 1 1 , , , , , , , , , , , , , , , , - - , - - + + - - - - - - - , - , - - - - - - - - - - - - - - - - - + o o o - - - - - o + O O O o o o o o o O O O O X                                                                                                                   O   c ;X;X;X<XnX<X;X%X%X%X%X%X%X%X%X*X*X*X*X*X*X%X%X*X*X@X@X*X*X@X@X%X@X@X#X.X.XXX@X@XXX@X@X@X@XXXXXXXOX|.`.r.e.q.,.=.@.'.3X*X*X%X*X%X%X$X$X$XXXoX.XoXoXoXXXXXoXoXoXoXoXXX@X@X@X&X*X*X=X&X$XXX+X9.l k l M M M z n n n n n b z z z z z z z n n n n n n n n n n z z n n m m m m %.%.%.S S S m m M M b m m *.*.*.*.*.*.%.@.&.&.&.&.=.>.>.>.>.>.>.>.>.>.>.>.>.>.>.3.3.3.3.0.0.0.q.q.4.2.2.>.2.2.2.2.>.>.;.;.;.*.&.;.;.*.%.@.@.%.%.%.S n m n S S S m m S m m S m m S m b v b M z b m m m m m m m m m b z M M z l k l k k k S OX=X=X:X3X3X2X2X2X2X2X2X2X2X2X2X2X<X<X<X<X<X<X2X=XD.0.'. XOX+X=X=X=X3X3X3X1X1X=X=X=X*X-X*X*X-X<X&X=X=X=X-X-X-X*X-X*X<X<X*XXX@X<XnXLXeXR.E.T.W.W.W.T.Q.R.R.R.I.I.K.K.K.M.K.l.v.v.p.X.X. . .( ! W O.O.O.O.O.W ! ( (  . . .X.X.p.p.p.v.S.S.K.K.^.^.E.R.R.R.E.E.E.E.!.!.!.~.!.~.0X0X~.~.6X6X6X6X8X8X~.~.0X8X8X8X8X0X8X8X8X8X8XwXwXwXwXiXiXuXiXiXuXuXwXwXwXwXwXwXwX8X~.E.E.E.^.L.L.S.S.S.UXp.p.p.UXS.v.S.S.S.S.S.K.K.K.P.^.E.E.E.~.~.~.~.8X8X0X~.~.~.~.~.!.T.E.E.R.R.R.R.P.P.P.P.K.K.K.K.K.K.K.K.M.M.M.M.M.M.c.c.l.l.c.c.M.M.M.M.M.M.M.M.N.M.M.M.N.m.m.m.m.m.M.M.N.N.m.m.m.m.C.C.C.C.I.C.C.C.C.C.C.C.V.V.V.V.V.B.C.C.C.I.Y.Y.Y.Y.Y.Y.T.T.T.4X4X4X4X4X4XT.Y.Z.C.V.b.b.x.x.g.g.g.",
"U.U.W.W.W.W.W.W.U.W.Q.U.U.I.B.V.B.B.n.n.z.z.k.k.k.k.k.c.c.c.l.k.l.k.l.l.l.c.c.c.c.c.c.c.c.c.c.c.c.c.c.c.c.M.n.m.B.P.P.R.R.!.!.!.~.~.7X!.!.!.W.W.W.T.U.P.m.n.z.k.u.u.} ] ] U ~ ~ ~ L K g f f s a a u 1 1 1 1 1 1 1 1 1 1 3 w 1 1 1 , , 1 1 1 1 1 1 1 , , , , , , , , , , , , , ; , , , , , , , , , , , , ; - - - - - - - ; ; - - ; ; ; ; , , , , , , , , , , 1 1 , , , , , , , , , , , ; , ; ; - - - , - + + + - - - - - - - - - - - - - - + + + - - o o - - - o o + + o O O o + - - + o O O O O o o O O O O O X O O                                                                                                                         1 /.<X;X1X<X<X-X%X#X%X%X%X%X%X%X*X*X*X*X*X*X*X*X*X*X@XXX%X*X@X@X%X%X@XXXoXoX#X@X@XXX@X@X@X@XXXXXXXOXoX`.'.r.0.2.=.@.D.2X=X*X%X*X*X*X=X$XXXoX{..XoXoXXXXXoXoX{.oXXXXX@X$X@X@X&X*X-X-X&X&XXX+XD.z k M z z z z n n n b b b b z z z z z z z n n n @.+.n n n n n n n +.n n m @.@.@.%.%.*.*.*.%.%.) S S S S %.*.*.*.*.*.@.*.*.&.&.*.*.&.=.=.=.&.&.&.&.=.=.=.=.=.>.,.>.2.3.0.3.4.4.4.2.,.>.2.2.2.2.>.;.;.;.;.*.*.;.5.*.%.m @.@.%.@.n n m m n S S m S S m S S m m m b b b b b b m m m m m m m m m m b b z M M l k k k l k l 0.=X:X=X3X3X2X2X2X2X2X2X2X2X2X<X-X-X-X-X-X-X-X-X-X.XD.'. XOX+X=X=X=X3X3X3X1X=X=X=X&X%X%X%X%X*X1X&X&X=X=X-X-X*X%X*X%X-X*X*X-X*X1XnXnXhX^.R.R.W.W.W.W.T.R.R.R.P.P.K.K.K.M.c.l.v.p.p...X. . .( ( W O.O.O.O.W W ! ( (  . . .X.X.p.p.p.v.S.S.K.K.L.^.E.R.R.R.E.E.E.E.!.!.!.!.!.!.0X0X~.~.6X6X6X6X8X8X~.~.0X8X8X8X8X8X8X8X8X8X8XwXwXwXwXiXiXdXdXiXuXuXwXwXwXwXwXwX8X~.E.E.E.^.L.L.L.S.S.S.S.UXp.v.UXS.p.S.S.S.S.S.K.K.L.P.^.E.E.E.~.~.~.~.8X8X0X~.~.~.~.!.!.T.T.E.R.R.R.R.P.P.P.K.K.K.K.K.K.K.M.K.M.M.M.c.M.c.c.c.c.c.M.M.M.M.M.M.M.M.M.N.N.M.M.M.M.m.m.m.m.m.N.N.N.N.M.m.m.m.m.C.C.C.C.C.C.C.C.C.C.C.n.n.n.n.m.B.C.C.C.C.C.C.C.C.Z.Z.Y.Y.T.T.4X4X4X4X4XT.T.Y.Z.V.N.b.b.x.j.j.f.",
"U.U.W.W.W.Q.Q.Q.W.W.W.U.U.U.Z.V.P.B.n.n.z.z.k.k.k.k.k.c.c.c.l.l.k.l.l.l.l.c.c.c.c.c.c.c.c.c.c.c.c.c.c.c.c.M.n.m.P.P.R.R.!.!.!.7X~.~.!.!.!.!.W.W.W.T.U.B.n.n.z.j.u.u.} ] Y ] U K K G f a u u 1 1 1 1 1 1 1 1 1 1 1 1 , 1 1 1 , - , 1 1 1 1 1 1 1 , , , 1 , , , , , - - - , , , ; , , - - , , , , 1 , , , - - - - , - - - - - ; ; - - - - ; ; ; - , ; , , , , 1 1 ; ; , , , , ; ; , , , , , , - - - , , - + o - , - - - - - - - - - - - - - - - - - + o o + - o o o - - - o o o o o o o o + O O O o o O O O O X X O X                                                                                                                     O   O G.nX1X;X<X<X<X*X#X%X%X%X%X%X%X%X%X%X%X*X*X*X*X*X*X%XXX%X*X*X%X%X*X@X#XXXXX#X@X@XXX@X@X@X@X@XXX+XOXoX`.'.r.0.2.>.@.q.2X-X*X*X*X*X*X=X$XOXoXoXoXoXoXoX|.{.{.{.oXXXXX@X@X$X&X*X=X-X=X&X&XXX+X{.b k z z z z b n b n n b b z z z z z z z z n n n @.@.+.@.@.@.n @.@.@.n n m @.@.@.@.*.*.*.*.*.5.5.*.%.) S S ) %.*.*.*.*.@.%.*.%.%.%.*.*.&.*.%.@.@.%.&.*.&.*.*.=.=.=.>.>.3.3.2.,.,.,.,.3.,.,.,.>.;.;.;.=.=.=.;.;.=.%.@.@.%.@.@.S S n n m m S S S S S m S m D m b b b b b b b b m m m m m m m m m b b z M l M k k l l 4 k :.OX3X3X3X3X3X3X2X2X2X2X2X2X<X-X=X*X*X-X-X-X-X-X1XOX0.'.|. X+X=X:X>X1X3X1X1X-X=X%X%X%X%X@X#X#X@X&X&X*X=X*X*X%X%X#X#X#XJ.oX*X=X*X1XnXnX^.P.R.T.W.T.W.T.T.R.I.P.P.K.K.K.K.K.l.v.p.p.p.X. . .( ( W O.O.O.W W W ( ( ( (  . .X.X...p.p.v.S.S.K.K.K.L.E.P.P.E.E.E.E.E.!.!.!.!.!.!.0X!.6X0X0X6X6X6X6X6X~.~.0X0X8X0X0X8X8X8X0X0X8XwXwXwXwXwXiXdXdXdXuXwXwXwXwXwXwX8X~.~.E.E.E.^.L.L.K.S.S.S.UXp.p.p.UXUXS.S.S.S.S.K.K.K.L.K.^.E.E.E.E.~.~.~.0X0X0X~.~.~.!.T.T.T.E.E.R.R.R.R.P.P.K.K.K.K.K.K.K.K.K.K.K.c.c.c.c.c.l.l.l.c.M.M.M.M.M.M.M.M.M.M.M.M.M.M.M.m.m.m.m.M.M.M.N.C.M.N.m.m.m.C.C.C.C.C.C.C.B.N.N.N.b.b.b.b.n.m.N.B.N.N.N.N.V.C.C.C.C.Y.Y.Y.T.W.4X4X4X4XY.Y.I.C.N.n.b.b.x.x.x.",
"I.U.Q.W.W.Q.Q.Q.W.W.W.U.U.U.I.B.P.B.n.n.z.z.z.k.z.k.k.k.k.l.l.l.k.l.l.c.l.l.c.c.c.c.c.c.c.c.c.c.c.c.c.c.c.M.n.m.P.P.U.R.W.!.!.!.~.~.!.!.7X!.6X!.T.Q.I.B.n.c.z.j.i.u.{ ] Y ] ~ K a a 1 1 r r u u 1 1 1 1 1 1 1 1 1 1 - - - - + - , 1 1 3 1 1 1 1 , , , 1 1 , , - - - - - ; , , ; , - - - - , , , 1 , , , - - - - - - o o o - - ; - - - - - , - - - , , , , , , , , , , , , , , , , , , - - - - - - , , - + + - - - + + + + + + - - - - - - - - - + + + + o o o o o - - - - o o O O O O O O O O O o O O X O X                                                                                                                             O O   X.1X;X;X<X<X<X-X%X*X*X*X%X%X%X*X*X%X*X*X*X*X*X*X*X&XXX%X-X-X*X*X-X%X@X@X@X@X@X@X@XXXXX#X@X@XXXXXXX|.`._._.0.2.>.@.2.3X-X*X-X*X*X*X&XXXOXOXXXXXoX{.{.'.{.D.{.oXXXXXXX@X&X&X*X=X*X*X@X$XXXOX|.b k z z z b z z b n n b b b z z z z z z z n n @.@.@.@.#.#.#.#.#.#.@.n n +.@.@.@.%.*.=.*.*.*.*.5.5.*.*.*.%.) S %.%.*.*.*.*.*.%.@.%.%.*.%.%.*.*.*.*.*.*.*.%.%.*.*.*.*.*.;.>.>.,.>.>.,.3.>.,.>.>.;.;.;.;.;.;.;.;.*.%.@.%.@.S S S n m m m m S S S S S m S b S m b b b b b b b b b m m m m m m m m b b z M l l k l l k 4 k -.|.:X:X3X3X2X3X2X2X2X2X2X2X<X-X=X=X-X-X-X<X<X2X3X+XD.'.oX X+X=X=X=X1X1X1X1X-X*X*X%X%X#XoXoXXXXX&X&X*X=X*X*X%X%X%X#X#XF.H.*X-X1X1XnXnX/.R.E.T.T.T.T.T.Y.U.I.P.P.K.K.K.K.c.l.v.p.p.p.X. . .( ( W O.O.O.W W W ( ( ( (  . .X.X...p.p.p.S.S.K.K.K.K.E.E.E.E.E.E.E.E.!.!.!.!.6X6X6X0X8X0X6X~.6X~.~.~.!.~.0X0X0X0X0X0X8X8X8X0X8XwXwXwXwXwXiXiXiXiXwXwXwXwXwXwXwX8X~.E.E.E.^.L.L.K.S.S.S.UXp.p.p.p.UXUXS.S.S.S.S.K.L.K.L.K.^.E.E.E.~.~.~.~.0X0X~.!.!.!.T.E.E.E.E.E.R.R.P.P.P.P.K.K.K.K.K.K.K.K.K.K.K.M.c.c.c.c.l.l.c.c.M.M.M.M.M.M.M.M.M.M.M.M.M.M.M.N.M.M.M.M.M.n.N.N.N.N.m.m.B.C.C.C.C.C.C.B.N.n.b.b.b.b.b.b.b.b.n.n.b.b.b.b.n.n.V.V.C.C.C.Z.Y.Y.Y.W.4XW.Y.Y.I.C.m.n.n.b.b.b.b.",
"I.U.W.W.W.W.Q.W.W.W.Q.U.U.U.I.B.B.B.n.n.z.z.z.z.k.k.k.k.z.k.l.l.k.l.l.c.l.l.c.c.c.c.c.c.c.c.c.M.c.c.c.c.c.M.n.V.P.P.U.Q.T.!.!.!.!.~.7X7X7X7X7X!.W.T.U.B.V.n.z.j.u.} { ] Y L G f a a 1 r 1 1 1 1 9 1 1 1 1 1 1 1 1 , - + + + + - 1 1 1 1 1 1 1 , , , , , , , , - , , , , - - , , , , , - - , , , , , , , , - - - - + o o + - - - - + - - - , - - , , , , , , , , , , , , , , , , , , , , - - - - , , - - - - , , - + o + + o o - o - - + - , , - o - , - o o o o o o o + + o o o O O O O O O O O O O                                                                                                                                           g /.;X1X<X<X<X-X%X*X*X*X%X%X%X%X*X*X*X*X*X*X*X*X*X%XoX@X-X-X*X*X-X*X%X%X@X@X@X@X@X@X@XXX#XXXXXXXoX|.|.'._.0.2.>.%.:.>X=X*X*X*X*X@XoXXXXXOXXXoX{.F.{.{.{.{.{.oXXXXXoXXX@X&X*X=X*X*X@X@XXXOX|.b k z z z z z z n n n b z z z z z z z z z z n @.@.@.@.#.&.&.&.&.&.#.#.+.@.@.@.@.@.&.&.*.*.=.5.5.5.4.4.5.*.*.%.%.S ) %.*.*.*.%.%.%.%.%.S %.%.*.*.%.%.%.*.%.@.@.%.%.%.@.@.%.&.>.>.>.>.>.>.>.>.;.;.;.;.;.;.&.*.*.%.@.@.@.S S S m m m S S S S S S S m S m m m b b b b b l v b b b m m m m m n n m m m b z M l k k k k b %.0.|.$X=X=X3X2X2X2X2X2X2X2X2X1X-X-X-X-X<X<X<X2X2X2X=X'.|.OXOX=X=X=X=X=X1X2X1X-X*X*X%X@XXXH.oX@X&X&X&X*X=X*X*X%X%X%XoXXXH.oX*X*X1X1X<XnX/.^.!.Y.4XY.4XY.Y.U.I.R.P.K.M.K.M.l.l.l.p.p.p... . .( ! ! W O.O.O.O.W ( ( ( (  . .X.X...p.p.p.v.S.S.K.K.K.L.^.^.E.R.R.E.E.E.E.E.E.!.!.~.!.~.~.~.~.!.!.!.!.E.!.!.!.~.~.~.~.8X8X8X8X8X8XwXwXwXwXwXwXuXwXwXwXwXwXwXwX8X8X~.E.E.E.^.L.L.K.S.S.S.v.p.p.p.p.UXS.S.S.S.S.S.K.L.L.L.K.^.E.E.E.E.E.E.~.0X0X~.!.!.!.T.E.R.R.R.R.R.R.P.P.P.K.K.K.K.K.M.M.M.c.M.K.K.M.M.c.c.c.c.c.c.c.M.M.M.M.M.M.M.M.M.M.M.M.M.M.M.M.M.M.N.N.M.M.N.N.N.N.m.m.B.C.C.C.m.N.N.m.n.b.b.x.b.b.x.k.k.k.x.z.x.x.x.x.b.b.b.b.N.n.V.C.Z.U.Y.Y.W.T.Y.Y.U.I.B.m.V.n.b.b.b.",
"I.U.U.W.W.W.W.W.U.U.U.U.U.U.I.B.V.m.M.b.c.z.k.k.k.k.k.k.z.z.l.k.l.l.c.c.l.l.c.c.c.c.c.c.c.c.c.c.c.c.c.c.c.M.n.V.P.P.R.R.!.!.!.!.!.8X7X7X7X7X7X7XW.W.U.P.V.n.z.x.s.} { | _ G a u a j j a a a u 1 1 1 1 1 1 1 1 1 1 , , , , + + - , 1 1 1 1 1 1 , , , , , - , - , , , , , - - - , 1 , , - - - , , + - , , , - + o + + + - - - + o - + + - - , - - , , , , , , , , , , , , , , , , - - - - - - - - - + + - , , , , - o o + + o o - o + + o o - - - o - , , o o o o o o O O o o o O O O O O O O     X                                                                                                                                           O - /.;X<XnX<X-X-X*X%X%X%X%X%X%X%X%X*X*X*X*X*X*X-X-X@XH.XX-X-X%X%X-X-X*X%X%X@X@X%X%X*X&X@X@X@X@XXXOX|.|.'._.0.3.>.&.%.=X=X*X*X%X%XoXoXoXOXXX{.{.D.F.{.{.{.{.oXXXXXoXoXXX@X&X*X=X*X*X@X&X$X$XOXb M z z z z z z n n n n z z z n n n n z z z n @.@.@.#.#.$.=.=.=.&.&.&.&.&.&.&.&.&.@.+.*.&.=.5.5.5.5.5.5.*.*.*.*.%.S %.m m S %.*.*.*.%.%.%.@.m m m ) %.%.%.@.@.%.%.%.m @.@.@.#.*.&.=.>.,.>.>.=.;.>.;.;.>.=.*.%.@.S n S m m m m m m S S S m m S m S S m D b b b b b b v l v b b m m m n m n S n m m b z l l l k 4 b D.&X+XOX$X3X3X3X2X2X2X2X2X2X2X1X1X1X=X=X-X-X-X-X-X<X2X:X'.|.OXXX&X=X=X=X=X3X2X<X-X%X#X#X%X#XXX@X%X*X&X*X=X*X*X*X%X%X%XH.H.#X-X1X*X%X*X1X1X/.^.!.U.4X4X4XY.Y.U.I.R.R.P.m.K.K.l.l.l.p.p.p.X. . .( ! ! W O.O.O.O.W ! ( ( (  . .X.X...p.p.p.v.S.S.K.K.K.K.L.^.E.E.E.E.E.E.E.E.E.E.!.E.E.!.!.~.~.!.!.!.!.E.E.!.!.~.~.~.~.~.8X8X8X8X8X8XwXwXwXwXwXwXwXwXwX8X8X8X8X8X~.~.~.E.E.^.L.L.K.S.S.S.UXp.p.p.p.UXS.p.S.S.S.S.S.K.L.L.L.P.R.E.E.E.E.E.E.!.!.!.E.E.E.T.E.R.R.R.R.R.R.P.P.P.K.K.K.K.M.M.M.c.l.c.M.M.c.M.M.c.c.c.c.c.M.M.M.M.M.M.M.b.M.M.M.M.M.M.M.M.M.M.N.m.m.N.N.N.N.N.N.N.N.m.B.m.m.M.m.n.b.b.b.z.x.k.k.j.j.j.j.j.j.f.g.g.f.f.x.x.b.b.n.n.V.C.Z.U.Y.Y.Y.Y.Y.Y.I.C.B.V.V.b.b.b.",
"I.I.U.W.W.W.W.W.U.U.U.U.I.I.B.B.B.V.n.n.z.z.z.k.k.k.k.k.k.z.k.k.h.k.c.c.c.l.c.c.c.c.c.c.c.c.c.c.c.c.c.c.c.M.V.V.P.P.I.U.R.!.!.!.8X8X!.!.7X7X6X!.U.!.Q.B.P.B.z.h.u.h.} U G p a a a j a j j r 1 1 1 1 1 1 1 1 1 1 1 1 1 - - - - - o o , 1 1 1 , , 1 , , , 1 , - , , , - - - , - o - - - , , - o o + 2 , , , , - o o o o + + - - - - - - - - - - - , , , - - , , - , , , , , , , 1 , , - + - - - - , - - - + o + - - - - + o o o o - - - + o o o o o o o O O O o O O O O O X X X O X X X           X X                                                                                                                                       O O O 8.<X1X;XnX<X-X%X*X%X%X%X-X-X*X*X-X*X%X%X-X-X-X-X*XF.oX<X-X*X-X%X%X*X*X*X*X%X*X*X%X%X%X%X@X@XXXXX|.|.`.'.e.3.>.;.%.|.2X-X*X*X@X&X.XoXoX'.{.{.{.{.{.{.{.oXXXXXoXoX{.oX@X*X=X=X*X*X*XXX$X+X].b k m k z b z z n z z z z n n n z z z z n n n n @.@.#.#.&.&.=.=.=.=.=.=.=.&.&.&.#.&.*.=.=.=.=.=.5.5.5.5.*.*.*.*.*.*.*.S m m S S %.%.*.*.S S S ) S S m m m m m m S %.%.) ) ) m m @.@.*.%.*.*.&.&.&.=.;.*.*.%.%.@.S m m b m S S m m D m D m m m m S S S S m b b b b v v b b b b m S S m m @.n m S m M M l l k l %.'.+X+X>X3X3X2X2X2X2XmXmX2X2X2X2X1X-X-X=X-X-X-X-X%X-X-X3X3X'.|.|.+X=X=X=X=X1X1X1X1X<X<X%X%XXXH.oX@X%X%X*X*X*X*X*X%X%X%X%XXXF.%X%X*X1X*X1X;X/.(.E.R.T.Y.4X4XT.T.U.I.I.I.P.K.m.M.M.l.l.v.p.p.p.X. .o.o.! W W O.O.O.W W W ( o. . . .X.X.p.p.p.v.S.S.S.K.K.K.K.^.E.E.E.R.R.E.E.E.E.E.E.E.E.R.E.E.E.!.!.0X0X!.!.!.!.!.!.!.!.~.~.0X~.0X8X8XwXwXwXwXwXwXwXwXwX8X8X8X8X8X~.~.~.E.E.^.^.L.K.S.S.S.S.UXp.p.p.p.UXp.S.S.S.S.S.K.L.L.^.E.E.E.E.E.E.E.E.~.~.~.~.E.E.E.R.R.P.I.R.R.R.P.K.K.K.K.K.K.K.K.M.M.c.c.c.K.M.c.M.M.c.c.c.c.M.c.M.M.M.M.b.M.M.M.M.M.M.M.M.N.N.M.N.N.N.N.M.N.N.N.m.C.C.C.C.N.N.n.n.b.b.b.b.k.k.f.f.g.f.s.d.d.d.u.d.d.s.g.g.f.f.x.b.n.V.V.C.Z.Y.Y.Y.Y.Y.Z.Z.Z.Z.B.V.V.n.b.",
"I.U.U.W.W.W.W.U.W.Q.U.U.U.I.B.B.B.B.n.n.z.x.k.k.k.k.k.z.k.z.k.k.k.l.c.c.l.l.c.c.c.c.c.c.c.c.c.c.c.M.c.c.c.M.V.V.P.P.I.R.R.!.!.!.8X8X!.!.7X7X6X!.!.W.U.P.P.n.c.z.h.p.] G u p h a a a a j j j j r r 1 1 1 1 1 1 1 1 1 1 1 , - + o o o o , 1 1 , , 1 1 , 1 1 , , , , - - - - , , , - - - , - - + o + , , , , - - o + + + + - - - - - - - - - - - - - ; , - - , , - , , , , , , , 1 , - - - - - , - , , - - - o + + - - + o o o o o o o o o o o o O o o o O O O O O X X X X   X       X             X                                                                                                                                                .;X;X;XmX<X-X-X*X%X%X-X-X-X-X-X-X*X%X-X-X-X-X-X%X.XXX-X-X*X-X%X@X%X%X%X%X%X%X%X%X@X@X%X@X@XXXXXOX|.`.'.e.3.>.&.S D.2X-X*X-X*X*XoXoX'.D.D.D.oXoX{.{.{.{.{.{.{.oX.XoX@X&X=X=X*X*X*X@X&X+X|.S k M M z z z z z z n z n n n z z z z z n n n n @.@.#.#.&.&.=.=.=.>.>.>.>.>.=.&.&.&.&.&.&.&.=.=.5.5.5.5.5.5.5.5.5.5.5.*.*.*.*.*.*.*.*.*.%.S ) S S S S m m m m m m m b b b m m m m n n n @.@.%.%.%.*.*.*.*.%.@.S m m b b m m m m S S D m S S m m S S S S m b b b b b v b b b b m S S S n m m m m m b z l l v :.OX&X+X3X3X2X2X2X2X2X2XmXmX2X2X2X2X1X-X-X-X=X*X%X#X#X%X*X-X=X'.|.OX+X=X=X=X=X=X1X1X1X1X1X<X*XXXJ.F.H.XX*X@X%X*X*X*X%X%X%X#X%X#X*X%X*X*X%XH.1X/.(.E.E.T.U.U.U.R.R.R.R.R.R.K.K.K.M.M.c.l.l.p.p.p.X. .o.o.! W W W W W W W W ! ! o. . .X.X.p.p.p.S.S.S.S.K.K.K.K.K.K.P.P.P.^.R.R.E.E.E.E.E.E.E.E.E.E.E.E.E.E.E.E.E.E.!.!.!.!.~.~.~.~.~.0X8XwXwXwXwXwXwXwXwXwX8X8X8X0X~.~.E.E.E.E.E.^.L.K.S.S.S.S.UXp.p.p.v.v.p.S.S.S.S.S.K.K.L.L.^.^.E.E.E.E.E.E.E.!.!.E.E.E.E.R.R.P.P.I.I.P.K.K.K.K.K.K.K.K.M.M.c.c.c.c.c.c.c.c.c.c.c.l.c.c.c.M.M.M.M.M.M.M.M.M.M.M.M.M.M.M.M.M.N.N.M.M.N.N.N.m.C.C.C.C.N.m.n.b.b.b.b.k.j.f.f.d.u.u.u.i.i.} { { { i.i.i.d.g.f.x.b.n.V.V.C.Z.Z.Y.Y.Y.U.Z.Z.I.Z.B.V.V.n.",
"U.U.Q.W.W.W.Q.U.W.W.U.U.U.I.B.B.B.V.n.n.z.x.k.k.z.k.k.z.z.z.c.l.l.l.c.c.l.l.c.c.c.c.c.c.c.c.c.c.c.M.c.c.c.M.m.m.P.P.I.R.W.!.!.!.8X~.!.!.7X7X6X!.!.Q.Q.R.P.c.c.c.h.o.f a u u a h h a a j j j a a j j j j 1 1 1 1 1 1 1 1 , , + o O     O - , , , 1 1 1 1 1 , - , - - , - - , , , - - - - - o - & , , , , 2 2 + + , - - - - o - - - - - - - - - - o - - - - - - + - , , , , , 1 1 , , - - , , , , , , - - + + + + + + o o o o o o o o o o O O O O o o o O O O O O                                                                                                                                                                                 E 1X1X1X<X;X<X<X*X%X%X-X-X-X-X-X-X-X-X-X1X<X1X-X%X@X@X-X-X*X-X%X#X%X%X%X%X%X%X%X%X%X@X%X%X@XXXXXXXoX`.'.0.3.>.;.S q.>X>X-X-X@X@XoXoX.X'.{..XoX.X{..XoXoXoX{.{.{.oXXX@X&X*X*X*X*X*X&X=XXX].;.m M M M z z z z z z z z n n n n z z z n n n n @.@.#.#.&.&.=.>.=.>.,.>.,.,.>.>.>.>.>.>.=.&.=.=.=.5.5.*.5.5.5.5.5.5.5.*.*.*.5.5.5.*.*.*.%.*.*.*.%.*.*.S m m m m m m b v M M b m m m m m m m n n n @.S @.S S n S m m m m m m m S S S b m S S S S S S S S m b m b b b b b b b b m S S S m m m m b b b b l v 2.=X:X:X2X3X2X2X2X2X2X2X2X2X2XmX2X2X2X<X-X=X=X=X*X*X%X%X%X%X&X+XD..XOXOX+X=X=XXX$X=X1X1X-X1X<X-X%X#X#XoX@X*X@X@X*X*X%X#X#X#XXX%X%X%X#X*X&X%X%X/...X.v.l.M.K.R.R.E.E.R.P.P.K.P.K.K.K.K.l.l.v.v.p.p.X.X. . .o.! ( ! W W ! ! ! ! ( o. . .X...p.p.p.S.S.S.S.K.K.K.K.K.K.K.K.K.^.P.P.R.R.R.E.E.E.E.E.E.E.R.R.R.R.E.E.E.E.E.E.!.!.!.!.!.!.~.0X8X8X9XwX9X9XwXwXwXwX8X8X8X8X8X~.E.E.E.E.^.^.L.K.S.S.S.S.p.p.p.p.p.v.p.S.S.S.S.S.S.K.L.K.K.L.^.E.E.E.E.E.E.E.E.E.E.R.E.R.R.P.P.P.K.K.K.K.K.M.M.c.M.M.c.c.c.c.c.c.l.l.c.c.c.c.c.c.c.c.c.M.M.M.M.M.M.M.M.M.M.M.M.M.M.M.n.M.M.M.M.M.N.N.N.m.m.m.B.N.N.N.n.b.b.b.k.j.f.g.d.u.i.{ { [ [ [ ] ] T [ { { i.d.g.j.b.b.n.V.V.V.Z.Z.Y.Y.U.Z.Z.Z.Z.C.V.V.n.",
"U.U.Q.W.W.W.W.U.W.U.U.U.I.B.V.V.n.n.n.b.z.z.c.c.c.z.k.c.z.c.c.l.l.l.l.l.l.c.c.c.c.c.c.c.c.c.c.c.M.M.c.c.c.n.M.M.P.P.I.R.T.!.!.!.8X~.!.!.7X7X!.!.!.R.W.R.P.K.c.l.o.G u p f a a h h h a a j j a a a a j j j 1 1 1 1 1 1 , , - + + O       o o - , 1 1 1 , , , - - & - , , & o , , - - - - - - - - , , , 2 2 + + + - - + + o o o o - - - - - - - - o + - - - - - + - - , , , , , , , , , , , , , - - + + o o o + + o o o o o o o o o o O O O O O O O o o O O O O O   X X                                                                                                                                                                           h <X1X1X<X-X<X<X-X-X-X-X-X-X-X-X-X-X-X-X<X<X-X-X%X*X%X*X<X-X;X%X%X%X%X%X@X@X%X%X*X%X%X%X@X@XXXXXXXoX`._.e.3.2.>.S 2.>X>X-X*X@XXXXXXXXXoXXXoX{.D.{.{.{..X{.{.{.{.oXXX@X&X*X*X*X*X*X&X=XoX{.0.;.@.M M z z M z z z z n n n n n z z n n n n n n @.@.#.&.&.=.>.=.>.>.>.,.2.3.3.3.3.3.3.,.>.=.>.=.5.5.5.5.5.5.*.*.*.*.*.*.*.*.5.5.*.*.*.*.*.5.5.*.*.*.*.) ) %.*.) ) ) ) S m m m m b z b z z z z M M M M M M M z z b b b b b m S S S m S S S S S S S S m b b m m m b b b b m m m m S S m m m m m b b l v 9.=X&X>X3X>X2X2X2X2X2X2X2X2X2X2X2X2X2X2X<X-X-X=X=X=X-X-X-X*X*X&X.XD.|.OXXX+X&X=XXXXX@X*X-X*X*X;X*X1X1X*X%X@X&X%X&X*X*X%X#X#X#XXXXX%X#X%X*XXX%X;X1.h h K P U | | } p.v.l.l.K.K.K.K.K.K.K.S.l.v.v.p.p.X.X. . .o.o.! ! ! ! ! ! ! ( o.o. . .X.X.p.p.p.p.S.S.S.S.K.K.K.K.K.K.K.L.^.K.P.P.P.R.R.R.R.E.E.E.E.R.R.R.R.E.E.E.E.E.E.!.!.!.!.!.!.!.!.0X8X8X8X9X9X9X9XwXwX8X8X8X8X8X~.E.E.E.E.E.^.L.K.K.S.S.S.v.v.p.p.p.p.p.S.S.S.S.S.K.K.L.L.K.K.^.E.E.E.E.E.E.E.E.E.E.P.R.P.P.P.K.K.K.K.K.K.K.M.c.c.M.M.c.c.c.c.K.c.l.l.c.c.c.c.c.c.c.c.c.c.M.M.M.M.M.M.M.M.M.M.M.M.M.M.M.M.M.M.M.M.N.N.N.m.m.m.B.N.N.N.n.b.b.x.k.f.s.d.u.i.{ [ [ Y Y Y Y Y Y Y T [ { u.d.f.j.b.b.n.n.n.B.C.U.U.Z.Z.Z.Z.C.B.V.n.n.",
"I.U.U.Q.W.W.W.W.W.U.U.U.I.B.V.V.n.n.n.b.z.z.c.c.c.c.z.z.k.k.l.c.c.c.l.l.l.c.c.c.c.c.c.c.c.c.c.c.M.M.M.c.c.n.m.M.P.P.I.R.W.!.!.!.!.!.!.7X7X7X!.!.8X!.R.P.K.P.c.| p f a a h f h u a a a a j j j j a a j r r 1 1 1 1 1 < , , 2 o o o X     O o o - , 1 1 , , , - - 2 , , , o o , , , , 2 2 2 2 , , , , 2 + o o o o o o o o + + o - o o o o o o o o o o - - - - + - + 2 , , 1 , , , , , + + o + o o o o o o o o o o o o o o o o o o o o O o o o O O o o o O X O O X X X X X X X X X         X X                                                                                                                                                     1 ;X;X1X-X<XmXmX<X1X1X<X<X1X-X1X-X-X-X1X<X-X-X*X*X-X%X*X<X-X;X;X;X%X%X@X@X@X@X@X%X@X%X%X%X@X@XXX+XOX|.'.e.q.2.>.S :.&X>X-X*X*X%X@XXXoX|.{.{.{.D.D.D.G.G.D.{.oXXXXXXX@X&X*X*X*X*X*X&X&XoX'.D.0.2.S z M z z z n z z n n n n n z z z n n n n S @.#.#.&.&.;.>.>.>.>.>.,.2.3.4.4.3.3.3.3.3.2.,.2.>.5.>.>.5.5.*.*.*.*.5.*.*.*.*.5.*.5.*.*.5.5.5.5.*.*.5.*.*.5.*.*.*.*.*.*.*.%.S m b b b b b b b M k k k k l l M M l l l l l b m S S S S S S S S S S S b b b b m m m m m m m m m m n m S S m m S b l v 9.=X>X&X3X2X>X2X2X2X2X2X2X2X2X2X2X2X2X2X2X1X-X=X=X=X&X%X%X%X%X*X=X|.D.|.+X+X+X&X+X&XXX.XXX*X1X;X;X;X;X*X%XoXXX%X*X*X%X*X%X#X#X#XXXH.%X%X*X@XJ.%XF.c 1 1 a u u s p f G K ~ ! o.| X...p.v.v.v.v.v.p.p.p.....X. . .( ( ( ! ! ! ! ! o.o.o. . .X.X.X.p.p.p.v.l.l.S.S.K.K.K.K.K.K.L.L.P.P.P.P.K.P.P.P.^.^.E.E.E.E.E.E.R.R.R.E.E.E.E.!.!.!.!.!.E.!.~.0X8X8X9X9X9X8X8X8X8X8X8X~.~.~.~.E.E.E.E.^.^.K.K.S.S.S.v.v.p.p.p.p.p.S.S.S.S.S.S.K.K.K.K.K.^.^.^.^.^.^.E.E.E.^.K.K.P.K.K.K.K.K.K.K.K.M.M.M.c.c.M.M.l.c.c.K.K.c.l.l.c.c.l.l.l.c.c.c.c.c.M.M.M.M.M.M.M.M.M.M.M.M.n.M.M.N.N.N.M.M.N.N.N.N.N.B.C.N.N.N.n.b.b.x.k.f.d.u.i.{ [ T Y L L P P P P L L Y ] { i.d.g.k.z.b.b.b.V.V.C.C.B.B.V.B.C.V.V.n.b.",
"I.I.U.W.W.W.W.W.W.W.Q.U.U.I.B.B.V.m.n.n.z.z.c.z.c.c.c.c.k.k.l.c.l.l.l.l.l.c.c.c.c.c.c.c.c.c.c.c.M.M.M.c.c.n.V.m.P.P.U.Q.W.!.!.!.!.!.7X8X7X7X!.!.!.!.R.R.E.P.} G u h f a a h h a a a a a a a j r a a j j r r 1 1 < 1 1 1 < , o o o O       O o o , , 1 , , , , - , , , 2 o o o o , 2 2 o o o & , 2 2 + o o o o o o o o o o o - - o o + - - - - - o + - , - + - , o + 2 , , , 2 o o o o o o o o O o o o o o o o o o o o o o o O O o o o o o o o o o o o X X O O X X X X X X X X X         X X                                                                                                                                                     , /.;X;X-X<XmXmX<X-X1X<X<X<X<X<X-X-X-X1X-X-X-X%X-X-X%X*X<X-X-X-X%X%X%X#X@XXXXXXX@X@X@X@X%X&X&X&X&XOXOX`._.q.2.>.%.*.+X=X-X*X*X*X@XXXoX|.{.'.{.{.D.D.D.F.{.oXoX{.oXXX@X*X*X*X*X*X&X@X&XXX'.'.'.0.2.S k M z z z z z z n n n n n z z n n n n @.@.#.%.&.&.;.>.>.>.;.2.2.2.2.4.4.4.4.4.0.0.0.0.3.4.>.4.>.5.5.5.5.*.*.5.*.*.*.*.*.5.5.5.5.5.5.5.5.5.*.5.5.5.5.*.*.5.*.) *.*.*.%.) m S S m m m m b b b m m m m m m b b v z l l z b m b m m m S S S S m b b b m m m b m m m m m m m m m n m m m b l b 2.>X+X>X2X=X2XMX3X2X2X2X2X2X2XmX2XmX2X2X2X-X-X=X=X=X&X&X@X#XoX.XoX=XD.'.|.+X+X&X&X$X+XXXD.J.%X*X%XH.%X%X#XH.H.XX%X%X@X@X%X%X#X#X#X#XH.#X%X@XH..XH.^ 3 a w a a a 1 w w a a a a a a g K K E ~ ! ! o. . . . . . . . . .( ( ( ( (  . . . . . . .X.X.X...p.p.S.v.l.S.S.S.K.K.K.K.K.K.K.K.K.K.K.K.K.K.P.P.P.^.P.P.P.P.R.R.R.R.R.E.E.E.E.E.!.!.!.E.E.~.~.0X0X0X8X8X8X8X8X8X8X8X~.~.~.~.~.6XE.E.E.^.K.K.K.S.S.S.v.v.p.p.v.v.S.S.S.S.S.S.K.K.K.K.K.K.^.L.L.P.P.L.L.P.K.K.K.K.K.K.K.K.K.K.K.M.M.M.c.c.c.c.c.c.c.c.K.K.c.c.c.c.c.l.l.c.c.c.c.c.c.M.M.M.M.M.M.M.M.M.M.M.M.n.n.N.N.m.m.N.M.N.N.N.N.B.C.C.C.N.N.n.b.b.x.k.f.d.u.{ { T Y L P J J R R R J P L Y T { i.d.f.x.z.b.b.b.n.V.V.V.V.V.V.B.V.n.b.z.",
"I.I.U.Q.Q.W.U.U.Q.Q.W.U.U.I.Z.B.B.V.n.n.z.c.c.c.c.c.c.c.k.k.l.c.l.l.l.l.c.c.c.c.c.c.c.c.c.c.c.c.c.c.M.M.M.m.V.V.P.P.U.Q.!.!.!.7X7X7X7X7X7X7X!.!.!.E.E.E.P.} J u a a a h h a a f a a a a a a a a a a j j r r r r 1 1 1 1 < < , 2 o o O X     O o o - , - - , , - , 2 o o , , , , , 2 2 o o 2 2 , o o o o o o o o o o o o o + - - o - - - - - - - - o - - - o o , o o o + 2 + o o o o o o o o O O o o o o o o o o o o o o o o O X o o o O O O o o O o O X X X X   X X X X                                                                                                                                                                         + (.<X;X;X<XmX<X-X-X-X-X-X-X-X<X<X-X-X-X-X-X-X*X2X-X%X*X<X-X-X-X%X%X%X@X@X@X@X@X@X@X@X@X%X&X&X&X&X+XOX`._.0.3.>.%.%.+X=X-X*X*X%XXXoXXXXXXX|.{.{.{.oXoXXXXXoX{.'.oXXX@X*X*X*X*X*X%X%XXXXX'.'.'._._.;.b M z z z z z n n n n n n z z n n n n @.@.#.%.&.*.&.;.;.>.;.2.2.2.2.2.4.4.4.q.q.0.0.).e.3.3.4.4.4.2.2.5.;.;.5.5.*.*.*.*.5.5.5.*.*.*.5.5.5.5.5.5.5.*.*.*.*.*.*.*.*.%.m m m m ) S m m m m S %.%.) S S S S S S S b z l M z b z b b b m m m m b b m b m S m m m m m m m m m m m m m m b M D 9.=X=X3X3X=X2X2X2X2X2X2X2X2XmX2X2X2X2X2X2X2X1X=X*X&X+X+X&X%X@XoXoXoXXX0.|.|.XX$X&X$X+X&XXXD.D.H.%X%XH.#X%X#XH.#X@X%X%XXXoX#X%X#XXXH.H.H.#XXX.XH.J.1.3 - 3 1 1 w 3 3 w w w w w w a a 1 1 w w a a h h g g g c E E W W ! ! ! ! ! o.( (  . . . .X.X.X.....p.p.v.v.S.l.l.l.c.K.K.K.K.K.K.K.K.K.K.K.K.K.K.K.P.P.P.P.P.P.P.R.R.R.R.R.R.E.E.E.E.!.!.E.E.!.~.0X0X0X0X8X8X8X8X8X8X8X~.~.~.~.~.6XE.E.E.E.^.K.K.S.S.S.l.v.v.v.v.S.S.S.S.S.S.S.K.K.K.K.K.K.K.K.K.K.K.K.K.K.K.K.K.K.K.K.K.K.K.K.K.M.M.c.c.c.c.c.c.c.c.c.c.c.c.c.c.c.c.l.l.c.c.c.c.c.c.l.c.M.M.M.M.M.M.M.M.M.M.M.M.N.m.m.m.N.N.N.N.N.N.C.C.C.C.N.N.n.b.z.k.k.f.d.u.{ [ T L P P R p p p f R J P L Y { i.u.d.g.f.x.x.z.b.b.b.n.n.V.V.V.m.n.b.z.",
"I.U.U.Q.W.Q.U.U.U.U.U.U.U.I.P.B.V.n.n.n.z.z.c.c.c.c.c.c.k.k.z.c.c.l.l.c.c.c.c.c.c.c.c.c.c.c.c.c.c.M.M.M.M.m.V.P.P.P.U.Q.!.!.!.7X7X7X7X7X7X7X!.!.8XW.R.R.v.G y a h h h a h h h a a a a a a a a a a a j j r r r r r 1 1 < < < < 1 o o o O   .   o o o o o o - , o , 2 o o , < , , , 2 o o o 2 , , o o o o o o o o o o o o + - - - + + o o + - - - - + - - o o o , o o o o o o o o + o o o o o o O o o o o o o o o o o o o o o o X o O O O X O O o O O O     X X                                                                                                                                                                             X       S.<X;X-XmXmX2X<X-X-X-X-X-X-X<X<X<X-X-X-X-X-X-XmX-X%X-X<X-X-X-X*X%X%X%X*X*X*X%X%X%X@X@X%X%X&X@X&X+XOX X_.e.3.2.*.%.XX=X-X*X*X%XXXXXoXoXoX{.{..X{..X.X{.D.{.oXoXoXoX@X&X*X*X*X&X&X&XXX.X{.'.'.`._.e.&.z M z z z z n n n n n n z n n n n n S @.@.@.*.%.*.=.;.;.>.2.2.2.2.2.4.4.q.0.q.4.0.e.0.0.0.0.4.4.4.4.4.2.4.>.5.5.>.5.*.*.5.*.*.*.5.5.5.5.5.*.*.5.*.*.*.5.*.*.*.*.%.%.%.%.%.S ) %.%.%.%.%.%.%.%.%.@.S S S S S S b b b b b b l z b b b b b b b b b D S S S S S m m m m m m m m b m b b 2.:X&X=X2X3X3X2X2X2XmX2X2X2X2X2X2X2X2X1X1X2X2X3X-X*X&XXXXXXXXXXXXX%X*XF.9..X|.XX$X&X+X+X+XXXJ.D.H.#X%X%X;X%XH.F..X@X@X@XXXoXoX#XXXH.H.G.J.%X%X%X#X9.e + e 3 3 3 3 1 w 3 3 3 w w w w w 3 w w w 3 1 3 1 j j a a a a h g g g G C E W W Q ( ( o. .X.X.X.....p.p.p.v.v.l.l.S.S.S.K.K.K.K.K.K.K.K.K.L.K.K.K.K.K.P.P.P.P.R.R.R.R.R.R.R.R.R.R.E.E.!.!.!.E.!.~.0X0X8X0X8X8X8X8X0X0X8X8X8X8X~.~.6XE.E.E.E.^.K.L.K.S.l.S.S.v.v.l.v.S.S.S.S.S.S.K.K.K.K.K.K.K.K.K.K.K.K.K.K.K.K.K.K.K.K.K.K.K.K.M.K.M.M.c.c.c.c.c.c.c.c.c.c.c.c.c.c.l.l.l.l.c.c.c.c.c.l.l.b.M.M.M.M.M.M.M.M.m.m.m.m.m.m.N.N.M.N.N.V.B.C.C.C.C.C.N.n.b.x.j.f.g.d.i.{ [ Y L P J H p p i p p R J P U T [ { i.u.d.s.g.j.x.x.z.b.b.n.V.n.n.b.z.z.",
"Z.U.Q.Q.Q.Q.U.U.U.Q.U.U.U.I.B.B.V.n.n.n.n.n.z.z.z.c.z.z.c.z.z.c.c.c.c.c.c.c.M.M.c.c.c.c.c.c.M.M.K.M.M.M.M.M.P.P.P.P.P.R.R.!.!.8X~.~.~.!.!.!.7X!.!.E.E.^.K t a a h a a h a a a a a a u u u u a a j j r r r r r 1 1 1 1 1 1 1 , o o o & + O     X   X o o o o o o , , , , , o o , , , 2 , , o o , , o o o o o o o o o o o o o o o o o & - - o o & o o o o o o o o o o o o o o o o o o o o o o o o o o o o o O X X o o o o O O O O o o o o o O O O X X X X X                                                                                                                                                                                   .     S.;X;X<X<XmXmX<X-X-X-X-X-X-X-XmX<X-X-X-X;X<XnXmX-X%X-X<X<X-X-X%X%X%X=X*X*X%X@X@X@X%X%X&X&X&X&X&XXXOXOX`.e.3.2./ :.oX2X=X*X*X&XXXXXoXoXoXoXoXoX.X{.{.{.oXoXoX.X.XoXXX@X&X&X&X&X&X$XXX{.{.{.|.`.'.'.0.%.M z z z z n n n n n n n n n n n n @.@.@.&.&.&.&.&.;.;.;.>.2.2.2.4.q.4.2.4.q.0.0.0.0.0.0.0.0.0.0.0.4.3.4.4.4.2.2.>.>.5.;.5.5.5.5.<.4.5.5.5.*.*.*.*.*.*.*.%.*.*.*.%.%.%.*.%.*.*.*.%.%.%.%.%.%.%.@.@.%.@.@.S S m b b b b b b z z b b b b m m m S m m m S S m S S m m S S m m m b l 2.:X=X=X3X2X2X2X2X2X2X2X2XmXmX2X2X2X2X3X1X=X=X=X=X1X=X=X&X%X%X%XH.H.%XXXD.D.|..XoXOXOXXX+XoX|.9.G.oXH.oX#X#X#XJ.F.H.XX%X@XoXXXXXXXXXH.9.G.#XXXH.*XF.d 3 3 3 3 3 3 3 3 3 w w w w w w w w w w w w 3 w 3 3 3 3 w w 3 3 3 w h h h h g g c c E E Q ! (  . .X.X.X.X.p.p.p.v.S.S.S.S.S.K.K.K.K.K.K.K.K.K.K.K.P.P.^.^.P.P.P.^.R.R.R.R.R.R.R.E.E.E.E.E.T.!.!.!.~.~.8X8X8X8X8X8X8X0X0X0X0X0X0X!.!.~.~.E.E.^.K.K.K.K.K.S.S.S.S.S.S.S.S.S.S.S.K.K.K.K.K.K.L.K.K.K.K.K.K.K.K.K.K.K.K.K.K.K.S.c.c.c.c.K.c.c.c.K.K.K.K.c.c.c.c.c.c.c.c.M.c.c.l.l.c.c.c.M.M.M.M.M.M.M.M.M.M.N.N.M.m.m.m.m.m.C.m.N.N.N.N.N.m.m.C.B.B.m.m.m.n.z.j.j.j.s.u.{ [ Y L P J p i i i i i p f J P I Y [ { { { d.s.s.s.j.x.x.z.n.n.n.z.x.j.f.",
"Z.U.Q.Q.Q.Q.Q.Q.Q.Q.Q.U.U.I.B.B.V.V.n.n.n.n.z.z.z.z.z.z.c.c.c.c.c.c.c.c.c.c.M.M.c.M.M.M.M.c.M.M.M.M.M.M.M.M.V.P.P.P.P.R.R.!.!.~.~.~.~.!.!.!.7X!.~.E.E._ f r h a a a a a a a a a a a a u a a u u a a j r r r r 1 1 1 1 1 1 1 , , & - - o O .       X o o o o 2 , , , , , , o o , , , o , , o o 2 o o o o o o o o o o o o o o o o o o o o o o o & o O o o o o o o o o o o o o o o o o o o o o o o o o o o o O X X o O X X X X X O O O O o X X X X X X X X X                                                                                                                                                                                     X   ..nX<X<X-XmX2X<X-X-X-X-X-X-X<X<X<X<X-X1X<XnXnXmX;X;X<XmX<X-X-X%X%X%X*X*X&X@X@X&X&X&X&X&X&X&X*X&X$XOX X`.e.3.;.-.2.@X-X=X=X&XXX#X&X*X@XoXoXoXoXoXoXoXoXoXoXoXoXXXXXXXXX@X&X&X&X=X$XXXoXoXoXoX|.|.`.'.,.b z n z z n n n n n n n n n n n S @.@.@.&.&.&.&.&.&.;.;.;.2.2.2.0.0.q.4.4.q.0.0.0.0.0.D.0.0.0.0.0.0.q.4.4.4.4.4.4.4.4.2.2.<.5.5.2.4.2.5.5.5.5.;.5.5.5.5.5.5.5.5.;.&.&.;.;.;.;.;.;.&.%.%.%.%.%.@.@.%.#.@.S S S m S m b b b z b b b b b m m m S m m S S ) %.m b m m m m m m m M *. X=X=X3X2X2X2X2X2X2X2X2X2XmXmX2X2X2X3X1X=X=X&X=X=X=X3X3X-X*X*X*X@X@X*XoXG.D.|..XXXOXOXoXoX|.|.G.G.F.F.oXoX#XH.D.D.H.XX@XXXoXoXoX.XF.G.8.H.#XH.H.#XZ w 3 3 1 1 , 3 3 3 3 3 3 3 w w w 3 3 3 3 3 3 3 3 3 3 3 3 3 3 3 3 3 3 3 3 3 w a h h h h h g c E Q ! (  . .X...p.p.v.v.S.S.S.S.S.K.K.K.K.K.K.K.K.K.K.K.K.K.P.P.P.P.P.P.R.R.R.R.R.R.R.E.E.E.E.E.!.!.~.0X~.~.8X8X8X8X8X8X0X8X8X8X0X0X6X!.E.E.E.E.E.P.K.L.K.K.K.K.S.S.S.S.S.S.S.S.S.K.K.K.S.K.K.K.K.K.K.K.K.K.K.K.K.K.K.K.K.K.K.K.K.K.K.K.K.c.c.c.c.c.K.c.c.c.c.c.c.c.c.c.c.c.c.c.c.c.c.M.c.c.M.c.c.c.b.b.M.M.N.N.M.M.m.m.m.m.m.m.N.N.N.N.m.m.m.C.B.B.m.N.m.n.z.j.j.j.s.u.{ [ Y L L J R p i i i i i i N J P L Y ] [ { } u.d.d.s.g.x.x.x.x.z.x.x.j.g.",
"Z.Z.Q.Q.Q.Q.Q.Q.Q.Q.Q.U.U.I.B.V.B.V.n.n.n.n.z.z.c.z.z.z.z.z.c.c.c.c.c.c.c.c.n.M.M.M.M.M.M.M.M.m.M.M.M.M.M.M.m.P.P.P.R.R.W.!.!.~.~.~.~.!.!.7X!.!.!.~.v.u u a h a a a a a a a a a f a a a a a u r a a r r r r r r 1 1 1 1 1 1 1 , - - - o o O       X X o o o , , , , , , , , , , , o 2 , , o o o o o o o o o o o o o o o o o o o o O O O O O o o O o o o o o o o o o o o o o o o o o o o o o o o o o o o o o X X X X X X X X X X X X X X X X X X X X X X X X X X                                                                                                                                                                             X X   ( nX;X<X<XmX2X<X<X-X-X-X-X-X<X<X<X<X<X<XnXmXnXmX-X-X<XmX<X-X-X*X*X%X&X&X%X%X%X&X&X&X&X&X*X*X*X&X$X+X`.'.e.3.-.2.G.&X=X=X=X&XXX@X&X&XXXoXoXXXoXoXoXoXoXoXoXXXXX@XXXoXXX@X&X=X&X=X$XXXXXXXXXoXoXOX'.OXr.@.z z z z n n n n n n n n n n n @.@.@.@.#.&.&.&.&.&.&.;.;.;.,.2.4.q.4.4.q.4.4.q.q.0.0.0.0.D.D.D.0.0.0.0.q.0.0.0.0.0.0.4.4.4.4.4.4.4.4.4.2.2.2.2.2.2.4.4.4.>.<.>.>.>.>.>.>.>.;.;.;.;.*.%.%.%.%.@.#.%.#.@.@.S S S S S m b b b b D D b b m m m m m m S S ) m S S m b m S m m z S  X:X=X3X>X2X2X2X2X2X2X2X2XmXmX2X2X2X2X3X=X&X$X$X$X$X=X=X=X1X-X*X*X&X*X*XF.G.D.F.|.|.XXOXoXoX.XoX|.D.D.D.oX.XH.D.G.G.J.XXXXoXH.H..XoXD.G.9.XX#XJ.;X1.- - 3 3 ; - - 1 3 3 1 3 3 3 w w 3 3 3 w 3 3 3 3 w w w w w w 3 3 3 3 3 3 3 3 3 3 3 3 3 a a a a h d g c ~ ~ ~ o. ...p.v.S.S.S.S.S.K.S.S.K.K.L.K.K.K.K.K.P.P.P.P.P.P.P.K.P.P.P.R.R.R.R.R.E.R.E.T.~.~.0X0X0X0X0X0X8X8X9XwX8X8X8X8X8X0X0X0XE.E.E.E.E.R.P.K.K.K.K.K.K.K.S.S.S.S.S.S.K.K.K.K.K.K.K.K.K.K.K.K.K.K.K.K.K.K.K.K.K.K.K.K.K.K.c.c.S.l.c.c.c.c.c.c.K.K.c.c.c.c.c.c.M.c.c.c.c.c.M.M.M.M.c.c.c.c.b.M.N.N.m.m.m.m.m.C.C.m.N.N.N.N.N.N.m.m.m.C.B.B.m.N.m.n.z.x.j.j.s.u.{ [ T Y L P J H i i i i i i p H J P L Y Y ] [ { } u.d.s.h.j.j.j.j.j.s.s.d.",
"Z.U.Q.Q.Q.Q.Q.Q.Q.Q.Q.U.U.I.B.B.B.V.n.n.c.c.z.z.z.c.z.z.z.z.z.c.c.c.c.c.c.M.M.M.M.M.M.M.M.M.V.P.m.m.M.M.n.m.V.P.P.P.R.R.W.W.!.!.8X8X~.!.!.7X!.!.~.R.K s a a h a a a a a a a a a a a a a a a u r a a r r r r r r 1 1 1 1 1 1 1 , , - o o o O   .     X o o o , , , , , , , , , , , o o , , o o o o o o o o o o o o o o o o o o o o O O o o O o o o o o o o o o o o o o o o o o o o o o o o o o o o o o o o X X X X X X X X X X X X X X X X X X X       X   X X X                                                                                                                                                                             X     c nX%X-X2X2X<X<X<X-X-X-X-X-X<X-X-X-X<X<XnXnXmXnX-X<XmXmX<X-X-X-X*X*X*X*X&X%X&X*X=X&X&X*X*X*X*X$X&X+X].'.e.2.;.G.{.&X*X=X-X&X@X*XXX{..XoX@X@XXXXXXXXXXXXXXXXXXX@XXXXXXX@X&X&X&X&XXXXX@X&X$XXXXXXX'. X`.,.n z z z n n n n n n n n n n n n @.@.@.#.&.&.&.&.&.&.&.*.;.;.>.2.2.2.4.4.4.4.4.4.4.q.q.q.0.0.0.0.0.0.0.0.0.q.q.0.0.q.4.4.4.4.0.G.0.4.4.4.4.4.4.4.4.4.4.4.4.4.4.4.2.2.,.;.;.;.;.;.;.&.&.%.%.%.@.%.#.@.@.@.S m m S S m m m m m m m b b m m m m m m S S S S S m S S n m b m z q.:XOX3X3X3X2X2X2X2X2X2X2X2XmXmX2X2X2X3X3X=X+X$XXXXXXXXX&X=X=X*X%X%X%X*X*XD.D.F.'.D.|.OXOXoX|.'.|.|.D.G.G.D.H.D.G.G.D..XoXXX.XJ.F.J.oXD.G.J.H.H.H.G.x 3 3 1 1 ; - - 1 3 3 1 3 3 3 3 3 3 3 3 w w w w w w w w w w 3 3 3 3 3 3 3 3 3 3 3 3 3 3 j j 3 3 3 3 a a h g g g E !  . .X...v.S.S.S.S.S.S.K.K.K.K.K.K.K.P.P.P.P.P.P.I.P.L.P.P.R.R.R.R.R.E.E.E.T.~.~.6X0X0X0X0X0X8X8XwXwX8X9X9X9X8X8X0X8X!.~.~.E.E.E.^.P.K.K.L.K.K.K.K.S.S.S.S.S.K.K.K.K.K.K.K.K.K.K.K.K.K.K.K.K.K.K.K.K.K.M.K.K.K.K.c.l.l.l.l.c.c.c.l.l.K.c.c.c.c.c.c.c.M.c.c.c.c.M.M.M.M.M.M.M.M.M.M.M.N.m.m.C.m.m.C.C.C.m.N.N.B.C.N.N.N.m.m.C.B.B.B.m.m.n.n.z.k.j.s.u.i.{ [ Y L P J J p p p i i u p p p R J L L Y Y ] { { } d.s.h.g.g.j.s.s.d.u.",
"Z.U.Q.Q.Q.Q.Q.Q.U.Q.U.U.U.I.I.B.B.V.n.c.c.c.c.z.n.n.n.z.z.z.z.c.c.c.c.c.n.M.m.m.m.m.m.m.m.m.m.m.V.P.m.m.m.m.P.P.P.P.R.R.!.W.!.!.!.!.!.!.7X!.!.~.wXh.y f u a j a a a a a a a a a a a a a a a u r a u r r r r r r 1 r 1 1 1 1 1 , - o o o o o X       X o o o o o , , , , , , , o 2 o o o , o o o o o o o o o o o o o o o o o o o O O O o o O O o O O O o o o o O o o o o o o o o o o o o o o o o o o o O X X X X O O X X X X X X X X X X X X X X   X X X X X X X                                                                                                                                                                                   a #X%X-X<X<X<X<X<X-X-X-X-X-X-X<X<X-X<X<X<X<XmXmX<XmXmXmX<X-X-X-X*X*X*X*X*X*X*X*X*X&X&X&X*X*X*X$X$XXXOX'.0.2.2.oXoX@X=X-X=X@X*X*XXX.XoXXXoXoXoXXXOX@X@XXXXXOX@XXXXX@X$X$X&X&X=X&X$XXX&X=X=X&X&XOXoX`.].e.&.z z z n n n n n n n n n n n n @.@.@.&.&.&.&.&.&.*.*.&.;.;.;.;.;.>.4.4.4.2.4.9.4.2.2.2.4.9.9.9.0.0.q.0.q.4.2.4.q.4.2.4.2.4.0.G.4.4.4.4.0.0.0.0.0.0.0.0.4.4.4.4.4.2.4.>.,.>.>.;.;.;.*.%.%.%.%.%.@.@.S @.S n n m m m m S m m b b b m m m m m m S S S m %.S S S m m m S S :.:XOX=X2X&XmX2X2X2X2X2X2X2X2XmX2X2X2X2X3X=X=X&X&X$X+XXXXX$X&X&X*X%X%XXX%X%XD.F.J..X|.|.OXOXoX|.D.D.D.D.G.G.G.F.G.9.D.XXoX.X.X.XJ.D.D.D.9.G.H.H.H.H.C 3 3 3 - , , , , ; 1 1 1 3 3 3 3 3 3 3 3 3 3 3 3 w 3 3 3 w 3 3 3 1 1 1 1 3 3 3 3 1 3 3 3 3 3 3 3 3 3 j a a a a a a g g G E ~ o. .X...v.S.S.K.K.K.K.L.K.K.K.K.K.K.P.R.R.R.K.L.R.R.R.R.R.R.T.T.E.!.6X6X6X6X0X7X0X0X9X9XwXwXwXwX9X9X9X8X8X8X0X!.!.E.E.E.E.R.^.L.K.K.K.K.K.K.K.S.S.K.K.K.K.K.K.K.K.K.K.K.K.K.K.K.K.K.K.K.K.K.K.K.K.M.K.K.M.c.c.c.c.c.c.c.c.c.c.c.c.c.M.M.M.c.M.M.M.c.c.c.c.M.M.M.M.M.M.M.M.M.M.M.m.m.m.m.C.C.C.m.m.N.B.B.V.m.N.N.m.C.C.B.m.m.m.m.n.z.j.j.s.d.u.{ [ Y Y L P P J H p i i i p p p H J J P L L Y ] [ { } u.d.d.d.d.d.d.} } ",
"Z.U.Q.Q.Q.U.Q.Q.U.U.U.U.U.U.I.Z.B.V.n.n.n.c.c.z.n.n.n.n.n.n.n.z.M.M.c.c.M.M.m.P.m.m.m.m.m.m.m.m.P.P.P.P.m.B.P.P.P.P.R.R.W.W.!.7X7X7X7X!.7X!.~.~.~.L u u t a j a a u u a a a a a a a a a a a a u u u r r r r r r r r 1 1 1 1 < 1 , o o o o o O O X X   X o o o o o , , 2 , , 2 o o o o o , 2 o o o o o o o o o o o o o o X X O o   X O o o O X O O o o o o o o o o o o o o o o o o o o o o o o o o o O X X X X X o O O X X X X X X X X X X X X X     X X X X X X                                                                                                                                                                                 O 3 G.<X-X-X-X2X<X-X-X-X-X-X-X<X<X<X<X<X<X<XmXmX<X<X<XmXmX<X-X-X-X*X*X*X*X*X*X*X*X*X*X*X*X&X*X*X$X$XOXoX`.4.4.'.$XoX@X=X-X*X@X*X@X@X&X*XXXF.F.oXoXoXoXXXXXXXXXOXXX@X$X&X&X&X&X&X$X$X$X=X=X=X=X=X+X+X`.`.].2.n n n n n n n n n n n n n n n @.@.@.#.#.&.&.&.&.&.&.;.;.;.;.;.-.;.2.<.<.2.4.2.2.<.2.2.4.9.9.4.9.9.9.q.9.2.2.2.2.2.2.4.4.4.4.4.4.4.4.4.4.4.4.4.0.D.D.0.0.9.0.q.4.4.4.2.2.2.>.;.;.;.;.%.%.%.%.%.@.@.@.S S n S n m m m b m m b m b m m S S m S S S S S m S m b S &.,.,.2.'.:XOX3X2X2X2X2X2X2X2X2X2X2X2X2X2X2X2X2X3X=X=X&X+X$XXXXXXXXX&X@X&X%X%XoXoX#XD.D.F..XF.|.|.OX|.|.D.0.D..XD.D.D.D.9.G..X@XoXJ..X.XF.G.9.9.9.G.H.H.;X' ; 3 3 - , 1 , 1 , ; ; ; 1 1 1 , , , 1 3 3 3 3 3 3 3 3 3 3 w 3 3 1 1 1 1 1 1 1 1 1 , 1 1 3 3 3 3 3 3 3 3 3 1 1 3 1 3 a a a a h g G E E !  .p.p.v.S.S.K.K.K.K.K.K.K.L.P.P.P.L.P.R.E.E.R.R.R.T.T.!.!.6X6X6X6X0X7X7X0X8X9X9XwXwXwX9X9X9X9X8X8X8X0X!.E.E.E.E.E.K.K.K.K.K.K.K.K.K.K.K.K.K.K.L.K.K.K.K.K.K.K.K.K.K.K.K.K.K.K.K.K.K.M.M.M.K.M.M.c.c.K.c.c.c.c.c.c.c.c.c.c.M.M.M.M.M.M.M.M.M.M.M.M.M.M.M.M.M.M.M.M.m.m.m.C.C.C.C.C.C.C.m.m.B.B.N.N.N.N.m.C.B.B.B.m.V.m.n.z.j.j.s.d.i.{ [ [ Y Y L L P J p p p p p p f f H N J P L L U Y [ { { } } } } } { { { ",
"Z.U.Q.Q.Q.Q.Q.Q.Q.Q.U.U.U.U.I.Z.B.V.n.n.n.c.z.z.n.n.n.n.n.n.n.n.M.M.M.M.M.m.m.P.m.m.V.m.m.m.m.B.P.P.P.P.P.B.P.P.P.P.R.R.!.!.!.!.8X7X7X7X!.~.~.~.c.f f t r a a a a u u a a a a a a a a a a a a u u r r u u u r r r r r 1 1 1 1 1 , , , o o o o o X X     X o o o o 2 , o o , , o o o o o , , o o o o o o o o o o o o o X X X o o O X O o O X O o o o o o o o o o o o o o o o o o o o o o o o o o o o O X X X X X O X X X X X X X X X X X X X X X X                                                                                                                                                                                               O + ' ;X%X*X-X2X<X-X-X-X-X-X<X<X<X<X<XmXnXmX<X<XmXmXnXmXmXmX-X-X-X*X*X-X*X*X%X*X&X*X*X*X*X*X&X&X$X$XOX].'.q.0.OX@XoX&X-X=X*X&X*X@X&X*X@XoX{.{.{.{.{.{.{.oXoXoXoXXX$X$X&X=X&X$X$XXX$X=X=X=X=X=X=X&X$XOX`.`.0.;.S n n S S n n n n n n n n n @.@.@.@.@.#.&.&.&.&.&.;.;.;.;.=.*.=.>.>.>.2.2.2.<.<.<.4.4.9.9.9.4.4.9.q.9.2.2.<.2.2.2.2.2.4.4.4.9.9.9.4.4.2.2.4.0.G.G.0.0.0.0.q.q.4.4.2.2.,.;.;.;.&.&.%.%.%.%.#.@.@.@.S S S S S S m n m m n b m m m m m m S S S S S S @.m m &.q.r.r.r.'.OX:X>X3X3XmX2X2X2X2X2X2X2X2X2X2X2X2X2X3X1X=X=X&X+XXXoXoXoXXX&XoXXX@X@XH.H.oXD.D.J..XD.'.|.|.D.D.D.9.D.D.9.G.G.G.G.D.oX@X.XJ.J.D.D.G.9.8.G.H.H.H.G.e 1 1 1 + 1 1 1 1 1 1 - 1 1 , 1 , - ; ; 1 1 1 1 3 3 w w w 3 w 3 3 3 3 3 3 3 1 1 1 , ; ; 1 3 3 3 3 3 1 1 1 1 1 1 1 3 3 3 3 w w w a a a a h g G E ~ o.X.p.l.S.S.K.L.L.K.K.K.K.P.P.R.R.E.R.R.R.T.T.6X6X6X6X6X6X7X7X0X9X9X9X9X9XwX9XwX9X9X8X8X8X8X8X!.!.!.~.E.E.P.P.P.K.K.K.K.K.L.K.K.K.K.K.K.K.K.K.K.K.K.K.K.K.K.K.K.K.K.K.K.K.M.M.M.c.M.M.M.c.K.K.c.c.c.c.M.M.K.M.c.M.M.M.M.M.M.M.M.M.M.M.M.M.M.M.m.m.m.m.m.m.I.P.C.I.I.I.C.C.m.m.C.C.m.N.N.V.N.N.C.C.C.C.B.B.B.m.n.z.j.j.s.d.u.i.{ { [ ] Y U P P J R f p p f f f f f N J P P L L ] [ [ [ { { { [ ] Y Y ",
"Z.Z.U.Q.Q.Q.W.Q.Q.Q.U.Q.U.I.I.B.B.V.n.n.n.n.z.z.z.c.n.n.n.n.n.n.M.M.M.n.m.m.B.B.m.V.V.B.m.m.B.B.P.P.P.P.P.P.P.P.P.P.R.R.!.!.!.7X7X7X7X8X~.~.~.~.o.u u a a j a r a u u a a a a a a a a a a a a u r u r u a a a r r r 1 1 1 1 1 < , , , , o o o o o X       X o o o 2 2 o o , o o o o o o , , o o o o o o o o o o o o X o X o o o o o O O O O o o O O O o o o o O o o o o o o o o o o o o o o o o o o O X X X X X X X X X X X X X     X X X X     X X                                                                                                                                                                                         X X O   x H.#X*X*X<X<X1X-X<X-X-X-X<X-X-X<XmXmXmX<X<XmXmXnXmXmXmX<X-X-X-X*X*X*X%X%X%X*X*X*X*X*X*X&X&X@X$XXX{.'.0.G.=XXX{.*X-X*X*X*X@X@X@XXX{.{.XXXX{.oX}.{.oXOXOXOXOX@X$X@X$X&X&X@XXX@X=X>X>X=X=X=X=X=X&X$XOX'.`.q.@.n n S n n n n n n n n n S @.@.@.@.@.#.&.&.&.&.&.&.=.;.;.;.;.;.,.2.2.2.2.<.;.;.<.2.2.4.9.4.2.4.9.0.0.9.4.2.2.2.2.<.2.2.4.9.0.0.9.0.9.4.4.9.0.G.0.0.0.q.0.0.q.4.4.4.2.>.;.;.;.&.%.%.@.@.#.#.@.S @.@.@.@.S S n n S m m n b b m m m m m S S S S S m m ;.r._.r.t.q.q.'.=X=X:X2X2X2X2X2X2X2X2X2X2X2X2X2X2X2X2X3X=X=X=X=X=X$XoX.XoXXX&XH.oXXX@XoXF.oXD..XXXoXF.D.|.|.'.D.D.0.D.D.9.G.G.G.D..XoX.XJ.F.J.D.D.G.9.<.G.H.H.H.Z 1 3 1 + 3 - , 1 1 1 1 1 , 1 , , , 1 1 1 1 1 , ; 1 1 3 3 3 3 3 1 1 1 1 1 1 1 ; ; 1 1 ; , 3 3 1 1 1 1 1 1 1 1 1 , , 1 3 1 3 w 3 1 3 a a a a a h h h h G ~ o.| p.l.K.L.L.L.K.^.P.P.P.P.R.R.E.E.E.T.!.T.6X6X6X7X0X0X9X9X9X9X9X9XwXwXwX9X9X9X8X8X0X8X6X6X~.!.E.E.E.E.E.E.^.K.K.K.K.L.K.K.K.K.K.K.K.K.K.K.K.K.K.K.K.K.K.K.K.K.K.K.K.K.M.M.M.M.M.M.M.K.K.M.K.M.M.K.K.K.K.M.M.M.M.M.M.M.M.M.m.m.K.m.M.m.K.I.I.I.I.C.I.C.m.P.I.I.C.m.m.C.C.C.N.N.N.B.N.m.C.C.C.C.B.B.V.V.n.z.j.j.s.d.d.u.{ { { [ Y Y L P P J J H f N f p p f N J J P P L L Y Y ] ] ] ] ] I L L ",
"Z.Z.U.Q.U.U.Q.Q.Q.Q.Q.U.U.I.B.B.B.V.n.n.n.n.n.n.n.n.M.n.n.M.n.n.n.n.n.m.B.B.P.P.P.B.B.B.V.B.B.B.P.B.B.P.P.P.P.P.U.R.Q.R.!.!.!.!.W.7X7X8X8X~.wX} f a u a a a j j r u u a a a a a a a a a a a a a a a u r u u r r r r r t 1 < < < 1 1 , , 2 o o O X X         X o o o o o o o o o , , , o o o o o o o o o o o o o o o o o o o o o o o o o X o o o o o o o o o o o o O o X X X X X X X X X   X X o o X X     X X O O X X X X X     X X       X X X X                                                                                                                                                                                       X       O     1.H.*X@X<X-X-X-X-X*X*X-X-X-X<X<X<X<X<XnXnXnXnXmXmXmXmX<X<X<X-X*X*X*X*X*X*X&X*X*X*X*X&X@X&X@X$XXXoX'.D.{.:X@XF.*X2X*X*X*X*X&X@XoXoXoX{.{.{.{.{.{.{.{.oXOX@XOXXX@X$X$X$X@XXX=X=X=X=X=X=X=X=X=X=X$XOX X`.0.>.S S n S n @.n n n n n n n @.@.@.n @.#.&.&.&.&.&.&.&.&.&.=.;.;.;.>.>.>.2.2.<.;.<.<.2.4.4.<.<.4.4.9.0.9.9.4.9.4.2.<.2.2.2.4.9.9.9.9.9.0.0.9.0.0.0.D.0.q.q.0.0.q.4.2.>.;.;.;.&.&.&.%.%.#.@.#.#.@.@.@.@.@.S n n n n m m m m m m m m S m m m m m b %.q.t.e.t.t.q.q.0.OX=X:X3X3X2X2X2X2X2X2X2X2X2X2X2X2X3X3X3X=X=X&X=X=X=XXXXXoXD..X&XXX.XXX.XXXXXG.J.XXXXXX.XD.|.OX|..XD.D.D.D.9.9.D.D..XXXoXJ.F.F.D.D.D.9.9.9.J.H.H.' 3 3 3 , w + , 1 1 1 , 1 1 1 - 1 ; , , 1 1 1 1 1 1 1 1 1 3 3 3 1 1 1 3 3 1 1 1 3 3 1 , , , 3 3 3 , , , 1 1 3 1 3 1 1 1 1 1 3 3 3 3 3 1 3 w w w w a a a a h h g K ~ | ..v.S.K.K.K.P.R.R.R.E.E.E.!.!.!.!.!.6X6X7X6X0X9X9X9X9X9X9XwX9X9X9X9X9X0X0X8X0X8X6X!.!.!.!.E.E.E.E.R.^.P.K.P.K.K.K.K.K.K.K.K.K.K.K.K.K.K.K.K.K.K.K.K.K.K.K.K.K.K.M.M.M.M.M.K.K.M.M.M.M.M.M.M.M.M.M.M.M.K.K.K.M.M.K.K.M.M.m.m.m.m.B.I.I.I.I.I.I.I.C.C.C.C.C.C.C.m.m.m.m.C.C.C.C.C.m.m.C.C.B.B.B.n.z.j.j.j.s.d.u.i.{ { { [ ] Y L L L P J J N N N f f N J J P J P L L Y Y Y I L L P P P ",
"Z.Z.U.U.U.U.U.U.Q.Q.Q.U.U.I.Z.B.B.B.V.n.n.n.n.M.n.n.n.n.n.n.n.n.n.n.m.m.B.B.P.P.P.P.P.P.P.P.P.P.P.P.P.P.P.P.P.P.U.R.Q.T.!.!.!.!.7X9X8X!.~.wXl.K f a u a a a j j r r r u u a a a a a a a a a u u a a a u u u u u r r r t 1 1 1 < 1 1 , , , o o o o X X       X O o o o o o o o o o o o o o o o o o o o o o o o o o o o o o o o o O O X X X X X X o o o o o o o o o o o O O O O o X o O O X X X X O X X     X X X X X X X X X     X           X X X                                                                                                                                                                                                 o   c H.H.*X*X-X-X-X-X-X-X-X-X-X-X<X<X<X<X<XnX<X<XmXmX<X<X<X<X-X-X*X-X-X*X*X*X@X&X*X*X*X*X&X&X@X&XXX{.'.'.oX=X&X{.*X2X*X*X=X*X&X@XoXoXoXoX{.{.oX}.{.{.{.oXXXOX@X@X$X$X$X$X&X&X=X=X=X=X=X=X=X&X=X&X$XOXOX X'.4.@.n n n @.@.@.n n n n n n @.@.@.@.@.#.&.&.&.&.&.&.&.&.&.=.=.;.;.;.;.;.;.>.>.;.<.<.2.4.2.<.<.<.2.4.9.9.9.4.4.2.<.2.2.2.2.2.4.9.9.q.9.9.9.9.9.0.9.2.4.4.4.q.4.4.2.>.;.;.;.;.&.&.&.%.#.#.#.#.#.@.@.@.@.n n n n n n n m m m m b m m m m b b S M ;.0.e.r.r.r.r.t.0.r.=X=X3X3X2X2X2X2X2X2X2X2X2X2X2X2X1X1X=X=X=X=X=X=X&X+XoXXXXX|..XXX.X.XoXoXoXF.G.oX@XXXXX.XD.|..XD.|.'.D.D.G.9.G.D.F..XXXoX.XJ.D.D.9.9.9.8.D.J.F.J.Z - 1 1 - 1 - , , 1 1 , 1 1 1 1 - - - - , , 1 1 1 1 1 1 1 1 1 1 1 1 3 3 3 1 1 1 1 1 1 , , , 3 3 3 , , , , 1 1 1 , 1 1 1 1 , 3 3 3 3 3 3 3 w w w w w a a w w a h u a f g K !  .X.l.c.K.^.^.^.R.R.E.E.E.E.!.!.7X9X8X8X9X0X0X9XiXiX9X9X8X0X0X9X9X9X8X8X0X0X6X!.!.!.!.E.E.E.E.E.E.R.P.P.P.P.K.K.K.K.K.K.K.K.K.K.K.K.K.K.K.K.K.K.K.K.K.K.K.m.M.M.M.M.K.K.M.M.M.M.K.M.M.M.M.M.m.m.K.K.K.K.K.P.P.K.K.I.I.I.I.I.C.I.I.I.I.I.C.C.C.C.C.C.C.C.m.m.m.m.m.C.m.C.C.m.B.C.B.m.V.m.n.z.j.j.j.s.d.d.u.i.} { { [ ] Y L L L P J J J J N N N J J J P P L L L L L P P K J J J ",
"Z.Z.Z.U.U.U.U.U.U.U.U.U.U.I.I.B.B.B.B.V.n.n.n.n.n.n.n.n.m.m.m.m.n.n.B.B.B.B.B.B.P.P.P.P.P.P.P.P.I.P.P.P.P.P.P.I.I.R.T.T.!.!.!.!.7X8X7XE.8X~.~ u p a u a a a a a r r r r u a a a a a a a a u u u a a u u u u r r r 1 1 1 1 1 1 1 < < 1 1 , , 2 2 o o o X       X X X o o o o o o o o o o o o o o o o o o o o o o o o o o o o o o O O X X X X X X o o o o o o o o o o o o O O O O X o o o O X X X O X X     X X X X X X X X   X   X           X                                                                                                                                                                                             X X     O   O ' H.H.*X-X-X-X-X-X-X-X-X-X-X<X<X<X<X<X<X<X<X<X<X<X<X-X-X-X-X-X-X-X*X*X*X*X*X*X*X=X=X=X&X@X@XoX{.{.XX$X=X%XoX*X2X*X*X*X*X&X@XXXoXoXoXoXoXoXoXoX{.{.{.oXoXXXXX@X@X@X$X&X=X=X=X=X=X=X=X*X*X=X$X$X+XOXOX`.'.&.S n S @.n @.S n n n n n @.@.@.@.#.#.&.&.&.&.&.&.&.&.*.&.=.;.;.;.;.;.;.;.;.<.<.2.2.2.2.2.<.<.2.2.4.9.4.2.2.2.<.2.2.2.2.2.2.4.4.q.4.2.4.9.0.9.4.2.2.4.4.2.2.>.>.;.;.&.;.&.&.&.%.#.@.#.#.#.#.@.@.n n n n n n n n m z b b b b b m m b b S l ;.r._._._.[._.r.t.r. X=X>X3X3X2X2X2X2X2X2X2X2X2X2X2X3X3X3X=X&X&X=X=XXX$X+X.XXX&XoXoXXX.X.X.XXX.XG.D.@X&XXXXX.XD.D.'.D.|.|.D.0.9.9.9.9.F..X.X.XF.D.D.0.9.9.<.9.J.J.H.` w , 3 1 - , , 1 - 1 1 ; 1 1 1 1 - - - - - - , , 1 ; 1 1 1 1 1 1 1 1 1 1 1 1 1 1 1 1 1 1 1 1 1 , , , ; ; , , , , - , 1 1 ; , 3 3 3 3 3 3 3 3 3 w w w w w w w w a a a s a a s d g K ~ o.| } l.K.R.E.E.~.~.!.!.!.!.8X8X8X8X0X8X8X0XwXwX8X8X9X9X9X9X9X0X0X7X6X6X!.!.6X!.!.!.E.E.E.E.E.R.R.R.P.P.P.P.P.P.P.P.P.P.P.K.K.K.K.K.K.K.K.K.K.K.K.K.m.m.m.M.M.M.M.N.K.K.K.K.m.m.m.m.K.K.K.P.P.P.K.P.I.I.I.I.I.I.I.I.I.I.I.I.I.I.I.C.C.C.C.C.C.C.C.m.m.C.m.C.N.m.m.m.B.B.B.m.m.n.n.z.k.k.j.j.s.s.d.u.u.i.{ [ ] Y U L L L P P J J J J J P P P P P P P P P P J N N N N N ",
"B.Z.Z.Q.U.U.Q.Q.U.U.U.U.U.I.I.B.V.B.V.V.n.n.n.n.M.n.n.m.V.V.V.V.B.B.B.B.B.B.B.B.B.B.P.P.P.P.P.P.U.P.P.P.P.P.P.I.U.R.R.T.!.!.!.7X7X6X!.!.uXl.f f a u a a a u u u r r u u u a a a a a a a u r u a u u u r u r r r r 1 1 1 1 1 1 1 < 1 1 , 1 1 , , o o o X           X X o o o o o , , , o o o o o o o o o o o o o O O o o o X X o o o o o o o o o o o o o o o X X O O X X X X X X o o o o X X X X X X X     X X X X X X X     X X                                                                                                                                                                                                         X X X X     O   - 1.F.%X%X*X-X-X-X-X-X-X-X-X<X<X<X<X<X<X<X<X<X<X-X-X-X-X-X-X-X-X-X*X*X*X=X*X*X*X=X=X&X$XXXXXoXoX@X&X$X=X%X#X*X<X-X-X*X*X%X@XXXoXoXoXoXoXoXoX{.{.{.{.{..XoXXX@X$X&X&X&X&X=X=X=X=X=X=X=X=X=X$X$X$XOX|.|._.3.#.n @.@.S @.S n n n n n n @.@.@.#.&.&.&.&.&.&.&.&.*.*.&.=.;.;.;.;.;.;.;.;.<.<.2.2.2.4.2.4.2.2.2.2.4.2.2.2.2.2.2.2.2.2.2.2.2.2.4.4.2.4.9.0.4.2.2.2.2.2.>.;.;.;.;.&.&.&.;.&.%.%.#.#.@.@.#.@.@.@.@.n n n n n n b m m b z z z b b b m m l ;.'._._.[.[.[.].[.r.r.OX:X3X2X2X2X2X2X2X2X2X2X2X2X2X3X3X3X3X=X&X=X=X$XOXOXOXJ.oXXXoXXXXX.X.X.X.XF.G.F.@X&X@XXX.XD.D.D.|..X.XJ.G.9.9.9.9.J.J..XJ.D.D.9.9.9.9.<.F.G.H.G.3 - 3 1 1 , - , 1 , 1 1 - , 1 1 - - - - - - , , , , , , 1 1 1 1 1 1 1 1 1 1 1 1 1 1 1 1 1 1 1 1 ; , , ; ; , , , ; - , , ; ; ; 1 3 1 1 1 1 3 3 3 3 3 3 w w 3 w w w w a a a a a a a a s f f f K o.| v.l.^.E.~.!.!.~.!.8X8X8X8XwXwXwX8X9X9X9X9X9X9X0X0X0X7X7X6X6X!.!.6X6X6X!.E.E.E.E.E.E.E.R.R.R.R.R.R.R.R.R.R.I.P.P.P.P.P.P.K.K.K.P.K.K.K.K.K.K.K.m.K.K.M.m.K.K.K.P.K.K.K.I.I.I.I.I.I.I.I.I.I.I.I.I.I.I.I.I.I.I.I.I.I.I.I.C.C.C.C.C.C.C.C.m.C.m.C.C.m.m.m.m.B.B.B.M.n.M.n.z.x.x.x.j.s.s.d.d.u.i.{ [ [ Y Y L L L P P P P P P P P P P P P P P J J J N N s i i i ",
"B.Z.U.Q.Q.Q.Q.Q.U.U.U.U.U.I.I.I.V.B.B.V.n.n.n.n.M.n.n.m.V.V.V.V.B.B.B.B.B.B.B.B.B.B.I.P.P.P.B.B.I.P.P.P.P.P.P.I.I.R.R.T.!.!.!.7X7X7X!.~.wXo.u f a a r a u r r u u u u a a a a a f a a a r u a a u u u u u u r r r t t 1 t 1 1 1 < < < < 1 1 , , o o o X           X o o o o o o o o o o o o o o o o o O o o o o X O o o X X X X o o o o o o o o o o o o o X X X O X X X X X X X o o o X X X X X X X X   X X X X X X X   X X X X         X X                                                                                                                                                                                                 X X X   O     3 G.H.%X*X*X*X*X-X-X*X-X-X-X<X<X<X<X<X<X<X<X1X-X-X-X-X-X-X*X*X*X*X*X-X=X*X*X*X=X*X&X@X$XXXoX@X*X$X$X-X%X#X*X-X-X-X*X%X&X@X@XoXoX{.{.oXoXoXoX.X{.{.oXoXXXXX$X&X&X&X=X=X=X=X=X=X*X*X=X=X=X$X$X&XXX|.|.`.e.=.n @.S @.n n S S S n n n S @.@.#.&.&.&.&.&.&.&.&.*.&.=.;.;.;.;.;.;.;.;.;.<.>.<.<.2.2.4.4.4.4.<.2.2.2.2.2.2.2.2.2.2.4.2.2.4.2.4.4.2.2.4.2.2.2.2.2.2.>.>.;.;.;.;.&.&.;.;.&.%.#.#.#.#.#.#.#.@.@.@.n n n n n m b z z b z z z b b m m l %.`.'.|.|. X X X X X'.[.,X:X3X2X2X2X2X2X2X2X2X2X2X2X2X3X3X=X&X&X=X=X+X+X+XOXoXD.D.D.D..XXXXXoXF.F.D.D.oXXX&X@XXX.X'.D.D.D.'.J.F.D.9.9.9.G..X.X.XJ.D.D.0.9.9.8.9.G.F.H.Z + , 3 + - , + - , - 1 1 - - , - - , - - - - - , , - , , 1 1 1 1 1 1 1 1 1 1 1 1 1 1 1 1 1 1 1 1 1 1 1 , , , , ; - 1 - - - 1 1 1 , - - , 1 1 1 3 3 1 3 3 3 3 3 w w 3 w w 3 3 w a a a a a a a a h h K ~ | p.l.K.E.~.~.8X8X~.~.8X8X8X8X8X9X9X9X9X9X9X0X7X7X7X7X6X6X6X7X6X!.!.T.T.T.T.!.E.E.E.E.R.R.R.R.R.R.R.R.R.I.I.I.I.I.I.I.I.I.I.P.P.P.P.P.P.P.P.K.K.P.P.P.I.I.I.I.I.I.I.I.Y.Y.I.U.U.U.U.U.U.Y.Y.I.I.I.I.I.I.I.I.I.I.C.C.C.C.C.C.C.C.C.C.C.m.m.m.C.C.m.m.m.B.B.m.n.n.n.z.x.x.x.j.j.s.d.d.u.i.{ [ [ Y Y Y L L L L P P L P P P P J P P P J J N N N i i i 0 0 ",
"B.Z.U.Q.Q.Q.Q.Q.Q.Q.U.U.U.I.I.I.B.B.B.V.V.n.n.n.n.n.n.m.V.V.B.B.B.B.P.P.P.P.P.B.P.P.I.I.I.I.I.I.I.P.P.P.P.P.P.I.I.R.R.T.!.!.7X7X7X7X!.~.E.K f p a a a a u u u u r r u a a a a a f a a a u u a a u u u u u r r 1 r t t 1 t 1 1 < < < < < 1 1 , 2 2 o o X X         X X o o o o o o o o o o o o o o o o o o o o o X o o o X X X o O o o o o o o o o o o o o X O X o X o X X X X O o o X X     X O X X X X X X X X X X     X X X X                                                                                                                                                                                                             X X X   X O O   ( H.#X*X*X*X*X*X*X*X*X-X-X-X<X<X<X<X<X<X<X1X-X-X*X*X-X*X*X*X*X*X*X-X*X*X*X*X*X*X&X&X=X@XoX@X=X&X$X>X%X#X*X-X-X-X%X@X&X@X@XoX{.{.{.oXoXoXXXXXXXXXXXXXXXXXXX@X$X&X&X=X=X=X=X=X*X=X=X=X=X$X&X=X$XXXXX|._.,.@.S n @.n n @.@.@.S S S S S @.#.&.&.&.&.&.&.&.&.&.=.;.;.;.;.;.;.;.;.;.;.>.>.<.<.<.2.4.4.4.4.2.<.<.<.<.2.2.2.2.2.2.2.2.2.2.2.4.2.2.2.2.2.2.2.2.2.,.>.>.>.=.=.;.;.;.;.;.&.&.#.@.#.#.#.#.#.@.@.S n n n b n m m z z z z z z b b b l ) {.'.|.OX X XOXOXOXOX X X:X:X3X2X2X2X2X2X2X2X2X2X2X2X2X2X2X3X&X&X$XOXoXoX+X+X+XD.D.G.0..X&XXX'.D.D.D.oXXX.X@XXX.X.XoX'.0.9.D.D.D.D.9.9.9.D..XJ.D.D.D.9.9.9.9.9.G.G.H.( + 3 3 - + - , + - , - - , - - - - - - - - - - - - - - - , , 1 1 1 1 1 1 1 1 1 1 1 1 1 1 1 - - - - 1 1 1 ; , , , - - 1 - - - 1 1 - - + + - ; , 1 1 1 1 1 3 3 3 1 1 1 w w w w 3 3 3 3 w w w a a h h a a a f K ~ _ X.v.K.K.R.E.~.~.8X8XwXwX9X8X9X7X9X9X0X9X9X9X0X0X7X7X7X7X0X0X!.T.T.T.!.!.!.E.E.E.E.E.E.E.T.T.R.R.R.R.R.R.R.R.R.R.R.R.I.I.I.I.I.I.I.I.P.P.P.P.I.I.I.I.I.I.I.I.Y.Y.Y.Y.Y.U.Y.I.I.U.Y.Y.I.I.Y.Y.Y.Y.I.I.I.I.C.C.C.C.C.C.C.C.C.C.m.m.m.m.C.C.C.N.m.B.B.m.M.M.n.z.z.z.x.x.x.s.d.d.u.{ { { [ Y U Y U L L L L L L L L P P P P P P J N N p p i 0 0 0 0 ",
"B.Z.U.Q.Q.Q.Q.Q.Q.Q.U.U.U.I.I.I.B.B.B.V.V.m.n.n.m.m.m.V.B.B.B.B.B.B.P.I.I.I.B.P.P.I.I.I.I.I.I.I.U.P.P.I.P.P.P.P.I.R.T.T.!.!.7X7X7X!.8X8Xc.f f a a a a a u u u u r r u u a a a a a a a a a a u u u u u u u r r t t t t t t t 1 1 1 1 < < < < , 2 , o o X X X         X o o o o o o o o o o o o o X o o o o o o X X o o o X X X o X X O o o o o o X o O o o o X X o o X X X X X X X X X X     X X X X X X X X X X         X X X X X X         X X               X                                                                                                                                                                             X X X   X X   O - 1.#X%X*X%X%X*X*X*X%X*X-X-X-X-X<X<X1X1X1X1X-X-X*X*X*X%X%X*X*X*X*X*X*X*X*X*X*X*X&X=X=X@XoX@X*X*X*X-X*X%X*X*X*X*X*X%X@X@XXXoX{.{.{.oXXXXXXXXXXXXXXXXXXXXXoXoX@X@X&X@X$X$X&X=X=X=X=X=X=X*X=X=X&X&X+XOX].t.&.n n S n @.@.@.@.@.@.@.@.@.#.#.#.#.&.=.;.&.&.&.&.;.;.;.;.;.;.;.;.;.;.;.;.>.>.>.<.<.2.2.2.2.2.2.5.<.<.<.2.2.2.<.<.<.<.>.2.2.2.2.2.2.>.;.>.2.2.,.,.>.>.>.=.=.;.;.;.;.&.&.%.%.@.@.#.#.@.@.@.S n n n z z z b b z z z z M M z M l ) '.'.OX X`.OXOX,X,X+XOXOXOX=X>X2X2X2X2X2X2X2X2X2X2X2X2X2X2X3X3X=X+XXXOXoX|.|.+X+X.XD.D.G..XXXXXD.F.F.F.XXoXoXXXXX.X{.oX|.0.9.9.G.D.D.9.9.D.J.D.D.D.D.0.9.9.9.9.D.9.G.1.e - 3 - + + + - - - - + - - + - - - - - - - - - - - - , , , , 1 1 1 1 1 1 1 1 1 1 1 1 1 1 1 - - - 1 1 ; , - ; , , - - ; - - - , , - - + - - ; , , 1 1 , 1 1 1 1 1 , , - , 3 3 3 3 3 3 3 3 3 3 3 3 a a a a a u u f g K ~ | } v.c.P.E.E.E.!.7X7X7X7X0X0X0X0X9X9X9X8X0X7X0X0X0X8X8X6X6X6X!.!.!.!.!.T.T.E.T.T.4X4XT.T.R.R.R.E.T.E.R.R.R.R.R.I.R.I.R.R.R.R.I.I.I.I.Y.Y.Y.Y.T.Y.Y.Y.Y.Y.Y.Y.Y.T.Y.I.I.U.Y.U.Y.Y.Y.Y.Y.Y.I.I.I.I.C.C.C.C.C.C.C.C.C.C.C.m.m.m.C.C.C.m.B.B.m.m.n.n.b.z.z.z.z.x.x.s.s.d.u.{ [ [ Y Y Y Y Y Y I L L L L L L L P P P P J J N N f i i i 0 0 0 ",
"B.Z.U.Q.Q.Q.U.U.Q.Q.U.U.U.I.I.I.B.B.V.m.V.m.n.n.B.B.m.B.B.B.B.I.B.P.P.I.I.I.I.P.B.B.I.I.I.I.I.I.U.I.I.I.I.P.P.P.R.R.T.T.!.!.7X7X8XT.8XwXp.u f f a a a u u r u u r u u a a a a a a a a a a a u r u u a a a u r r t t t t t t 1 1 1 1 < < < < , 2 , o o O O X         X X o o o o o o o o o o o o X o o o o o o X X o o o o X X o X X o o o o o o X o O o o o o o X X X X X X X X   X X X X X X X X X X X X               X X X X X X       X X X               X                                                                                                                                                                               X X :     O     c H.#X*X%X@X%X*X*X@X%X*X-X-X-X<X<X-X1X1X1X-X-X*X*X%X%X%X*X*X*X*X*X*X*X=X*X*X&X&X&X=X@XoX@X=X-X*X*X*X%X*X*X*X*X*X*X@X@XXXoX{.{.oXoXoXoXXXXXXXXXXXXXoXoXoX@X&X&X$XXX@X&X&X=X-X>X=X=X=X=X=X=X&X&X$XXXOX].,.n S n n @.@.@.@.@.#.#.#.#.#.#.#.#.&.>.>.=.;.&.;.;.;.;.;.;.;.;.;.;.;.;.;.;.>.<.>.>.>.>.>.>.2.<.>.5.<.<.<.<.2.<.<.2.2.>.<.2.2.2.2.2.>.;.>.,.,.,.>.>.;.>.>.,.&.;.;.;.&.&.%.%.#.#.#.#.@.S S n n n n n z z z z M z M M M M M M S 0.|.OX`.OX,XOX+X:X=X+X,XOXOX=X3X2X2X2X2X2X2X2X2X2X2X2X3X3X3X3X=X=X&X&X+X+XOX.X.XOX|..X.XD.'..X.X9.F..X.XXX.XXX.X@XXXF.'.D.0.0.9.G.D.G.9.D.J.J.D.D.0.0.9.2.<.9.9.9.D.9.x 3 e 3 + O - + O - + + + + + + - - - - - - - - - - - - , , 1 1 1 1 1 , , , 1 1 1 1 1 1 1 3 3 1 1 1 1 1 - - - - - - - + - - - - - - - - - - - ; , , 1 1 - , , 1 1 1 , , 1 1 1 1 1 3 3 3 1 3 3 3 3 3 w w 3 3 w a a a a a a f f f K ~ | } l.c.P.E.8X8X8X8X8X0X0X9X9X8X0X7X0X0X8X0X0X0X0X0X6X6X6X6X6X4XT.T.4X6X6X6XT.T.T.T.E.T.T.T.T.T.T.T.R.R.R.R.R.R.R.T.Y.Y.Y.R.T.T.T.T.T.T.T.T.T.T.T.T.T.T.T.U.U.T.T.T.Y.Y.Y.Y.Y.Y.I.I.I.C.C.C.C.C.C.C.C.C.C.C.m.m.m.m.N.m.C.m.B.B.m.n.b.b.b.x.x.z.z.x.x.s.d.d.} { [ ] Y Y Y ] ] ] Y Y ] ] Y Y L L P P P J N N N J N p i 0 0 0 0 ",
"B.Z.Z.Q.Q.Q.U.U.U.U.U.U.I.I.I.B.B.B.B.m.m.n.n.n.n.n.m.V.V.B.B.P.B.P.I.I.P.B.I.I.I.I.I.I.I.I.I.I.I.U.U.U.I.I.U.U.U.Q.R.T.E.!.!.8X7X8X~.~.o.f a f a a a r r r r r u r r r u a a a a a a u u a a a a a r r a a r r r r t t t t < < 1 < < 1 1 , , , 2 o o X X O X           X X O o O O o o o o o o o o X X X X o o o o o o o o o o o o X X X X o o o o o X X X X O X X X X X X X X X X X X X X X X       X X X X X X X X                   X X X X                                                                                                                                                                                                 X X X X     X O Q /.;X%X@X&X*XXX@X@X%X*X-X-X-X-X-X-X-X-X-X-X*X*X*X%X@X@X%X*X*X*X*X*X=X*X&X&X*X*X*X&X$X*X=X=X=X=X-X*X@X&X=X-X=X$XXXXXXXXXoXoXoXoXXX@X@X@X@X@X@XXXXX$X$X$X*X@XXX*X*X=X-X=X=X=X=X=X*X-X-X*X&X&X&X@XOX'.0.@.n n n @.#.@.@.#.#.#.#.#.&.&.#.#.&.=.>.=.>.;.&.&.;.>.>.;.;.;.;.;.;.;.;.;.<.<.>.<.;.;.<.>.<.<.>.>.<.2.2.2.2.2.>.>.>.>.>.>.>.>.>.>.>.>.>.;.>.>.;.>.>.>.>.>.>.;.&.&.&.%.@.#.@.@.@.#.+.n n n n n z z z z z M M z z l z k M m 0.'. XOXOXOXOX,X,X:X:X:X:X=X=X=X3X2X2X2X2X2X2X2X2X2X2X2X3X3X>X>X=X=X&X&X+XOX$X&X.X'.|..X.XF.D.F.D.D.F..X.XXXXXXXXXXXoX.X'.D.G.0.9.9.9.9.G.D.D.'.'.D.D.9.w.<.9.8.D.9.D.^ 4 w 3 O + o o o + + + + + + + + + - - + - - - - + + + + , 1 , , 1 1 1 , 1 1 , , , 1 1 1 1 1 , , - , , , - - , 1 , - - + - - - - - - - - - - - , , - - - 1 1 1 1 1 1 1 - - , 1 1 3 3 1 1 1 1 3 3 3 3 3 w 3 3 3 w a a a a a a s a a a f f K K ~ | v.S.L.E.!.7X7X7X9X9X9X9X0X7X0X8X9X8X8X0X0X7X7X7X6X6X6X6X6X6XqXqX4X4X6X6XT.4X4XT.T.T.T.T.T.T.T.T.T.T.T.T.T.Y.Y.Y.T.T.T.Y.T.T.T.T.T.T.T.T.T.T.T.T.T.T.Y.Y.Y.Y.Y.Y.I.I.I.I.I.I.I.I.I.I.C.C.C.C.C.C.C.C.C.C.m.m.B.B.N.m.n.n.n.b.z.x.x.x.j.j.d.s.d.u.{ { [ ] ] Y Y Y ] ] ] ] ] [ ] ] I L L P P P J J J N N f s i i 0 9 ",
"B.Z.Z.Q.Q.Q.U.U.Q.Q.Q.U.U.I.I.I.B.B.B.B.V.m.m.n.m.m.V.V.V.B.B.P.P.I.I.I.P.I.I.I.I.I.I.P.P.P.I.I.I.I.I.I.I.I.I.U.U.Q.T.W.E.!.!.7X7X!.~.R.L f a h a u u r r r j a a r r r u a a a a a a a u u u u a a r u u u u r r r r r r r t < < < 1 1 1 1 , , , o o X O o O             X X X o O o o o o o o o o X X X o o o o o o o o o o o X X X X X X X X X X O X X X X O o O O O O O O X X X X X X           X X X X X X X X X           X       X X X X                                                                                                                                                                                                 X X     X X X   ; X.#X#X%X&XoX@XXXXX%X%X*X*X-X-X-X-X-X-X-X-X*X*X&X%X@X@X%X&X*X*X*X*X*X*X&X&X*X*X*X&X$X*X=X=X=X=X-X*X@X@X$X$X@XXXoXoXoXoXoXoXoXoXoXXX@X@X@X@X@XXX@X@X@X@X@X@X@X=X=X=X-X-X=X=X=X=X*X=X=X*X*X=X*X@X$XOX'.*.n n n @.#.@.@.#.#.#.&.&.&.&.&.&.&.>.>.>.>.>.;.;.;.>.;.;.=.;.;.;.;.;.<.;.;.;.;.<.<.<.<.2.2.<.<.<.<.<.2.2.,.>.>.>.>.>.>.>.;.;.>.>.>.>.>.>.>.;.>.>.>.>.;.;.=.&.&.&.&.%.#.#.@.@.#.#.+.n n n n n z z z M M M M z k M M z b 2._.`.OXOXOXOX=X:X:X:X>X3X3X3X:X:X2X2X2X2X2X2X2X2X2X2X2X2X3X>X=X=X=X=X+X+X+XoXoXoXoX.X.XoX.XF.D.F.F.F..X.XoXXXXXXXoXoX.X|.D.D.0.9.9.9.G.G.G.0.D.D.D.D.0.w.:.<.9.G.D.D.) e ; O + + o o o o o o + + + + + + + + + + + + + + + + + - , 1 , 1 1 1 1 1 , , , , , 1 1 1 1 1 , - - - , , - - - , , - - - - - - - - - - - - - - , , , - - 1 , , 1 1 1 , - 1 1 1 1 1 1 1 1 1 1 1 1 1 3 3 3 3 1 3 3 w w 3 3 w w a a a a a h u a a f G K o.p.c.P.!.!.8X8X7X8X9X9XwX9X0X6X0X0X7X7X7X0X0XqXqX6XqX6XqX6X6X6X6X6X4X4X4X4XT.T.4X4XT.T.T.T.T.T.T.T.T.T.T.T.4X4XT.T.4XT.T.T.T.T.T.T.T.T.T.T.T.T.Y.Y.Y.Y.Y.Y.I.I.I.I.I.I.I.I.I.I.I.I.C.C.m.C.C.C.C.m.C.C.B.B.N.m.n.n.b.b.z.x.x.x.j.f.g.g.d.u.{ [ ] Y Y Y U ] ] [ [ [ [ [ [ ] Y L L P P P P K K J N N s s i i 9 ",
"Z.Z.Z.Q.Q.Q.Q.Q.Q.Q.U.U.U.U.I.I.B.B.B.V.V.m.m.m.V.V.V.V.V.B.B.B.P.I.I.I.I.I.I.I.I.I.I.I.P.P.P.P.I.I.I.I.P.P.P.I.U.Q.T.!.!.!.!.7X7X!.8XK.G f a a a u u r r r j a a u r r u a a a a a a a u u u r u a a a r r r r r r t r r r r 1 < < < < < 1 1 , , , o o o o O               X X O O o o o o o o o o X o X o X X X X o o o o o o X X X o o X X X X X X X X X X O o O O O O O o X X X X X         X X X X X X X X X X X                                                                                                                                                                                                                                     X X     h H.%X@X*XXX@XXXXXXXXX@X%X*X-X-X-X*X*X-X-X*X*X@X%X%X@X@X@X&X*X&X*X*X&X&X&X*X*X&X&X&X$X=X=X=X=X-X=X$X&X&X@XXXoXoXoX{.{.{.{.oX@XoXXX@XXXXX@X@XXX@XXX@X&X@X@X*X=X=X-X-X=X=X=X=X=X-X=X*X*X=X-X=XXX$XOX].,.n +.+.@.@.@.@.@.@.#.&.&.&.&.&.&.&.=.>.>.>.>.>.>.>.>.;.;.;.;.>.;.;.>.2.2.;.<.2.2.2.2.2.2.2.2.<.2.2.2.2.2.>.>.>.;.;.>.;.;.;.;.>.>.>.>.>.;.>.>.>.>.>.;.&.&.&.&.&.&.%.@.@.@.@.@.@.@.+.n n n n n z z M M M M z k k l l k 2.`. XOXOXOX+X=X:X:X:X>X3X3X3X3X3X3X2X2X2X2X2X2X2X2X2X2X2X3X>X=X=X=X=X&X+XOXXXoX|.F..X.X.X.X.XF.F.F.J..X.XoXoX.XoXoXXX.X.X|.'.D.0.9.G.D.D.D.D.0.D.D.D.0.9.w.<.9.9.G.G.1.e + 3   O O o o o o o o o o o + + + + + + + + + + o O o + - , , , 1 1 1 , , , , , , , , 1 1 1 1 , - , , , , - - ; ; - - - - - - - - - - - - - - - , , , , 3 1 1 , 1 1 1 1 , 1 1 1 1 1 1 1 1 1 1 1 1 1 1 1 1 1 1 1 3 3 3 3 1 3 w w w w a a a a a a u u t u f P ] p.c.R.8X9X9X0X9XwX9X9X8X8X8X7X7X7X7X0X0X0X0X0X0X0X0X0X7X6X6X4X6X4X4X4X4X4X4X6X6X6X6X4X4XT.T.4X4X4X4X4X4X4X4X4X4X4X4XT.T.T.T.4X4XT.T.T.T.T.Y.Y.Y.Y.Y.I.I.I.I.I.I.I.I.I.I.I.I.C.C.C.C.C.C.C.m.C.C.B.B.B.m.n.b.b.z.x.x.x.j.g.s.d.d.u.{ { ] Y Y Y Y Y ] [ [ { [ { { { ] ] ] I L L L P K K J N N s s i u 9 ",
"B.Z.U.Q.Q.Q.Q.Q.Q.Q.U.U.U.I.I.Z.B.B.B.V.n.n.n.m.B.B.B.B.V.B.B.B.P.I.I.I.P.I.I.I.I.I.I.I.I.P.I.I.I.I.I.I.P.P.P.I.R.Q.T.W.!.!.!.7X7X!.wXv.p f f a a a u u r r r j a u u u u a a a a a a a a a r r u a a u r r r u r r t t r t < < 1 1 < < 1 1 , , , , o o o o O                 X O o o o o o o o X o o o o X X X X X o o o o o o X o o o o o o o X X X X X X X O X X X X X X X X X X X X X X X   X X X X X X     X X                                                                                                                                                                                                                                       X X X O O 1.;X@X@X=X@X@XXXoXoXoX@X*X*X-X-X-X-X-X-X-X-X%X%X@X@X@X@X%X*X&X*X*X&X&X&X*X*X&X@X@X$X*X=X=X=X-X=X=X$X@X@XOXXXoXoX{.{.F.{.{.XXoXXX@XXX@X@X@XXX@XXX$X=X@X@X*X&X=X=X=X=X=X=X=X=X-X=X*X*X=X-X=X@XoXOXOX3.n @.+.+.+.#.#.+.@.#.&.&.&.&.&.&.&.=.>.>.>.>.>.>.>.>.>.>.,.,.,.>.>.2.<.>.2.2.2.2.2.2.2.2.2.2.2.2.4.4.2.2.2.2.>.>.>.>.>.>.>.>.>.>.>.>.>.;.>.;.;.;.;.&.&.&.&.&.%.%.@.@.@.@.@.+.@.@.n n n n n z z M M M M M M M l k k %.'. XOXOX,X+X=X:X:X:X:X3X3X3X3X3X3X3X2X2X2X2X2X2X2X2X2X2X2X3X=X=X=X=X=X&XOXXXXXXX.X.X.X|..X.X.XF.J..X.XoXXXXX.X.X.X.XoX.X|.D.D.D.D.9.G.D.J.J.D.0.0.D.D.9.9.9.9.9.9.G.1.c 4 + - + O   o O o o O O O O o o + + + + + + + + o O O o + - + , , 1 1 , , , , , , , , , 1 1 1 , , - , - , , - - - - - - - - - - - - - - - - , , , , , 3 3 3 1 1 1 1 1 1 1 1 1 1 1 1 1 1 1 1 1 1 , , 1 1 1 1 1 1 3 3 3 3 1 1 3 3 3 3 w a a u a a u a a u t u u p f ~ } c.R.wX8X8X8X8X8X9X8X7X8X0X0X0X0X0X0X0X0X0X0X0X7X7X7X6X6X6X6X6X4X4X4X6X6X6X6X6X6X4X4X4X4X4X4X4X4X4X4X4X4X4X4X4X4XT.T.T.4X4XT.T.T.T.T.T.Y.Y.Y.Y.Y.Y.Y.Y.I.I.I.I.I.I.C.C.C.C.C.C.C.C.C.C.C.C.B.B.B.m.n.b.z.z.x.j.j.s.d.d.d.{ { { [ Y Y Y Y ] ] [ { { { { { } } [ ] ] ] Y I L L P K J N N s s i 0 9 ",
"B.Z.Z.Q.Q.Q.U.U.Q.Q.U.U.U.I.Z.Z.P.B.B.V.n.n.m.m.B.B.V.V.B.B.B.B.P.P.P.P.P.P.I.I.U.U.U.I.I.I.I.I.I.U.U.I.P.P.I.I.R.R.R.T.!.!.7X7X7X!.wX} u G f a a a u u r r r r a a u u u u a a a a a a a a a r u u a a r r r u u r r r r t < < 1 1 1 < 1 < , < , 2 o o o o O               X X o o o o o o o o X o o o o o X X X X X o o o o o o o o o o o o o o o X X X X X X X X X X X X X X X X X X X X X X X X X X X X     X                                                                                                                                                                                                                                         X X X O   d F.%X#X*X@X@X#XoXH.oXXX@X*X*X*X-X-X*X*X-X-X*X@X#XXXXX@X@X&X@X&X&X@X&X&X*X*X&X@X@X&X*X=X=X=X=X*X*X$X@XXXoXoXoXoX{.{.D.{.oX@XXX@X@X@X@X@X@X@X$X@X*X=X&X&X*X&X=X=X=X=X-X-X-X=X=X*X*X=X=X=X=X&X@XOXOX0.@.+.+.+.+.#.#.@.+.#.#.&.&.&.&.&.&.=.>.>.>.>.>.>.>.>.>.>.2.2.2.2.2.2.2.2.>.>.>.2.2.2.2.2.2.2.2.4.4.4.2.<.2.2.>.>.>.>.<.2.2.2.>.>.>.;.;.;.;.&.&.&.&.&.%.%.&.&.@.@.@.@.@.@.@.n +.+.n n n n z z M M M M M M k M l 4 S OX`.OX+X=X:X:X:X:X:X:X3X3X3X2X2X2X2X2X2X2X2X2X2X2X2X2X2X2X2X3X=X=X=X=X=X&XXXoXoXXXXXXXXX.X.X.X.X.X.X.X.XXXXXXX.X.X.X.X.X|.D.D.D.D.G.9.D.D.J.J.D.D.0.0.0.9.0.9.8.9.9.9.Z + - +   + O o X X X X O O O O o o o + + + + o + + + o O + - ; + , 1 1 1 , , , 1 1 1 , , , , , 1 , , , - - - - , - - - - - - , - - - - - - - - , , , , , , 3 3 1 , , 1 1 1 1 1 1 1 1 1 1 1 1 1 1 1 , 1 1 1 1 1 1 1 3 3 3 1 1 1 1 1 1 1 w a a 3 a u 1 1 a a a a a u r u f K | l.R.E.~.7X8X8X8X7X8X8X8X8X8X9X0X0X9X9X0X7X7X7X7X7X7X6X6X6X6X6X6X6X6X6X6X6X6X6X6X6X4X4X4X4X4X4X4X4X4X4X4X4X4XT.T.T.4XT.T.T.T.T.T.T.Y.Y.Y.Y.Y.Y.Y.Y.I.I.I.I.I.I.C.C.C.C.C.C.C.C.C.m.C.C.B.B.B.m.n.b.z.x.j.g.s.d.d.u.i.{ [ [ [ Y Y Y Y ] [ { } i.{ { { } { [ [ [ ] ] ] ] L L P J N N f s i u 0 ",
"B.Z.Z.Q.Q.Q.U.U.Q.Q.Q.U.U.I.P.Z.P.P.B.V.V.V.B.B.B.B.V.B.B.B.P.P.I.P.B.B.P.P.I.I.U.U.U.U.U.U.U.U.I.U.U.I.I.P.I.U.R.R.R.T.!.7X7X8X7X!.~.| u G f a u u u u u u j j u u u u u u u a a a a a a a a u u u a u r r r u u u r r r r < < < < < < < < < < , , o o o o O               X X o o o o o o o o X X o o o o X X X X X o o o o o o o X X X X o o o o X X X X X X o o O O O O o X X X X X X X X X X   X X X X X                                                                                                                                                                                                                                             X X X   +   ' %X%X#X%X%X#XoXH.oX.X#X@X*X*X*X*X*X*X*X*X*X%X#XXXXXXX@X@X@X&X&X@X&X&X&X&X&X&X@X&X*X=X=X=X*X*X*X$XXXXXoX{.{.{.{.{.F.{.oX@X@X@X@X@X@X&X&X@X=X$X*X=X&X@X*X=X=X=X-X-X-X-X=X=X*X*X*X*X=X=X*X&X*XOXOX0.#.n +.+.+.#.#.#.@.#.&.&.#.&.&.&.&.=.>.>.>.>.>.>.,.,.,.,.3.2.3.3.3.3.3.4.2.2.,.>.2.2.2.4.2.4.2.2.2.<.>.;.2.<.>.;.>.>.<.2.2.>.;.;.;.;.;.;.;.&.&.&.&.&.%.&.&.&.@.@.@.@.@.@.@.+.+.+.n n n n z z M M M M M M l k k S `.OX:XOX+X=X:X:X:X3X3X:X3X3X2X2X2X2X2X2X2X2X2X2X2X2X2X2X2X2X3X3X=X=X=X=X=X+XOX.X.X.XoXoXoX.X.X.X.X.X.X.XoXXXXXXXXX.X.X.X.X|.D.D.D.D.G.9.D.D.D.D.D.D.0.9.9.9.9.9.9.D.8.^ 3 - + O O     X X X X X X O O O o o o o + + + + + + + + o + - - , 1 1 1 , , , 1 1 1 , , , , , , , , , - - - - - - - - - - - , , - - - - - - - - , , , , , , , , - - - - 1 1 1 , 1 1 1 1 1 1 1 1 1 1 , 1 1 1 1 1 , 1 1 1 1 , , 1 1 1 1 1 1 w a 1 a a a a a j r a a a r j r r f K | v.P.~.8X8X8X7X8X8X8X8X9X8X0X0X9X9X0X7X7X0X0X0X7X7X7X6X6X6X6X6X6X6X6X6X6X6X6X6X4X4X6X4X4X4X4X4X4X4X4X4X4X4XT.T.4X4XT.T.T.T.T.Y.Y.Y.Y.Y.Y.Y.Y.Y.I.I.Y.I.I.I.I.I.C.C.C.C.C.C.m.m.m.m.B.B.B.m.n.b.z.k.j.g.d.d.u.{ { { { [ ] Y Y Y ] [ { } i.} { { { { { [ [ [ [ ] ] ] I L P J J N f s i 9 9 ",
"Z.Z.U.Q.U.U.U.U.Q.Q.U.U.U.I.Z.B.P.B.B.V.m.V.B.B.B.V.V.B.B.P.I.I.I.I.B.B.P.I.I.I.I.I.I.U.U.U.U.U.I.U.U.I.I.I.U.U.R.Q.R.T.!.!.7X7X7X!.E.o.p f h a a u u u u u j j r r u u u u u a a a a a a a a a u u r r u a u u u r r r r r t t < 1 < < < < < < , , o o o o o X             X X o o X X X X o o o o o o X o X X X X X o o o o o o o o X X X X X o O X X X X X X o o o O O O O X X X X X X X X X X   X X X X                                                                                                                                                                                                                                   X X X     X X X X   -   h G.%XH.%X%X@X#X.XoXoX.X.X%X%X*X*X*X*X*X*X%X%X@XXXXXXXXXXX#X@X@X@X@X&X&X@X&X&X@X@X$X=X=X*X*X*X$X$X@XXXoX{.{.{.{.{.F.{.oXXX@X@X@X@X@X&X&X@X&X*X$X$X$X&X$X=X=X-X=X=X=X-X=X*X*X*X*X=X=X=X=X=X&XoX].e.=.n +.+.+.#.#.#.#.#.#.&.#.&.&.&.&.=.>.>.>.>.>.,.,.,.,.2.3.3.3.3.0.0.0.0.3.3.2.2.2.2.2.2.2.2.2.2.2.5.;.;.<.>.>.>.>.>.>.<.,.>.;.;.;.;.;.;.;.;.&.&.&.&.&.&.&.&.@.S @.@.@.@.@.@.@.+.n n n n z z M M M M M l l l b  X+X X:X+X=X=X:X:X:X>X3X:X3X3X2X2X2X2X2X2X2X2X2X2X2X2X2X2X2X2X3X3X3X=X=X=X$X+XXX.X.X.X.X.X.X.X.X.X.X.X.X.X.XXXXXXXXX.X.X.X.XJ.D.D.D.D.D.D.D.J.J.D.D.0.9.9.9.9.8.9.9.8.^ 4 O - O O o           X X O O O O o o o o o o o o o o o o + o + - , 1 1 1 , - , , , , - - , , , , , , , , , , - , - - - - , , , , - - - - - - - - - ; ; , , , ; ; - - - , 1 1 1 , 1 1 1 , 1 1 1 1 1 1 1 1 , , , 1 , 1 1 , , , , 1 1 1 1 1 1 1 1 1 , 1 3 3 w 3 1 3 3 3 3 a a a 1 t f P } l.P.W.~.!.8X7X7X7X7X7X0X0X0X0X0X0X0X0X0X0X0X7X6X6X6X6X6X6X6X6X6X6X6X6X6X4X4X4X6X6X4X4X4X4X4X4X4X4X4X4XT.T.T.T.T.T.T.T.Y.Y.Y.Y.Y.Y.I.I.I.I.I.I.I.I.I.I.I.I.C.C.C.C.C.C.m.m.m.m.B.B.B.m.n.b.z.k.j.s.d.u.i.{ { { { T Y Y Y Y [ { } } { { { [ [ [ [ [ ] [ [ ] Y I I L P P J N N s i 9 9 ",
"Z.Z.Q.Q.Q.U.U.U.Q.Q.U.U.I.Z.B.B.B.B.V.m.m.V.B.B.B.B.V.B.B.P.I.I.U.I.B.B.P.I.I.I.I.I.I.I.U.U.U.U.I.U.U.U.I.I.U.U.R.R.R.T.!.!.7X7X7X8XP.U p f f h a a u u r r j j r r r r r u u a a a a u r a a u u r r r a a u r r t t t r r t 1 1 1 1 1 < < < 1 , , 2 o o o o X               X X X X X X X X X o o o X X X o o X X o o o o o o o o o o o o o X O X     X X X X X X X X X X X X X X X X X X X X       X X X                                                                                                                                                                                                                                 X X X X X X X X X X O   O   ( #X%X#X%X@X#XXXoXoXH.H.%X%X*X-X*X*X*X*X@X%X&X@XXX.XXXXXXX@X@X@X@X&X@XoX&X@X@X@X&X$X$X$X&X&X@X@XXXXXoX{.{.{.{.{.D.D.{.oX@X@X@X@X@X&X&X@X@X*X$X$X=X$X@X=X=X=X=X*X=X=X*X&X=X=X*X-X-X-X-X=X+X'.OX'.3.@.#.+.+.#.#.#.@.@.#.&.#.&.&.&.&.=.>.>.>.>.,.,.,.,.2.4.4.2.2.3.3.3.3.3.4.4.2.2.2.2.2.2.<.2.2.2.<.5.;.;.;.;.>.<.2.2.2.>.2.,.>.;.>.;.;.;.;.;.&.&.&.&.&.&.&.%.#.@.@.@.@.@.@.@.@.+.n n n b z z M M M l l k k m `.OXOX:X+X=X:X:X:X:X:X3X3X3X3X3X2X2X2X2X2X2X2X2X2X2X2X2X2X2X2X2X3X3X3X3X=X=XXX+XXXoX.X.X.X.XF..X.X.X.X.XoXoX.XXXXXXXoX.XJ.J.D.D.D.D.D.D.D.D.D.J.|.D.0.9.9.9.9.<.8.9.1.^ e + - O                 X X O O O O o o o o o o o o o o o o O O o o + , , , - + - , - - - - - , , , , , , , , , , , - - - ; , , , , - - - - - - - - - - ; , , ; - - 1 1 1 1 1 3 1 1 3 1 1 , , - 1 1 1 1 1 , - - - , 1 1 1 1 , , 1 1 1 1 1 1 1 1 1 1 3 3 1 1 3 3 3 3 1 a w 1 1 a u u u i f K | l.E.!.7X7X7X7X7X7X7X0X6XqX0X9X9X0X0XqX0X0X6X6X6X6X6X6X6X6X6X6X4X4X4XT.4X4X6X4X4XT.T.4X4X4X4X4X4X4X4X4XT.T.T.T.T.T.Y.Y.Y.Y.Y.Y.I.I.I.I.I.I.I.I.I.I.C.C.I.C.C.C.C.C.C.m.m.m.m.B.B.m.n.b.z.k.j.s.d.u.i.{ [ [ T Y Y ] ] Y [ [ { { { { { { [ [ [ [ ] ] [ ] ] ] ] I L P J N B s i 9 9 ",
"Z.Z.U.Q.U.U.U.Q.U.U.I.U.U.I.Z.B.B.B.B.V.V.V.V.V.V.V.B.B.B.B.Z.Z.B.B.P.I.U.I.I.I.U.U.U.U.U.U.U.U.U.I.I.U.U.I.U.U.Q.R.W.!.!.7X7X8X8X!.P.K u f f a a a u r r a a j u r r a a a a h a a a u r u u r u r r r a a u u u r r r t < < < 1 < < < < < < < , , , 2 2 o o o                 X X o o o o o o X X X X X X X X X o o o X X X X X X X X X X X X X X X X X X X X   X X X X   X X   X X         X X X     X X     X X                                                                                                                                                                                                                                               ,     3 F.#X#X%X@X@X#X@X#XF.H.XX@X%X*X*X*X*X*X*X&X@X@X#XoX.X.XoXXX@X#X@X@XXXoX&X&X@X@X@X&X@XoXXXXXXXXXXXoX.X'..XD.D.'.{.{.{.oXoX@XXXoXXX@X&X*X&X&X*X*X=X=X*X$X=X=X=X=X*X&X&X*X-X=X=X>X>X=X=X=X&XXX|.'.e.3.&.+.#.#.#.#.#.@.@.&.&.=.=.=.=.>.>.>.>.,.3.3.,.,.3.3.4.2.2.3.3.3.3.3.3.4.3.3.3.2.2.2.<.<.<.2.2.2.<.<.<.2.2.>.2.2.4.2.2.2.2.>.>.>.>.>.>.>.;.&.&.&.&.%.#.#.#.@.@.@.@.+.@.@.+.+.n z z z z z z k M M M 4 S '.+XOX=X=X=X=X:X:X>X3X3X3X3X3X2X2X2X2X2X2X2X2X2X2X2X2X2X2X2X2X2X3X3X3X=X=X=X=X$XXX.X.X.X.X.XF.F..XoXoX.X.XoX@XoXoXoXXXXXoX.XF.D.D.D.D.D.D.D.D.D.J.D.9.9.9.9.9.9.9.8.1.^ e + O O o X               X X O O O O o O O O o o o O O o o o o o o o o o - , , , - - o o + - - - , , - - - - - - - - - - - - - - - - ; - - - + - - ; - - - - ; - - - 1 1 1 1 1 1 1 1 1 1 1 1 1 , , - , , , , , , , , , , , , , , 1 1 1 , , 1 1 1 1 1 1 3 3 3 3 1 3 3 3 3 1 1 w w 9 1 u u u s f P X.K.!.7X6X6X6X6X6X6X0X0X9X9XqX0X0X0XqX6X6X6X6X6X6X6X6X6X6X6X6X4X4X4X4X4X4X4X4X4X4X4X4X4X4X4X4XT.T.T.T.T.T.T.T.T.T.T.T.T.Y.Y.Y.Y.Y.Y.I.I.I.I.I.I.I.C.C.C.C.C.C.C.m.m.C.C.C.B.m.M.n.n.x.j.s.d.u.i.i.i.{ [ ] Y Y Y Y Y ] ] { { { { { { [ [ ] [ [ [ ] ] ] Y ] I L P K N s s 0 9 8 ",
"Z.Z.U.Q.Q.U.Q.Q.U.U.U.U.U.I.I.B.P.B.B.B.V.V.V.V.V.B.B.B.B.B.B.B.B.B.P.I.U.I.I.U.U.U.U.U.U.U.U.U.U.I.I.U.U.I.U.U.R.R.T.!.!.7X7X8X!.8XK.K p f h a a a u r r a a j r r r a a a a a a a a a u u u u a r r r a u r r u u r r t < < < < < < 1 < < < < , , , 2 2 o o o X               X X O o o o O o o o o o o o o o X o o o o o o o o X X o o X o X X X X X X X X X X X X X X X X X X X X       X X X X     X X     X X                                                                                                                                                                                                                                               O o O O ' ;XH.#X@X@X#XXX.XH.H.XX@X%X*X*X*X*X*X&X@X@X@X#XoX.X.XoXXXXXXXoX@X@XXX&X&X@X@X@X$X@XXX@X@X@XXXXXXXoXoX'.D.D.D.F.D.F.{.oX@X#XoXXX#X#X@X@X&X&X&X$X&X$X$X=X*X*X*X&X&X*X=X-X=X=X-X>X-X=X=X&X+XoX`._.0.>.#.+.@.#.#.#.#.#.&.&.&.>.>.,.,.>.>.>.,.3.3.,.,.3.3.2.2.2.3.3.4.4.3.4.4.3.3.4.4.2.2.2.<.2.2.2.2.2.2.2.2.2.2.2.2.4.2.2.2.>.>.>.>.;.;.;.>.>.;.;.&.&.#.@.#.@.@.@.@.@.+.+.n n n n z z z z M M z k M 4 b D.$XOXOX:X=X:X>X:X>X3X3X3X3X2X2X2X2X2X2X2X2X2X2X2X2X2X2X2X2X2X2X3X-X=X=X=X=X=X&XXXoX.X.X.X.X.XF.F..XoXoX.X.XoXXXXXXXXXXXoX.X.XF.D.D.D.D.D.D.D.D..XD.9.0.9.9.9.9.8.8.8.( e + +   X X                   X     O O O O X O o o o o O o o o o o o + o o o + - - - o - - - - - - , , - - - - - - - - - - - - - - - - - - - - - - - - - - - - - - - - ; ; ; - - , , , , , 1 1 , , - - , , , , , , , , , , , , , , , 1 , 1 , 1 1 1 1 1 1 1 3 3 3 1 1 3 3 1 1 1 1 1 1 9 1 u r u u p g ~ p.M.!.7X7X9X9X6X6X0X9X0XqX0X0X0XqX6X6X6X6X6X6X6X6X6X6X6X6X6X4X4X4X4X4X4X4X4X4X4X4X4X4X4X4XT.T.T.T.T.T.T.T.T.T.T.Y.Y.Y.Y.Y.Y.Y.Y.I.I.I.I.I.I.I.C.C.C.C.C.C.m.m.m.m.C.B.B.m.m.n.b.x.j.s.d.u.i.} { { { ] Y Y Y Y Y Y ] ] [ ] ] ] [ ] ] ] ] [ [ [ ] ] ] ] _ L P K N s s 0 8 8 ",
"Z.U.Q.Q.Q.Q.Q.Q.U.U.U.U.U.U.I.Z.P.B.B.B.B.V.V.V.V.B.B.B.B.B.B.B.B.B.P.U.U.U.U.U.U.U.U.U.U.U.U.U.U.I.U.U.U.I.U.U.R.Q.T.!.!.!.7X7X!.wXl.G f f h h a u u r u u a r r r r a u u a a a a a a u u u u a r r u a u r r u r r r r 1 < < < < 1 < 1 1 < < < , , 2 2 o o o X                 . X X X X X o o o o o o o o o X X o o o o o o o o o o X X X X X X X X X X X X X X X X X X X X X X     X X X X X X   X X X     X X                                                                                                                                                                                                                                             O   2 o   h G.#X#X#X%X&X#XXX#X.XXX#X%X*X*X*X*X*X@X@X@X@XXXoX{.F.F..XXXXXoX@X@X@X&X@X@X@X&X$X@XXX&X@X+XXXXXXXoX|.'.D.D.D.D.D.D.D.F.oXXXXX#X@X@X@X@X@X@X@X@X&X&X*X*X*X&X&X&X&X*X-X=X-X-X-X-X>X-X=X&X&XXX'.'.'.0.>.+.+.@.#.#.#.#.&.&.=.>.,.,.,.>.>.,.3.3.3.3.4.3.3.2.4.2.3.3.3.3.3.3.4.3.3.4.3.4.2.4.4.2.2.2.2.2.2.2.2.2.2.2.2.2.2.>.>.>.>.>.>.;.;.&.;.;.&.&.&.%.@.@.@.@.@.@.@.@.+.n n n z n z z z z M z M M k l 0.=X=X+X=X3X:X:X:X3X3X3X3X2X2X2X2X2X2X2X2X2X2X2X2X2X2X2X2X2X2X2X2X>X=X=X=X=X=X&XXXXX.X.X.X.X.X.X.X.X.X.XoXoXoXoXoX@X@XXXXX.X.XJ.J.H.F.F.F.F.F.F.F.J.J.D.9.9.9.9.G.9.G.' e +     O                   .       X X X O X X O o o o o O o o o o o + + o o o o - - - - - - - - - - - - , , - - - - - - - - - - - - - - - - ; ; - - - - - - - - - - - - - - - - - - - - , 1 1 1 , , - - , , - - , - - - , , , , - - , 1 , , 1 - - - 1 3 1 1 1 1 1 1 1 1 1 1 1 1 1 1 1 w 9 a 1 a a a a f J } K.!.!.!.!.!.9X7X6X5XqX9X0X5X0X0XqX6X6X6X6X6X6X6X6X6X6X6X4X4X4X4X4X6X4X4X4X4X4X4X4X4X4X4XT.T.4X4XT.T.T.T.T.T.Y.Y.Y.Y.Y.Y.Y.Y.I.I.I.I.I.I.I.C.C.C.C.C.C.C.C.C.m.m.m.m.B.m.n.z.x.j.d.u.u.} { { { ] Y L L L L L L L ] ] ] ] ] ] Y Y ] ] [ [ ] ] ] ] ] _ L P J N i i 9 8 8 ",
"Z.Z.Q.Q.Q.Q.Q.Q.Q.U.U.U.U.U.I.Z.P.B.B.B.B.V.V.V.V.V.B.B.B.B.B.B.I.P.P.U.U.U.U.U.U.U.U.U.U.U.U.U.U.U.U.U.U.I.U.R.R.Q.T.W.!.!.7X7X8X8X| p f f f h u u u r r u j r r r r u u u a a u u u u u u u u u r r r a u u u r r r r r t 1 < < < < 1 < < < < , < , 2 2 o o o o X                 X X X X X o X X X X X o o o X X X X o o X X o o X X X X X X X X X X X X X X X X X X X X X X O X     X X X X X X X X X X     X X                                                                                                                                                                                                                                           X X X X o o O Q H.#XoX#X*X@XXX@X#XoXXX@X%X%X%X&X&X&X@X@X@XXXoX{.F.D.F..XXXoXXX@X@X@X@X@X@X@X&XXXoX@X@XXXXXXXoX|.'.D.D.D.D.D.D.D.D.D.oXXXXX@X&X&X*X@X@X@X@X@X&X*X=X*X&X&X&X*X=X=X-X-X-X-X=X-X>X>X=X=X&XXX{.|. X_.0.*.n n #.#.#.#.&.&.=.>.>.,.,.>.>.,.,.3.3.3.3.3.2.3.2.2.3.3.3.3.2.2.3.3.3.3.4.3.2.4.4.2.2.>.>.>.>.2.2.2.2.2.2.2.<.>.>.>.>.>.;.;.;.&.&.&.&.%.%.#.#.#.@.@.@.@.@.@.n n n z z z z z z z M z k l k 2.:X+X&X:X>X:X:X>X=X>X3X3X3X3X3X2X2X2X2X2X2X2X2X2X2X2X2X2X2X2X3X2X2X-X=X=X=X=X=X=X&XoX.X.X.X.X.X.X.XoX.X.XoXoXoXoXoXXXXXXXXX.X.X.X.XF.F.F.H..X.XH.F.D.J.D.9.9.G.D.G.G.1.e   O     o                               X O O O O O O O O o o o o o o o + , , + + - - , , - - - - - - - - - , , - - - - - - - - - - - - - - - ; ; - - - - - - - - - - - - - - + + + + - - , , , , 1 , , - - - - - - - - - , , , , - , , , , , - , , - 1 1 1 1 , 1 1 1 1 , 1 1 1 1 1 1 1 1 1 1 1 r a a a h p G | c.~.~.~.8X!.8X8X7X7XqXqXqXqX0XqX6X6X6X6X6X6X6X6X6X6X6X6X6X4X4X4X6X4X4X4X4X4X4X4X4X4X4XT.T.4X4XT.T.T.T.T.T.T.Y.Y.Y.Y.Y.Y.Y.I.I.I.I.I.I.I.C.C.C.C.C.C.C.C.C.C.C.m.m.B.m.b.z.k.h.d.u.i.{ { [ [ ] L L P P P L L L ] ] ] ] ] ] ] Y Y ] ] ] ] ] ] ] ] L P J N p i i 9 8 8 ",
"Z.Z.Q.Q.Q.Q.Q.Q.Q.Q.U.U.U.U.I.Z.B.B.B.V.V.V.V.V.V.V.V.B.B.Z.I.I.I.P.P.U.U.I.I.U.U.U.U.U.U.U.U.U.U.U.U.U.U.U.U.R.R.R.T.!.!.!.7X7X8XE.L u f f h a u u r r u u r r u u r r r u a a a a u r r r u u u r r u u u u u u u r r r r r t r r < < < < < < < , , 2 2 o o o o O                 X X X X o o X X X X X X X X X X X X o o o X o o o o o X X X O X X X X X X X X X X X X X X X O X X X X O X X X X X X X X X X X                                                                                                                                                                                                                                             X X X X o ,   1 8.#X#XH.%X%X.X#X#XXXXX@X@X@X@X&X&X&X&X&X@X@XoX.XF.D.D.F..XXXoX@X@X&X&X@X@X@X@XXX{.XXXXXXXXoX.X'.'.D.D.D.D.D.D.D.F.D.XX#XXX#X@X@X&X&X&X@X@X&X&X*X=X&X&X&X*X=X=X-X-X-X-X-X=X=X-X-X*X&XXX|.oXOXOX`._.3.@.n @.#.#.&.=.&.=.>.>.>.>.>.,.,.,.,.4.3.3.3.3.3.2.2.3.3.3.2.2.3.0.0.3.4.3.3.4.4.4.4.2.2.2.2.2.<.>.>.>.<.<.>.>.>.>.>.>.;.;.=.=.;.&.&.%.@.#.#.%.#.@.@.@.@.#.@.n n n z z z z z z z M M M k -.:XOX=X>X2X>X=X>X2X>X3X3X3X3X2X2X2X2X2X2X2X2X2X2X2X2X2X2X2X2X2X2X2X2X3X=X=X=X&X@XXXXX.X.X.X.X.X.X.X.XoXoX.XoXoXXXoXoXXXXXXXXX.X.XF.F.F.F.H.H.H.H.J.F.F.G.9.9.G.G.G.G.1.e O O     O         .             X X X X X X X O O O O O O O o o o o o o o o , , - + - - - , - - - - - - - - - - - - , , - - - - - - - - - - - ; - - - - - ; ; - - - - - - - - - + + + + - - - - - - - - - - - - - - - - - - - , , , - - - , , , - - - , 1 1 1 1 1 1 1 1 1 1 1 1 1 , 1 1 1 1 9 w 1 1 j r r a f u f o.v.l.p.} u.c.E.8X6XT.6X0X6X6X6X6X6X6X6X6X6X6X6X6X6X6X6X6X4X4X4X6X4X4X4X4X4X4X4X4X4X4XT.T.4X4X4XT.T.T.T.T.T.Y.Y.Y.Y.Y.Y.Y.I.I.I.I.I.I.I.C.C.C.C.C.C.C.C.C.C.C.m.m.m.M.z.x.j.h.u.i.i.{ { [ ] Y L L P P P P P L L I ] Y Y Y ] ] Y Y ] ] ] ] ] ] L L J N N i i 0 9 8 8 ",
"Z.Z.Q.Q.Q.Q.Q.Q.Q.Q.U.U.U.U.I.Z.B.B.V.V.V.V.V.V.V.V.V.B.B.Z.I.I.I.I.P.I.I.I.I.U.U.U.U.U.U.U.U.U.U.U.U.U.U.U.U.U.R.R.T.T.!.!.!.7X8XM.P p f h a a u u r u u r r r u a u r r u a a a u u r r r r r a u r u u r r r r r r r r r r r r r 1 < < < < < < , , : 2 o o o o O X               X X X X o o o o X X X o o o o o o o o o o o o o o o o o o o O O X X X X X X X       X X X   X X X X X X X X X X X X X X X X X X                                                                                                                                                                                                                                           X   X X 2 X o O C F.#XH.#X#XH.#X#XXX#X@X@X@X@X&X&X@X@X@X@X@X@XoXoXF.F.F.F..XoX@X&X&X&X&X@X&X&XXX.XXXXXXXXXXX|.'.'.D.D.D.'.'.'.D.D.D.oXXXXX#X@X@X&X&X&X@X@X&X&X*X*X&X&X*X-X-X=X-X-X-X-X=X=X=X=X=X&X$XoX|.OX+XOXOXOX_.>.@.@.@.#.&.=.&.=.>.,.,.,.,.3.,.2.2.4.3.3.3.2.2.2.3.3.3.3.3.4.0.0.0.3.4.4.3.3.4.4.4.4.2.2.2.2.5.5.5.>.<.>.>.>.>.>.>.;.;.;.*.*.*.&.%.%.%.#.#.#.@.@.@.@.@.@.+.n n z z z z z z z z z k k z OX:X=X>X=X3X>X>X3X>X>X3X3X2X2X2X2X2X2X2X2X2X2X2X2X2X2X2X2X2X2X2X2X3X3X3X>X=X=XXX.X.X.XXX.X.X.X.XF.J..XXXoXoXoXXXXXXXoXXXXXXXoX.XF.F.F.F.F.H.H.H.F.F.D.D.G.9.9.G.G.9.1.e O   O             . .             X X X X         X O O O o o o o o o O O O o o o o o + - - - , , - - , , - - - - - - - - - - - - - , ; - - - - - - - + + - - - - - - - - - - - - - + + - - - + + - - - - - - - - - - - - - - - - , , - - - - , - - - , , 1 - 1 1 1 1 1 1 , 1 1 1 , 1 1 1 1 , 1 w w 3 a r r a h h h h f f a u f L } c.E.8X8X0X7X6X6X6X6X6X6X6X6X6X6X5X6X6X6X6X6X4X4X6X4X4X4X4X4X4X4X4X4X4X4XT.4X4X4XT.T.T.T.T.Y.Y.Y.Y.Y.Y.Y.Y.I.I.I.I.I.I.I.C.C.C.C.C.C.m.m.m.C.C.m.m.M.b.z.j.j.h.u.i.{ { { [ ] L L P P J J J P P L L ] Y Y Y Y Y L L Y ] ] ] ] I L P N N N i i 9 9 9 8 ",
"Z.Z.U.Q.Q.U.Q.Q.Q.Q.U.U.U.U.I.B.B.B.B.B.B.V.V.V.V.V.V.B.B.B.Z.Z.P.B.P.I.I.I.I.U.U.U.U.U.U.U.U.U.U.U.U.U.U.U.U.Q.R.Q.T.T.!.!.!.7X8Xu.G f p f a a a r r u u r r r r u u r r a u r a a u u r r r r a u u u u r r u r r r r r r r t r r t t < < < < < < , 2 2 o o o o O O               X X X X o o o o o X o o o o o o o o o o o o o o o o o o o X O O X X   X X X X X     X X X   X X X X X X X X X X X X X   X X                                                                                                                                                                                                                                               X   X X o   o O , ' H..X.X#X.X#X#XXXXX#X@X@X@X@X@X@X&X&X@X@X@X@XoXoXF.F..XXXXX@X&X&X&X@X@X@X&XXXoXoXoXoXoXoX|.'.'.D.D.D.D.'.'.{.F.D..XoXXX@X&X&X&X&X@X@X@X&X&X&X@X@X&X*X-X=X=X=X=X-X*X*X=X=X=X*X&X@XXX+X&X=X&X+XOX X0.;.@.@.@.#.=.&.=.>.>.>.,.,.3.4.4.4.4.3.3.3.4.3.4.3.3.4.3.4.0.e.0.0.3.4.4.4.4.4.4.4.4.4.2.>.<.>.5.5.>.2.>.>.5.>.>.;.;.=.;.&.&.*.%.@.@.#.@.#.#.@.@.@.@.@.+.n n z z z z z z z z M M k k ,.,XOX>X>X&X>X>X2X2X>X3X2X2X2X2X2X2X2X2X2X2X2X2X2X2X2X2X2X2X2X2X2X3X3X3X3X=X=X=XXX.X.X.X.X.X.X.X.XF..XXXXXXXoXXXXX@X@XXXXXXXoX.X.X.XF.F.F..XoXXXH.F.F.F.G.G.G.8.G.G.' x O + O   O     X                           X   X X X X o X o o o O o o o o o O o o o o o + - - - , , - , , , , , - - - - - - - , , , 1 1 - - + + + + - - - + + - - - - - - - - - - - - - - - - - + + - - - - - - - - - - - - - - - - - - - - - - - - - ; , , , , , 1 1 1 1 1 1 , , , , 1 1 1 1 , - 1 1 1 u u r a 3 h h j 2 , < < < t f U v.R.8X0X7XqXqXqX6X6X6X6X6X6X5X5X5X5X6X6X4X4X4X4X4X4X4X4X4X4X4X4X4X4X4XT.4X4XT.T.T.T.T.T.Y.Y.Y.Y.Y.Y.Y.Y.I.I.I.I.I.I.I.C.C.C.C.C.m.m.m.m.m.m.M.M.b.b.x.j.h.s.u.{ { [ [ [ ] L P P J N N N J K P L ] I L L L L L L U Y ] ] U L P J N f s i 9 9 8 8 8 ",
"Z.Z.U.Q.U.U.U.Q.Q.Q.U.U.U.I.I.B.B.B.B.B.B.B.V.V.V.B.B.B.B.B.B.B.P.B.B.P.I.I.I.U.U.U.U.U.U.U.U.U.Q.U.U.U.U.U.U.Q.R.R.T.T.!.!.7X7XwX[ p p u f h a a u r u u r r j t r a u u a u t a a a u u r r r r r r u u u u a r r r r r r t t r r t t t < < < < < , 2 2 o o o o O O                 X X X o o o o o X X o o o o o o o o o o X o o o o X X X X o O X X X X X X X X   X X X X     X X X X   X X X X O X X     X                                                                                                                                                                                                                                               X   2   X   . O + x G.H.F.#X.X@XoX.XXXXXXX#X@X#X@X&X&X&X@X@X@X#XoX.XF..XXX@X@X#XXX@X@X@XXX@X@X@XoX.X.X.X.X|.|.'.'.D.D.D.D.'.'.{.{.F.oX#XXX&X&X@X#X*X@X@X@X*X&X@XXX@X&X*X=X=X*X*X=X=X*X*X=X=X*X&X&X@X=X=X=X=X=X&XOXOX X3.%.@.#.&.&.=.=.=.,.,.>.>.,.4.4.4.3.3.3.4.2.2.2.4.3.3.4.3.e.0.0.3.3.4.4.4.4.4.4.4.4.4.>.>.5.>.5.5.>.2.<.5.>.>.>.;.;.;.;.*.%.&.%.@.@.@.#.#.#.#.@.@.@.+.n z z z z z z z z z M M k M ;. XOX:X:X3X>X2X=X-X2X2X2X2X2X2X2X2X2X2X2X2X2X2X2X2X2X2X2X2X2X2X2X2X3X3X3X=X=X=X=X&XXX.X.XF.D.F..XF.F..X@XXXXXXXXXXX@X@XXXXXoX.X.X.X.X.XH.F.H.#X#X.XH.J.J.G.9.8.G.G.1.x O O O                                         X X X o o o O X o o X O o o o o o o o o - + - - - - , , - - , , , , - - - - , , , , 1 1 1 1 - - + + + - - - - - - + - - - - - - - - - - - - - - - - - - - - - - - - - - - - - - - , - - - - - - - - + - , , - - - , , 1 1 1 1 , , , , , 1 1 1 1 1 1 1 w 1 1 a u a a h a 3 1 - 1 1 1 1 t u f ~ p.L.wX7X7X0X0XqXqXqXqXqX6X6X5X5X6X6X6X4X4X4X4X4X4X4X4X4X4X4X4X4X4X4X4XT.4XT.T.T.T.T.T.Y.Y.Y.Y.Y.Y.Y.Y.I.I.I.I.I.I.I.C.I.I.C.C.C.m.m.m.M.m.M.M.b.z.k.j.s.u.i.{ [ [ [ ] ] L P P J N f J J J P L L L L L L L L L L L L L L P J N s i i 9 9 9 8 8 9 ",
"Z.Z.U.Y.Y.Y.Y.Q.Q.Q.Y.U.U.Z.Z.Z.B.B.B.V.m.n.m.V.V.V.B.B.B.B.B.P.B.B.P.I.I.I.I.I.P.I.U.U.I.I.I.U.U.U.U.U.U.U.U.U.Q.W.W.W.6X!.7X8XwX~ f p f f a a u u u r u r j j r r r r u u a a r r r r r r r r u u u u u u r r u u u r r r r r < < < < 1 < < < < < , 2 2 o o X o o X X o X             X X O o o o o o o o o o X o o o X X X X o o X X X X X X X X o X X X X X O X X X X X X O                                 X X X                                                                                                                                                                                                                                 X X                   X O   ( F.H.F.oX#X.X#X#X#X.X#X@X@XXX#XXXXX#XXXXXoXoXoX{.{.oX#XXXXX@X@X@XXXXXXX&X@XXX.X.X|.D.|.|.oXoX|.D.0.D.'.D.F..XoXXX@X%X%X@X@X*X@XXXXX&X&X&XXXXX@X&X&X&X*X*X*X*X*X*X=X=X*X*X*X*X=X-X=X-X=X-X=X$X+XOX_.*.@.#.&.&.&.=.;.>.,.>.2.,.4.2.2.2.4.3.4.4.3.4.2.3.3.3.3.e.0.0.3.3.3.3.3.4.3.4.4.3.4.4.2.2.2.2.2.2.>.5.>.,.5.;.>.>.=.=.=.&.&.&.@.@.&.&.#.#.@.#.#.@.n z z z z z z z z M z z @.;.q.`.OX+X:X>X3X3X3X1X2X2X2X2X2X2X2X2X2X2X2X2X2X2X2X2X2X2X2X2X2X2X2X2X3X-X-X3X-X-X=X=X=X@XXX.X.X.X.X.X.X.X.XoXoXJ.XXXXXXXXoXoXoXXXXX.XF.F.F.J.oXoX#X#XH.J.F.F.G.G.G.G.1.x                                           X X X     X X X X X X X X X X X o o o o o o o o - + + + + + + + , , , , , - , , 1 , - , , , , , , , , , , - - - - - - - - - - - - , ; - - - - - - + - , - - - + - , , , + + + - - - - - - - , , , - - - - 1 , , , , 1 1 , - , 1 , , , 1 1 1 , , , 1 1 1 1 1 1 1 1 w w a a w 3 1 , - - 1 1 1 9 1 u f K } P.!.9X7X6X9X7X4X0X6X6X6X6X6X6X6X6X6X6X6X6X6X4X4X4X4X4X4X4X4X4X4X4X4X4X4XT.T.Y.T.T.Y.Y.Y.Y.Y.Y.Y.Y.I.I.I.I.I.C.C.C.I.C.C.C.C.C.m.m.M.M.b.b.b.z.j.f.u.u.i.{ [ ] Y ] L L P J J N H f N J P P L L L L L L L L L L L L P J N N s i i 9 8 8 8 7 9 ",
"Z.Z.U.Y.Y.Y.Q.Q.Q.Q.U.U.U.Z.Z.Z.B.B.B.B.m.m.V.B.V.B.B.B.B.B.B.P.Z.Z.Z.Z.Z.I.I.U.I.U.U.U.U.U.U.U.U.U.U.U.U.U.U.U.Q.W.W.W.!.!.7X8XE.P f f f a a a u u u u r r j j j u u u u u u u r r u u r r r r u u u u r u r r r r r r r r u r t < t t r 1 < < < > , 2 2 o o o o o o o o X             X X X o o o o o o o o o o o o o o o o o X X X X X X X X X X X X X X X X X X X X X X X X X X X X X X X X                 X X X                                                                                                                                                                                                                                                     X X O   a 8.G.H.J.J.oXoX#XXXH..X.X#X#XXXoXoXoXXXXXoXoXoX.XoX#X#XXXoXXXXX@XXXXXXX@X@XXXXXXX.X.X.XoX.X|.D.D.F.D.D.F..X.XXX#X#X@X@X#XXX#X&X&X&X&XXXoX.XoX&X&X&X@X&X*X*X*X*X-X-X*X*X*X*X*X*X*X*X*X-X-X=X$XoX$X}.3.@.+.#.&.&.&.&.>.2.2.3.2.2.2.2.4.4.4.4.4.4.2.3.0.0.3.3.e.3.3.0.0.0.0.0.3.3.4.3.4.4.4.4.4.4.2.4.4.2.>.>.>.>.>.>.>.=.=.=.&.&.&.#.#.#.#.#.#.#.#.+.+.n z z z z z z z z S >.r._.'.`. X+X:X:X>X3X3X2X2X2X2X2X2X2X2X2X2X2X2X2X2X2X2X2X2X2X2X2X2X2X2X2X2X3X-X-X-X=X=X*X&X&XXXoX.X.X.X.X.X.X.XoXXXJ.J.XX&XXXXXXXXXXXoX.XF.F.F.J.H.#X%X#XH.J.oXF.8.8.8.G.8.C O   O                                         X X     X X X X X X X X X X X o o o o o o o o o o o o o + + + , , , , , - - , , , , , , , , , - , - , , - - - + + + + - - + + - - - - + , , - - - , , , , , + o o , , + + + - - + + - - + - - - + + + - , , - - , , , , - , , , , , , 1 1 , , , 1 1 1 1 1 1 1 1 1 w a w 1 1 , - + - , 1 - 3 w a a f ~ v.R.7X7X!.6X6X4X4X6X6X6X6X6X6X6X6X4X4X4X4X4X4X4X4X4X4X4X4X4X4X4X4XT.T.T.T.Y.T.T.T.Y.Y.Y.Y.Y.Y.Y.Y.I.I.I.I.I.I.C.C.I.C.C.C.C.m.m.m.M.M.b.b.z.k.f.d.i.{ { [ ] Y Y U L P J J H H f H N J J P L L L L L L P P P P P P J N N f i i 9 9 8 8 9 9 9 ",
"Z.Z.U.Q.Q.Q.Q.Q.Q.U.U.U.U.Z.Z.Z.B.B.B.B.V.V.B.B.V.B.B.B.B.B.P.I.I.I.Z.B.Z.I.I.U.I.U.I.U.U.U.U.I.U.U.U.U.U.U.Q.Q.Q.W.W.W.6X6X7X8XK.G p f f a a a r u u r r t r r a a a a u u r r r r u u r r r r u u u u r r r r r r r r r r r r r r r r r 1 < < < > 2 2 2 2 : o o o o o X X               X X o X o o o o o o X X o o o o X o o X X X X X X X X X X X X X X X o X X X X X X X X X X X X X X X X                                                                                                                                                                                                                                                                           X X O   O Z G.F.F.D.XX.XXX#X.XH.H..XXX.X.XXX.XoXoXoXoXoXXXXX@X@XXXoXoXoXXXXXXXXXXXXXXXXXXX.X.X.XoX.XD.|..X.XF.F..X.XoXXX.X.X#X@X@X@X@X*X*X*X&X.XF..XXX$X$X@XXX@X*X*X*X*X-X*X*X*X*X=X-X*X*X*X*X-X-X=X&XXX=XOX].&.n @.#.&.&.=.,.3.3.3.4.4.3.4.4.4.4.4.3.4.4.4.0.0.0.0.0.4.0.).0.0.).e.3.4.3.3.3.0.4.4.4.4.4.4.4.4.4.2.2.,.>.>.>.=.=.=.&.&.&.&.#.#.#.@.@.+.#.@.n z z z z z M z #.3._.OX XOX X|.OX+X:X>X>X3X3X2X2X2X2X2X2X2X2X2X2X2X2X2X2X2X2X2X2X2X2X2X2X2X2X2X2X1X-X=X=X*X=X&X@X@XXXoX.XoX.X.X.X.X.XoX@XJ.J.%X*X@X@XXXXXoX.XF.F.F.F.J.H.XX#X%X#XH.H.G.G.8.G.F.W       X                                         X X     X X X X X X X X X X X X o o o o o o o o o o o o + + + - , , + + - - - - - - , , , - - - - - - - - - + + + + + + - + + + + + + + , , - - - - , , , , + o o o - + + + + + + + + - + + + + + + + + - - + + - , , , - - , , , , , , ; , , , , ; 1 1 1 1 1 1 1 1 a 1 1 , - + + - - , - 1 1 a a s g _ l.R.0X7X6X6X4X4X6X6X6X6X6X6X5X6X4X4X4X4X4X4X4X4X4X4X4X4XT.T.T.T.T.T.Y.T.Y.Y.Y.Y.Y.Y.Y.Y.Y.Y.Y.Y.I.I.I.I.I.I.I.C.I.C.C.C.m.m.m.M.M.b.b.z.k.j.s.u.{ [ [ ] Y U L L P P J N H f f f N N J K P L P P P K J J J J J N N N N p i u 9 9 9 9 9 9 9 ",
"Z.Z.U.Y.Q.Q.Q.Q.Y.U.U.Z.Z.Z.Z.Z.B.B.B.B.B.B.B.B.B.B.B.P.B.B.P.I.I.P.P.Z.P.I.I.U.U.U.I.I.U.I.I.P.I.U.Q.Q.U.U.Q.W.Q.W.W.W.7X!.7XwXl.f p f f a a a r r u u t 1 r j a a a u u r r r u u r r r r u u u u u u r r u r u u r r r r r r t r r 1 1 < 1 < > < 2 2 2 : o o o o o O X                   X o X X o o o o X X X o o o X X o o X X X X X X X X X X X X X X X X X X X X X X X X X X X X     X X                                                                                                                                                                                                                                                                 X         X X X . + + 1.G.G.D.H..X#X#X#XoXH.H..XoX.XXXXXoX.X.XoXXXoXoX#X#X#XXXoX.XoXXXXXXXXXXX@XXX.X.X.X.XoX.X|.XX|.D.|..X.X.XoXF.F.H.#X@X%X&X*X=X*X&XXX.X{.XX&XXXXXXXXX@X*X*X*X*X*X*X*X*X*X=X-X*X-X-X-X-X-X=X&X=X+XOX].3.@.@.#.&.=.>.,.3.3.0.4.3.4.4.4.4.4.4.4.4.4.0.0.0.0.0.0.0.).'.).).).).0.3.4.3.0.0.4.4.4.4.4.4.4.4.4.4.4.2.>.>.>.=.=.=.&.=.=.&.&.#.#.+.+.@.@.+.n z z z M z %.e. XOXOXOX,XOXOX+X=X=X=X=X>X3X2X2X2X2X2X2X2X2X2X2X2X2X2X2X2X2X2X2X2X2X2X3X3X2X2X2X-X1X-X=X*X=X*X&X@XXXXXoX.XXXoX.XH..XoXXXXX.X.X&X&XXXXXoXoXJ.F.F.F.F.D.F.H.H.#X%X%X#XF.G.F.G.F.X.-   O O                                                     X X X X X X X X X X X X o o X o O O O o o o o o + + + + + + + + + - - - - , , - - - - - - - - + + + + + + + + - + + + + + + + - - - - - - - - - - + o o o - + + + + + + + + - + + - - - - - - - - - - - , , , - , , , , , , , ; , , , , , 1 1 1 1 1 1 1 1 1 1 1 - O O + - - - 1 1 1 1 h h f K | c.6X0X6X6X6X6X6X6X6X6X5X5X5X4X6X5X5X6X6X4X4X4X4X4X4XT.T.T.T.T.T.T.T.Y.Y.Y.Y.Y.T.T.T.Y.Y.Y.Y.Y.Y.Y.Y.I.I.I.I.C.C.C.C.C.m.m.M.M.b.b.z.k.h.s.u.u.{ [ ] U L L P P J J J N f p p f f N J J K K K J J J N N N N N N N N s i i u 9 9 9 9 9 9 9 ",
"Z.Z.U.Y.Q.Y.Y.Q.U.U.U.Z.U.U.Z.Z.B.B.B.B.B.B.B.B.V.B.B.B.B.B.I.I.P.P.I.I.I.U.U.U.U.U.U.U.U.U.U.U.U.U.Q.Q.U.U.Q.W.Q.W.W.W.7X7X7XwXh.f p a a a a a u u u u r t r j r r u u r r r r u u r r r r u u u u u r r u u u u u u r r r r r r r r r 1 < < < < < 2 : : 2 o o o o o o X                   X X X X X X X X o o o o o o o o o o X X X X X X X X X X o X X X X X X X X X X X X X             X X X X           X                                                                                                                                                                                                                                                 X X X X   X X X X O   d G.G.H.D..X.X#X#XXX.X{.F..XXXXXXXoX.X.X.XXXXXXXXXXXXXXXXX.X.X.XoXoXoXXX@XoXoXoX.X.XoXoXoXoX|.D.|..X.XoXoXD.F..XXX#X@X&X*X=X&XXXoX.XoXXX+XoXoXoXXX@X&X*X%X*X*X*X*X*X-X-X-X*X*X-X-X-X-X*X&X@XOX$X X].;.n &.&.&.>.,.3.3.0.0.0.0.0.4.4.0.0.0.4.0.G.0.0.0.0.0.G.).).).G.G.G.0.0.0.0.0.0.0.4.4.4.4.4.4.4.4.4.4.4.>.>.>.>.>.>.=.=.=.&.&.#.#.+.+.@.n n n z M z &.e._.OXOXOX+X,X,X=X:X:X:X:X=X>X3X3X2X2X2X2X2X2X2X2X2X2X2X2X2X2X2X2X2X2X2X2X2X2X3X2X2X3X=X=X=X=X&X*X&X@XXXXXXXoXoXXX.XH.H.oXXXXX%X@XoX%X%XXXXXoXoXF.F.H.J.F.D.J.#X#X%X#XH.H.F.F.F.J...3   O   O                                                               X X X X X X X X X X X O O X O O O o o o o + + + + + + + + + - - - - - - - - + + + + + + + + - - - - - + + + + + + + - - o o + + - - o + - o o - - + + + + + + + + - + + + - - - - - , , , - - - - , , , , , , - - - - ; , , , ; 1 1 1 1 1 1 1 1 1 1 , o O O + - - - 1 , 1 1 a f f G P } P.8X6X6X6X6XqXqXqXqX6X4X4X4X6X6X6X4X4X4X4X6X4X4X4X4XT.T.T.T.T.T.T.Y.Y.Y.Y.Y.T.T.T.Y.Y.Y.Y.Y.Y.Y.Y.Y.I.I.C.C.C.C.C.C.C.m.N.n.b.z.k.j.f.u.i.{ [ [ Y L L L P J J N N N p p p p f f N N N J J N f N N N N f f p N s i i i u 9 9 9 9 9 9 9 ",
"Z.Z.U.Q.Q.Q.Y.Q.Y.U.U.U.U.U.Z.Z.B.B.B.B.V.B.B.V.B.B.B.B.B.B.Z.I.P.I.I.I.U.U.I.I.I.I.I.U.U.Q.Q.Q.U.U.Q.Q.U.U.Q.Q.Q.W.W.W.7X7X7XwXp.f p a a a a a u u u u r r r r r r r r r r u r u u r r r a a a u u u r u u u u r r r r r r r r r r r r r 1 < < < < , 2 2 2 o o o o o o X                     X X X X X X X o o o o o o X X X o X X X X X X X X X X o X X X X X X X X X X X X X             X X X X         X X                                                                                                                                                                                                                                                 X X X X     X X X   O + ` G.F.F.F.F.H..XXX.XF.F..XoXXXXXXX.X.X.XXXXXXX.XoXXX@X#X.X.X.X.XoXoXXX&XoXoXXX.X.X.XoXoXD..X.XD.F..XoXoXH.oXXX#X#X#X@X*X*X@XoXXXXXXX.X{.{..XoXXX@X&X*X%X*X*X*X*X*X-X-X-X*X*X-X-X-X-X*X&X$X$XOX+XOX0.S S #.&.>.,.3.2.3.3.0.0.0.4.4.0.0.4.0.0.0.0.4.4.0.4.0.0.0.0.0.0.0.0.0.0.0.0.4.4.4.4.4.4.4.4.4.4.4.4.4.>.>.>.>.>.>.>.=.&.#.#.#.#.+.n n n z z M n ,. X,X,X,XOXOX,X:X:X:X:X=X:X>X3X3X3X2X2X2X2XmX2X2X2X2X2X2X2X2X2X2X2X2X2X2X2X2X2X2X2X-X-X-X=X=X-X=X&X@X@XXXoXoXoXoXoX.XH.H.H.oXXX%X*X%XoX@X@XXX@XoXoXH.H.H.F.D.F.H.%X#XH.#XH.F.F.H.H.8.3                                                                             X X X X     X X X X X X X O O o O o o o o + + + + + + + - - - + - - + + - + + + + + + + - - - + - + + + + - + + o o o o o o + + o + - + - , - - + + - + + + + + + + + + + - + + - - - - + + + - , , , - - - + + ; ; ; , , ; 1 1 1 1 1 1 1 , , - - O O O + - - - 1 1 1 a a a g K G Y l.E.8X7X7X6XqXqXqXqX5X4X4X4X4X4X4X4X4X4X4X4X4X4X4X4X4XT.T.T.4X4XT.T.Y.Y.Y.Y.T.T.Y.Y.Y.Y.Y.Y.Y.Y.Y.Y.I.I.C.C.C.C.C.C.C.N.n.b.b.z.k.h.u.i.{ [ ] Y L L P P J J N N f f p p p p f f f f N N f f p p f f f p i i i i i i u u 9 9 9 9 9 9 9 ",
"Z.Z.U.Q.Y.Y.Y.Q.Q.Y.U.U.U.U.Z.Z.I.B.V.V.V.B.B.V.B.B.B.B.B.B.Z.I.I.I.I.I.I.I.U.U.I.I.U.U.U.U.U.U.U.U.U.U.U.U.U.U.Q.W.W.W.7X7X7XwXp.f p h a a a a a u u u r r r r r r r r r u u a u u r r r u a a u u r u u u u u r r r r r r r r t t t r r r 1 < < < , 2 2 2 o o o O X X X X                   X X X X X o o o X X X X X X X X X X X X X X X X X X X X X X X X X         X X X X X X X X X X X X X X         X X X X X                                                                                                                                                                                                                                               X X           O O O e 8.G.F.D.F.F.H.F.F.F..XF..XoXoXoXoXoXoXXXXXoXF..XXX@XXXoX.X.X.XoXoXXXXXoXoX.X.X.X.X.X.XF..X.XD.F..XoX.X#XXX#X#X#X@X&X*X@XXXoXXXXXoX{.D.D.{.oXXX@X&X*X*X*X*X*X*X*X*X*X*X*X*X-X-X-X-X*X*X=X&XXX+XOX`.;.m #.&.&.>.,.>.,.>.3.4.0.4.4.9.0.4.9.0.0.0.0.9.4.4.4.4.4.4.0.0.0.0.0.0.0.4.4.4.0.0.0.0.4.4.4.4.3.4.4.>.>.>.>.5.=.=.&.&.#.#.#.+.+.n n z M z &.r.,X,X XOX=X:X:X:X:X=X3X3X3X3X2X2X3X-X2X2X2X2XmXmXmXmX2X2X2X2X2X2X2X2X2X2X2X2X2X2X2X2X-X-X=X=X=X-X=X&XXXXXoXoXoXoXoXoXH.H.H.oXXX@X%X*X%XoX@X@XXX#XoXoXH.H.J.F.F.H.#X%X#XH.H.H.G.F.H.G.c   O     o                                                                     X X X X     X X X X X X X X O O o o o o o o o o o o o + - - + o + + + + + + - - o o o + - - + + + o o + - - - + + + + o o + - - o - - o o - - - + + - + + + + + + + + + + + + o o o - - + o + - , , - - - - - - , , ; , ; 1 1 1 1 1 1 1 1 , , o o O O + - , , - 1 1 3 a u a g K K P } P.6X7X7X6X6X6X6X6X5X4X4X4X4X4X4X4X4X4X4X4X4X4X4X4X4X4X4X4X4X4X4XT.Y.Y.Y.Y.Y.Y.Y.Y.Y.Y.Y.Y.Y.Y.Y.I.I.I.C.C.C.C.C.C.N.N.b.b.z.k.j.f.u.{ [ ] U L L P J J f f f s i p s f f f s f f f f f s i i i i i i i i i i i i u u u 9 9 9 9 9 9 9 ",
"Z.Z.U.Y.Y.Y.Y.Q.Q.Q.U.U.U.U.Z.Z.I.B.V.V.V.B.V.V.V.B.B.B.B.B.Z.I.U.I.I.P.P.I.U.U.U.U.Q.Q.U.U.U.U.U.U.U.U.U.U.U.U.Q.W.W.W.7X7X7XwXp.p p h a a a u a u u r r r r r r r r r u u u a u u r r r u a a r u r u u u r r u u u r r r r r < < < t < < < < < < , 2 2 2 o o o o X X O O X X                 X X X o o o o X X X o X X X o o X X X X X X X X X X X X X X X X       X X X X   X X X X X X X X X X X       X X X X X                                                                                                                                                                                                                                             X X X           O O   O ^ G.G.G.D.F.F.F.D.F..XF..X.XoXoXoXoXXXoXXXoXF..XXX@XoXoX.XH.oXoXoXoXoXoXoX.X.X.XoX.XF.XX.XD.F..X.X.X.X@XXXoXoXXX@X&X*XXXoXoXoXoX.XF.F.D.{.oXXX@X@X*X*X%X%X*X*X*X*X%X%X*X-X-X-X<X<X-X*X&X&X=X$XoX`.'.%.S #.&.>.,.,.>.;.,.4.4.4.4.4.0.9.0.0.0.).D.0.4.4.4.4.4.0.G.0.0.0.0.0.0.4.4.0.0.0.4.4.4.4.3.4.3.3.4.>.>.3.>.>.=.&.&.#.#.#.+.+.n n z M n 3.OX,XOX+X:X=X=X=X=X=X:X3X>X3X>X>X>X3X2X2X2X2X2X2XmXmXmXmX2X2X2X2X2X2X2X2X2X2X2X2X2X2X<X<X-X-X=X*X=X=X=X&X@X@XXXXXXXoXoX.X.XoXoXXXXXXX%X*X@XoX@X@XoX.XH.H.F.J.J.F.J.#X%X#X#XH.H.G.G.#XF.(   O   X X   X                                                                   X X X X     X X X X   X X X O O o o o o O O O o o o o o + + o o o o o + o + - - o o o + - + o o o o o + - - - o - - + + - + - - - , - o o o - - + + - - + + + + + + + + + + + o o o - - - - - , , , - , , , , , , , , , ; 1 1 , , , 1 1 1 , , o + o + + - , 1 , 1 1 1 a a f G G P G U c.E.6X6X4X6X5X5X6X6X5X6X4X6X6X4X4X4X4X6X6X4X4X4X4X4X4X4X4X4X4X4XT.T.Y.Y.Y.Y.Y.Y.Y.Y.Y.Y.Y.I.I.I.I.I.I.I.I.C.C.C.m.N.b.b.z.k.j.f.u.u.{ [ ] L L P J J p p p s i i i p f f f p p p i i i i i i u 9 9 u u u 9 9 9 u u u u 9 9 9 9 9 9 9 ",
"Z.U.U.U.U.U.Q.Q.Q.Y.U.Z.Z.Z.Z.Z.I.I.B.B.B.V.V.V.B.B.B.B.Z.I.I.I.I.I.I.U.U.U.U.U.I.I.I.U.U.U.Q.Q.U.U.U.Q.Q.Q.Q.Q.T.T.W.W.W.7X7X8Xl.p u f a h j a a u r r r r r r r r r r r r r r u u u u u u r r r u u u a u u u r r r r r r r r r r r r r t < < < < < , 2 : 2 o o o o X X X X X           X X X X X X X X X X X X X X X X X X X o o o o o X X X X X X X X X X X X X X X X X X X X X             X X X   X X X X                                                                                                                                                                                                         X X                                                     o     + + h 1.G.G.H.H.D.G.G.H.F.D.F..X.X.XoXoXXXoXoX.X.X{.F..X.XoX{.{.oXoXoXXXoXXXoX.X.XoXoX.X.XXXoX.X.XXXXX.XF.oXoX.XoX@X&XXXD.F.@X@X.XF.{.{.D.{.{.oX@X@X&X*X%X%X*X*X-X-X*X*X%X-X-X<X<X<X-X*X*X*X&X=X@X'.+XOX2.n @.#.;.>.>.,.;.2.2.2.4.4.4.4.q.9.9.4.9.0.0.9.4.4.4.4.0.0.0.4.0.0.4.4.0.0.0.0.0.4.4.4.3.3.4.3.3.3.,.3.3.,.=.=.&.&.&.#.@.+.n z z n ;._.,X+XOXOX+X=X=X:X:X>X1X1X3X3X3X2X2X3X2X2X2X2X2XmXmX2X2X2X2X2X2X2X2X2X2X2X2X2X2X2X2X2X1X1X1X=X=X=X=X=X=X=X&XXXXXXXXXXX.X.X.XH..XoXoX#X%X*X*XXX#XXXoXXXoXoXoXoXF.G.F.oX#X#X#XH.J.H.G.H.H.1.O                                                                                       X X X X X   X X X X X X X O O O O O O O O X O O o o o o o o o o o o o o o o o o - - + + - o o o o o + - - - - - + - - - - , , - - + + - - + + + + + + + + + + - + + + + + - o - + + o - - , - - - - - - , , , , , , , , , 1 , - , , - o o O O + - - , , , 1 1 1 a a f g G K P P u.P.6X0X6XqXqX6X5X5X6X6X6X6X6X6X6X4X4X4X4X4X4X6X4X4X4XT.T.4X4X4XT.Y.T.Y.Y.Y.Y.Y.Y.Y.Y.Y.Y.I.I.I.I.I.I.I.I.I.C.C.N.n.b.b.x.j.j.s.u.i.{ ] L L P J N f p i u i u u i i p p p p p i i i i i i 9 9 9 9 u u u u 9 9 9 9 9 9 9 9 9 9 9 9 8 ",
"Z.U.Y.Y.U.U.Q.Q.Q.Q.U.Z.Z.Z.Z.Z.I.B.B.V.V.V.V.V.B.B.B.B.Z.Z.Z.Z.I.I.I.I.I.I.U.U.U.U.U.U.U.U.Q.Q.U.U.U.U.Q.Q.Q.Q.T.T.W.W.!.7X7X8Xc.K p p a a a a u u u u r r r r r r r r r r r u r r u r r r r r r u u u u u u u r r r r r r r r r r r r r 1 < < < < < , , , : o o o X X X X X X           X X X X X X X X X X X X X X X X X X X o o o o o o X X X X X X X X X X X X X X X X X X X X X             X     X X                     X X                                                                                                                                                                                                                                         X X   O O O O - W 8.G.D.G.G.G.9.D.F.F.F.{..X.XoXoXoX{..X.X{.F.F.F.{.{.D.F..X.XoXoXoX.X{.F..X.X.X.XoXXXXXXXXXoXoXoX.XoXXXXXoXoXoX.XF.oXoX.X{.{..X.XF.{.D.{.&X*X@X%X*X*X*X-X-X*X*X*X*X-X-X-X<X-X-X*X*X*X&X=X&XXX&X+X0.@.n @.&.&.;.,.>.,.,.2.4.0.4.4.0.9.9.9.0.0.9.4.4.4.4.4.0.0.4.0.0.0.4.4.0.4.4.0.0.4.0.4.4.4.3.4.3.3.4.3.>.=.=.=.=.&.#.@.+.n z n S e.].+X:X:X:X:X:X=X=X=X=X1X1X1X1X2X2X2X2X3X2X2X2X2X2XmXmX2X2X2X2X2X2X2X2X2X2X2X1X<X2X2X2X2X1X-X-X1X=X=X&X&X&X&X&XXXXXXXoX.X.X.X.XH.oXoXXX@X%X%X%X#X#XXXXXXXXXoXH.F.D.F.H.#X#XXXXXH.J.F.F.F.G.h O                                                                                         X X X X     X X X X X X O O O O O o o O O O O o o o o o o o o o o o o o o o o + + o o o o o o o o o + + o o o o o o o + + - + + o o o o + + + + + + + + + + + + + + + + o o o o o + - - , - + o o + - , - - - - , , 1 1 1 , - - - o o o O O + - - ; , , 1 1 1 a a h g G G K K | M.T.0X0XqXqXqXqX6X6X6X6X6X6X6X6X4X6X6X6X4X4X6X6X4X4X4X4X4X4X4XT.T.T.Y.Y.Y.Y.Y.Y.Y.Y.Y.Y.Y.Y.Y.I.I.I.C.C.I.C.C.N.n.b.b.x.j.f.d.u.{ [ Y L P J N f i u 9 9 9 9 9 u i i p p p p p p p i i i u 9 9 9 9 9 u u 9 9 9 9 9 9 9 9 8 9 9 9 8 ",
"Z.U.Y.Y.U.U.U.Q.Q.Q.Y.U.Z.Z.Z.Z.B.B.B.V.V.V.V.V.B.B.B.B.B.Z.Z.Z.I.I.I.I.U.U.U.U.Q.U.U.U.U.U.R.R.U.U.U.U.U.Q.Q.Q.W.W.W.!.!.7X7X8XP.o.p u p a a a u u u u u r r r r r r r u u u u u r r r r r r r r r u u u u u r u u r r u u r r r r r r r t < < < < < < , , , 2 o o o o X X X X X             X X X X X X X X X X X X X X X X X X X X X o X X X X X X X X X X X X X X X X X X X X X X X X                                                                                                                                                                                                                                                                               X X X X   o O   O   3 ' G.D.G.G.G.9.G.F.F.F.F.F..XoXoX.X.X.XoX.X.X{.F.{.F.D.F..X.X.XoX.X.X{.F.{..X.X.XXX.XoXoX.X.X.X.X.XH.XX#X.XF.F..XoX.X{.{.oXoX{.{.F.F.D.{.@X*X@X%X*X-X-X*X*X%X*X*X*X*X-X-X1X-X-X*X*X*X%X*X&XXXOX+XoX;.b n &.&.;.>.,.2.2.2.4.4.4.4.4.4.4.9.0.0.4.4.4.4.4.4.4.4.4.4.G.G.4.4.4.4.4.4.3.4.3.3.4.3.3.3.,.2.>.>.>.>.=.&.#.#.@.n z z n ,.OX+X=X:X=X=X:X:X:X=X=X=X3X1X3X2X2X2X2X2X2X2X2X2X2X2X2XmXmX2X2X2X2X2X2X2X2X2X2X2X<X<X<X<X<X<X-X=X=X=X=XXXXXXX@X&XXXXXXXoX.X.X.X.X.XoXXXXXXX@X%X%X@X#XXXoXoX.XH.F.F.D.D.H.#X%X#XoXH.H.G.H.H.F.^                                                                                             X X X X       X X X X X X X X O o o o O O O O o o o o o o o o o o o o o o o o o o O O O o o o o o o o o o o o o o o o o o o + - - o o o + o + + + + + + + + + + + + + + o o o + o + - - , - o o o o - , - - - ; , , 1 1 1 , - - o o O O O O + + - ; , , 1 1 1 r a h g g G G K L p.E.0X0XqXqXqXqX6X6X6X6X4X4X4X4X4X6X6X6X4X4X4X6X4X4X4X4XT.4X4XT.T.T.T.Y.Y.Y.Y.Y.Y.Y.Y.Y.Y.Y.Y.I.I.I.C.C.C.C.C.N.b.b.x.k.f.f.u.i.{ ] U L P J f p u 8 > * > > > 8 u i u i i p p p p i i i i i i u 9 9 9 9 9 9 9 9 9 9 8 8 8 8 8 8 8 ",
"Z.U.Y.U.Y.U.U.Q.Q.Q.U.U.U.Z.Z.Z.Z.Z.B.V.V.V.V.B.V.V.B.B.Z.Z.Z.I.I.U.U.U.U.U.U.U.Q.Q.U.Q.U.U.U.U.U.U.U.U.U.Q.Q.Q.W.W.W.!.7X7X7X8X8Xu.p u f a a r u u u u u t r u r u u u u u u u u u r r r r r r r r r u u u r r u r r r u r r r r r r r r t < < < < < < < < 2 2 o o o o X X X X X               X X X X o o o o X X X X X X X X X X X X X X X X X X X X X X o o X X X X X X X X X X X X X X X X           .                                                                                                                                                                                                                                                             X X X X   X O   o     c 8.G.G.D.D.G.D.F.D.D.D.F.{..XoXoX.XoXXXoX.XF.F.{..XF.F..X{.{..XF..X{.{..X.X.X.XoX.X.XXXoX.X.X.X.XF.oXoXF.D.F..XXXF.oX@X@XoXF.F.{.D.D..XoX@X*X*X%X-X-X*X%X%X%X*X*X*X*X-X-X-X-X-X*X*X*X&X@X@XXXXXOX0.@.n @.&.;.>.>.2.2.2.3.2.2.2.2.4.4.4.9.q.4.4.4.4.4.4.4.4.4.4.0.0.4.4.4.4.4.4.4.4.3.3.4.3.3.2.>.>.>.>.>.=.&.#.#.@.z z S ,._.OX+XOX&X:X>X:X:X>X>X>X3X3X2X2X2X2X2X2X2X2X2X2X2X2X2X2XmXmX2X2X2X2X2X2X2X2X2X2X2X<X<X-X-X<X<X-X-X*X&X*X&XXXXXXXXXXXXXXXXX.XJ.F..X.X.XoXXXXX#X@X%X@X#XXXoXoXH.F.D.D.D.D.F.H.#X@X#XH.H.J.G.H.H...-                                                                                                 X X         X X X   X X X X o o o o O O O o O O O o o o o o O O O O o o o o o O O O o o o o o o o o o o o o o o o o o + - - - - o o + o o + + + + + + + + + + + + + - - - - - - - - - + o o o o + - - - - ; , , 1 1 , - + + o O O O O O + - - ; , , 1 1 1 r a h f g G G L P | I.qXqX0XqX0XqX6X6X6X6X4X4X4X4X4X4X4X4X4X4X4X4X4X4X4X4XT.4X4X4X4X4XT.Y.T.T.Y.Y.Y.Y.Y.I.I.I.I.I.I.I.I.I.Z.C.N.n.b.b.x.f.f.s.u.{ [ Y L P J f p u 8 > = & & > > 8 u i i i i p p p p i p p p i i i 9 9 9 9 9 9 9 9 9 8 8 8 8 8 8 8 8 ",
"Z.U.Y.Q.Y.Y.U.Q.Y.U.U.U.U.Z.Z.Z.Z.B.B.V.V.V.B.B.V.V.B.B.B.Z.Z.I.U.U.U.U.U.U.U.U.Q.Q.U.U.U.U.U.U.U.U.U.U.Q.Q.Q.Q.W.W.W.!.7X7X7X7X9XK.U p u u h r u u u u u u u u r r u u u u u u r r r r r r r r r r u u u u r r r r r u u r r r r r r r t t < < < < < < < < 2 2 o o o o X X X X X               X X X X o o o o X X X X X X X X X X X X X X X X X X X X X X o o X X X X X X X X X X X X X X X X                                                                                                                                                                                                                                                                         X X X X X   X X O O   3 ' 8.G.G.D.G.D.D.D.D.D.D.F.{..XoX|.|..X|.F.F.F.F.oXF.F.{.F.F..X{.F.F.F.{.F.F.|..XoXoXXXXXXXoXoXoX.X.X.XF.F..XoXXX@X$X@XoXF.{.{.{.D.{..XoXXX&X*X%X*X*X*X*X%X*X*X*X*X*X-X-X-X-X-X-X-X-X*X&X&XXXoXXX`.2.m m %.*.>.>.,.,.2.2.,.>.>.>.4.4.4.4.4.4.4.4.4.4.4.4.4.4.4.4.4.4.4.4.4.4.4.4.3.3.3.3.3.,.>.>.&.=.=.&.&.&.@.n z @.,.r. X+X,X=X=X:X>X>X:X=X>X3X2X2X2X2X2X2X2X2X2X2X2XmXmXmXmXmXmXmX2X2X2X2X2X<X2X2X2X2X2X<X<X<X-X-X-X-X-X=X*X@XXXXXXX&X&XXXXXoX.X.XF.D.F.F..X.XoXoXoXXX@X@XXXXXoXXXoXJ.D.G.D.D.F.H..X#X#XoXH.F.G.H.H.S.w   O                                                                                                                   X   X X O o o O O o o o o o o o o o o o O O O O O o o o o o o o o o o o o o o o o o o o o o o - + - - - - - - + + O + + + + + + + + O O o + + + , - - - - + o o o o - - - - o o - - , - ; ; , , , , - + o O O O O O + - - , , , 1 1 u a a h f G G K ~ K o.M.4XqXqXqXqX0X6X5X4X6X4X6X6X6X4X4X4X4X4X4X4X4X4X4X4X4XT.4X4X4X4X4XT.Y.T.T.Y.Y.Y.Y.I.I.I.I.Y.I.I.I.I.C.C.B.N.b.b.b.k.f.f.d.i.{ [ U P P J p u 9 > * & & & > 8 9 u p p p p p p p p p f f p p i i u 9 9 9 9 9 9 9 8 8 8 8 8 8 8 8 8 ",
"Z.U.Y.Q.Y.Y.U.Q.U.U.U.U.U.U.Z.Z.B.B.V.V.V.V.V.V.B.B.B.B.B.B.B.B.I.I.I.U.U.U.U.U.Q.R.U.U.U.U.U.U.U.U.U.Q.Q.Q.Q.T.W.W.W.!.7X7X7X7X6X8Xk.K u u f r u u u u u u u u r r u u a u u u r r t t r r r r r r u u u u r r r r r r r r r r u r r t t t < < < < < < < < 2 2 o o o o X X X X X               X X X X X X X X X X X X X X X X X X X X o o o o X X X X X X X X X X X X X X X X X X X X X X X X X   X                                                                                                                                                                                                                                                                   X X X X X   X X   O o + Z 1.G.G.D.D.D.D.D.F.F.F.D.F.'..XD.D.D.D.F.F.'..X.XF.F.F.F.F..X.XD.F.F.{..XF..X.X.X.X.X.X.X.X.X.XXXoXF.F..XXX@XXX@X@XoXF.D.{.F.D.{.D.{.oX#X@X%X%X%X*X*X*X*X*X*X*X*X-X-X-X-X-X-X-X=X-X=X&X&X&XXXoX Xr.@.b S %.&.;.>.>.,.,.>.>.,.2.2.2.2.2.2.2.2.4.4.4.4.4.4.4.2.2.4.4.4.4.4.2.4.4.3.3.3.3.3.>.>.>.&.#.#.&.#.n z n =.q.].OX XOX=X:X>X:X=X=X=X=X>X=X2X2X2X2X2X2X2X2X2X2X2XmXmXmX2XmX2X2X2X2X2X2X<X<X<X<X2X2X<X<X<X<X-X-X=X=X*X*X%X@XoX.XXX@XXXoX.X.XD.D.D.D.D.F..X.X.X.X.XXXXXXXXXXXoXoXJ.D.G.9.G.D.F.H.#X#X#XH.F.G.G./.G.c                                                                                                                             X X O O O O O o o o o O O o o o o O O O O O X o o o o o o o o o o o o o o o o o o o o o + - o o + - - + o o + O O + + o o + + + O O o + + + - - - - + o o o o o - , , - o o - - - - - - - + , , - + O     O O O + - ; , , , 1 r u a a a h G g G K G L k.T.0XqXqXqX0X5X4X6XW.6X6X6X6X6X4X4X4X4X4X4X4X4X4X4X4XT.4X4X4X4X4XT.T.T.Y.Y.Y.Y.Y.I.I.Y.Y.Y.Y.I.C.C.C.C.N.n.b.b.b.k.f.f.u.i.{ [ U P J J p 9 8 > * * * * > 9 u p p p p p p f f N N N N N f p i i 9 9 9 9 9 8 8 8 8 8 6 8 8 8 8 * ",
"Z.U.Q.Q.Y.U.U.U.U.U.U.U.U.Z.Z.Z.B.B.B.V.V.V.V.V.B.B.B.B.B.B.B.B.I.I.I.I.U.U.U.U.U.U.U.U.U.U.U.R.U.U.U.U.Q.Q.Q.Q.W.W.W.!.6X7X7X7X!.9XR.p.K p p a a u u u r u u u r r r r u u u r t r r r r r r r r r r u r u u r r u u u u r r r u r r t t t t t < < < < < < 2 2 o o o o o X X X                 X X X X X X X X X X X X X X X X X X X X X X X X X X X X X X X X X X X X X X X X X X X X X X X X X X X X         X X                                                                                                                                                                                                                                                     X X X X X X   X     o O e -.G.G.D.G.D.D.J.J.J.F.D.D.D.D.D.D.D.F.|..X.X.XF.D.F.{.F.F.oX.XD.F..X.X.XF.{..XD.F.D.D.D.D.F.{..X.XF..XoXXX@X@XoX{.F.F.{.{.D.0.{.D.{.oXXX#X@X%X%X%X%X%X%X%X*X*X-X-X-X-X-X-X-X-X=X*X*X&X@X@X@XXXOX X2.S b S &.*.;.>.,.>.>.>.,.2.2.2.2.2.2.2.2.4.4.4.2.4.3.3.4.2.4.4.4.4.4.2.4.4.3.4.4.3.,.>.=.=.&.#.@.@.z z #.t.[. X,XOX+X=X:X=X3X>X3X3X2X2X2X2X2X2X2X2X2X2X2X2X2X2X2X2XmXmX2X2X2X2X2X2X2X2X<X<X<X<X2X<X<X-X-X-X=X*X*X*X*X%X@XXXoX.X.XoXoX.XF.F.D.D.D.D.F.F.F.F..XJ..X.XXX.X.XoX.XJ.D.9.9.9.D.F.F..X#XXXH.F.G.G.G.G.`                                                                                                               X X               X X o O O O o o o X X o o o o o X X o o o X o o o X o o o o o o o o o o o o o o o o o + - o o o o o o o o + O O o o O O + + + + o o + + + o o + - - o o o + + - , - - + + + + - - - - + + - + + o O   O O o + - - ; ; , , < 1 u a a a h f G K K G P u.R.0XqX0XqX0X6X5X6X6X4X6X6X6X6X6X4X4X4X4X4X4X4X4X4X4XT.4X4XT.T.4X4XT.T.T.Y.Y.Y.Y.Y.Y.Y.Y.Y.Y.I.C.C.C.C.B.n.b.b.b.k.f.s.u.{ { [ U P J N i 9 > * * * * > 8 u i p f H J R J J J J J J J J N f p i u 9 9 9 9 8 8 8 8 6 6 * > > ; * ",
"Z.Z.Q.Q.Y.U.U.U.U.U.U.U.Z.Z.Z.Z.Z.Z.Z.B.B.B.B.B.V.V.V.B.Z.Z.Z.I.U.U.U.U.U.U.U.U.U.U.U.U.U.U.Q.R.U.U.U.U.U.Q.Q.Q.W.W.W.W.!.7X7X7X9X7X8XE.p.G u f a u u r r u u u r r r u u u u r r r r u u u u u u r u u r u r u u u u u u u r r u r r t t t t t < < < < < < , 2 o o o o O O X X                 X X X X X X X X X X X X X X X X X X X X X X X   X X X X X X X X X X X X X X X X   X X X X X X X X X X X         X X                                                                                                                                                                                                                                                       X X X   o   X o   . O   W 1.8.G.G.D.oX.X.XF.F..XF.D.D.F.F.F.|..X.X.XF.F.D.F..X{.{..X.XD.D.{..XF.D.D.F.F.F.F.D.G.D.F.XXD.D.F..XoXXX@X&X@XoX{.{.{.D.F.{.D.F..X.XoX%X%XoX%X#X#X#X#X%X%X*X-X-X-X-X-X-X-X-X-X*X*X=X&X@X&X$XOXOX`.*.b S %.&.=.>.>.>.>.>.>.2.2.2.2.2.4.2.2.3.2.2.2.4.3.3.2.2.3.2.3.4.3.3.3.4.,.,.,.>.>.=.&.&.#.#.n z @.,.[.OXOXOXOX=X:X=X=X=X=X>X3X3X-X-X2X2X2X2X2X2X2X2X2XmX2X2X2X2X2X2XmXmX2X2X2X2X2X2X2X2X<X<X2X<X-X-X-X-X*X*X&X@X&X@XXXXXXX.XF.J..XF.D.D.D.D.F.D.'.J.F.F.|.F.'..X.X.X.X.X.XF.G.9.9.0.D.F.F.XX#XoXD.G.G.G.J.1.-   O                                                                                                       X X X X X           X X X o O X o o o o X X o o o X X X X o o o X o o o X o o o o o o o o o o o o o o o o + - - o o o o o o o o + O O o o O O O + + + o o + + + o o o - - - - - - - - - - - - - + + + - - - + + o O O O O O O o + - - - ; , ; , 1 r a a a a f f G K K G J [ I.0XqX0X0X0X0X5X6X4X4X4X6X6X6X6X6X4X4X4X4X4X4X4X4X4XT.4X4XT.T.T.4XT.T.T.T.Y.Y.Y.Y.Y.I.Y.Y.Y.I.I.C.C.C.B.N.n.b.b.k.f.s.u.{ { T L P J f i 8 > = = * > > 8 i p f J J J J J P P P P P J J J N f p i u 9 9 9 8 8 8 6 6 * * * > * * ",
"Z.U.U.Q.Q.Q.Q.Q.U.U.U.U.I.Z.Z.Z.I.Z.B.B.B.B.V.V.B.B.B.B.B.B.I.I.P.I.I.U.U.U.U.I.U.U.U.U.U.U.U.U.U.U.U.U.U.Q.T.W.W.W.W.W.7X7X7X7X6X7X!.!.E.} a u a u r r r u u a u u r r r r r t r r r r r u r r r r u r r u r r r u a a u r r t t t r u r r 1 < < < < < < < , , 2 : o X X X X X X X X             X X X X X O o X X X o o o O O X X X X X X X X X X X X X X X X X X X X X X X X X X X X X X   X X X X X                         X                                                                                                                                                                                                                                         X X X X X       X     - 3 ' G.9.0.D.D.D..XH.F.F.D.D.F.F.F.F..X.X.XD.D.D..X.X.XoXoX.X.XD..X.XD.D.D.D.D.F.D.D.D.D.D.D.D.F.{.F.oXoXF.XX&X@XoXoXoXD.oXoXD.D.oX{.F.#X@X#X#X#X#X%X%X%X*X-X-X*X-X-X-X-X-X*X*X-X*X*X*X*X*X*X$X$XoXOX'.%.b m %.%.;.;.&.&.>.>.,.2.2.2.2.2.2.2.2.2.2.3.3.3.3.3.3.2.3.3.3.3.3.3.,.>.>.>.>.>.&.#.@.n n S >._. X XOX+X&X=X=X>X-X>X>X2X2X2X2X2X2X2X2X2X2X2X2X2XmXmXmXmX2X2XmX2X2X2X2X2X2X2X2X2X2X2X2X2X2X2X<X<X-X=X-X&XXX=X=XXX.XF..X@XoXF.D.D.F.F..XD.D.G.0.D.D.D.D.D.D.'.|..X.X|.J.D.0.9.9.D.D.'..XF.oXoXH.G.G.G.F.8.3           X                                                                                                           X X   X X X X X X X X   X X O O O O O O o o o X X X O O O O O O O X X o o o O O o o o o o o o o O O O o o o o o o + - O o o + - + o o + o O o o - + o + o o o o o - - , - o o - - - - - - , , , , 2 , o o o O O O O O - - - - - , 1 < a u a a a p f G G K G K J U K.0X6XqXqXqX0X0X6X6X4X4X4X4X6X6X6X6X4X4X4X4X4X4X4X4X4X4XT.T.T.T.T.T.Y.T.T.T.Y.Y.Y.Y.Y.Y.I.I.C.C.C.C.C.m.M.b.b.b.x.j.s.u.{ [ Y L P J p i 8 > > = & > 8 u p f N J P P L L L L L L P P P P J J N p i 9 u 9 8 8 8 8 8 * * * * 8 * ",
"Z.Z.U.Q.Q.Q.Q.Q.Q.U.U.U.I.I.Z.Z.I.B.V.B.B.V.V.V.B.B.B.B.B.B.I.I.P.I.U.U.U.I.U.U.I.I.U.U.U.R.R.R.U.U.U.Q.T.W.W.W.W.W.W.!.7X7X7X7X7X7X8X8XwXK.K u a u r r r r u u u r r r r r r r r r r r r u r u u u u r r u r r r r u u u u r r t r r r r r t < < < < < < < , , 2 o o X X X X X X X X             X X X X X X o X X X X X O O O X X X X X X X X X X X X X X X X X X X X X X X X X X X X X X X X   X X X                                                                                                                                                                                                                                                                       X   X         X X o , Z 9.0.q.D.D.D.F.F.F.F.F.F..XF.D.D..X.X|.D.D.F..XoX.X{.F.D.D.F.D.D.F.D.D.D.D.F.D.D.D.D.D.D.0..XF.D..XXXXX@X%X.XoX{.oX.X.XD.D.{.{.D.G.F.XXXX%X#X%X%X%X*X*X-X-X-X-X-X-X-X-X*X%X-X*X*X*X*X*X*X*X*XXXXXXX2.m b S @.%.&.;.>.;.>.,.>.;.>.,.2.,.,.2.,.2.2.2.4.2.2.2.2.3.3.2.>.>.>.>.>.=.=.&.&.@.n z b ;.0.|.OXOX+X=X=X=X=X=X>X>X>X>X2X2X2X2X2X2X2X2X2X2X2X2X2XmXmXmX2X2X2X2X2X2X2X2X2X2X2X2X2X<X<X<X<X<X<X<X<X1X=X=XXX.XXX&XXX.XD.F.oXoX{.F.F.F.D.D.G.G.0.0.D.D.D.D.'.'.D.'.|.|.|.D.G.0.0.D.D.D.D.F.oXJ.oX9.D.G.G.G.e         X                                                                                       X X         X           X     X X X X X X X X X X O O O O O O o o o o O O O O o o o o O O O O o o o o o o O O o o o o o O O o o o o o o o o o o o o o o o O O + o O o o - o o + o o o o o + + - - - - - - - - o + + 2 2 + o o o o O O O O O O o + - - - - , 1 1 r u u a a f G G G G K G U M.6X7X6XqXqXqXqXqXqX6X5X4X4X6X6X4X4X4X4X4X4X4X4X4X4X4X4XT.T.T.T.T.T.Y.Y.T.Y.Y.Y.Y.Y.Y.Y.I.C.C.C.C.C.C.C.m.M.b.b.z.k.s.d.i.[ Y L P J p i y 8 > > > 8 9 i f J J P P L L L L L L L L L L P P P J f i i i u 9 9 8 8 8 * * * 8 8 * ",
"Z.Z.U.Q.Q.Q.Q.Q.Q.Q.U.U.U.I.Z.Z.I.B.V.B.B.B.V.B.B.B.B.B.B.Z.I.I.I.I.U.U.U.I.I.U.I.I.I.U.U.R.Q.Q.U.U.U.Q.T.W.W.W.W.W.W.!.7X7X7X7X7XW.7X8X~.E.o.u a u r r r r r u r r r r r u u u r r r r r r r r u a a r r r r r r r r r r r u u r r r r r t < < < < < < < , , , 2 o o X X X X X X X               X X X X X X O X X X X X X X O X X X X X X X X X X X X X X X X X X X X X X X X X X X X X X X X     X X   X                                                                                                                                                                                                                                                                     X X X   X X X X X + e -.9.9.q.0.D.F.D.D.F.F.D.F.F.D.D.F..XF.D.D.|..X.X.X.XD.D.D..XD.D.F.D.D.D.D.D.D.D.D.D.D.D.G..XF.G.F.XXXXXXH.F.XXF.oXoX'.0.F.D.D.D.D.oXXX.X#X@X%X%X*X-X-X-X*X-X-X-X-X-X-X*X%X-X-X*X*X*X*X*X=X=X$XXX+X'.-.b b S %.&.;.>.;.&.>.;.;.;.;.>.>.,.2.2.2.4.3.4.2.2.2.4.2.,.,.>.>.>.>.&.*.#.&.#.z z @.e. XOX XOX:X=XOX:X>X=X>X>X2X2X2X2X2X2X2X2X2X2X2X2X2X2X2X2XmXmX2X2X2X2X2X2X2X2X2X<X<X<X<X2X<X<X1X-X-X-X-X2X-X&X&XXX.XXX+XXXoXD.F..X.X{.F.D.D.D.D.G.G.D.0.0.0.D.D.'.D.D.D.D.D.D.D.9.0.D.'.D.D.D.F.F.XXG.D.G.G.G.x     O     X                                                                                       X X X     X X           X X X X X     X X X O O O O O O O O O O O O O o o O O o o o O O O O O o o o o o o O X o o o o o o o o O O O O O O o o + o o o o O O O o o O o o + o o o + + + + o o o o o - - - - o o o o o o o o o o o O X     O O o O o - - , , , 1 1 r u u a a f G G G G P G P k.4X7X6XqXqXqXqXqXqX6X6X6X4X6X4X4X4X4X4X4X4X4X4X4X4X4X4XT.T.T.T.T.T.T.Y.Y.Y.Y.Y.Y.Y.Y.Y.I.C.I.I.C.C.C.C.m.M.M.b.z.k.f.d.i.{ Y L P J f i 9 8 > > > 9 u p J J P L L L Y Y Y Y Y Y U L L L L P J N f i i i i 9 9 8 8 > * * * * * ",
"Z.Z.U.U.Q.Q.Q.Q.Q.U.U.U.U.I.Z.Z.I.B.B.B.B.B.B.B.B.B.B.B.B.I.I.I.I.I.U.I.U.U.I.U.I.I.U.U.U.U.U.U.U.U.U.U.Q.T.W.W.W.W.!.!.7X7X7X7X9X7X7X~.wX~.o.a u u r u r r r r r r r r r r u u r r r r r r r r r u u r r r r r a u r r r r r r r r r t t t < < < < < < < , , 2 2 2 o o o o X X                     X X X X X O X X X X X X X O X X X X X X X X X X X X X X X X X X X X X X X X   X X X X X X X     X X       X                                                                                                                                                                                                                                                                 X X X X X X X X o + + c <.9.9.9.D.F.D.D.F.D.D.D.D.D.D.F.F.D.D..X.X|.F.{.oX.XF..X.XF.D.F.D.D.D.D.D.D.D.D.D.G.D.D..XF.G..X#XXXH.G..XXX.XoX.X'.G.{.G.G.D.oX#XXXoXXX@X%X%X*X-X*X*X*X-X-X-X-X-X-X-X*X*X-X*X*X*X*X*X*X$X&XXXXXoX0.%.k b S %.&.&.&.&.&.;.;.;.>.>.>.>.2.2.2.2.3.3.2.2.4.3.>.>.,.>.&.*.=.>.#.S b z @.3.r.OX,X,X+X=X=X=X=X>X>X-X-X>X>X2X2X2X2X2X2X2X2X2X2X2X2X2X2X2XmXmX2X2X2X2X2X2X2X2X2X<X<X<X<X<X<X<X1X-X-X*X*X-X*X@X&XXX.XXX&XXXXX'.D..X.XF.D.D.D.D.D.D.D.D.D.D.D.D.D.D.D.D.D.D.D.G.9.0.G.D.D.D.D.D..XJ.G.G.G.G.G.c   O             X                                                                                     X       X X             X X X         X X o O O O O O O O O O X   X O o O X o O O X X O O O O O o o o o o o o o o o o o o O O O O O O O o o o o o O o o o o o o O o o o o o o o + + + o o o o o o o - - o o o o o o o o o O o O X     O o o o + - - , , 1 1 r u a a a a f f G G G P G P u.T.7X6XqXqXqX5XqX0X6X6X4X4X6X6X4X4X4X4X4X4X4X4X4X4X4X4X4XT.T.T.T.T.T.Y.Y.Y.Y.Y.Y.Y.Y.Y.Y.U.I.I.C.C.C.C.m.M.M.b.z.k.f.s.i.[ ] L P J f p u 8 8 8 9 u p f J P L U Y Y Y Y Y Y Y Y Y Y Y U L L P J f p i i u u u 9 8 8 * * * * * ",
"Z.Z.U.Q.Q.Q.Q.Q.U.U.U.U.I.Z.Z.Z.I.B.B.B.B.B.B.B.B.B.B.Z.Z.I.I.I.I.I.I.I.I.U.U.U.U.U.U.U.U.U.U.U.Q.Q.U.Q.Q.T.W.W.W.W.!.!.7X7X7X7X7X8X7X~.wXL.K p u u u u r r r r r r r r r r r r r r r r r r r r r r r r r r r r a u r r r r r u u r r t t t < < t < < < < < , 2 2 2 : o o o X X                     X X X X X X O X X X X X O o X X X X X X X X X X X X X X X X X X X X X X X X   X X X X X X X         X X X X                                                                                                                                                                                                                                                                 X X X X X X X X O o O 3 ' 9.9.9.D.D.D.D.F.D.D.D.D.D.D.F.D.D.D..X.X.XF.F..X.XF.F..X.X.XD.D.D.D.D.D.D.D.D.G.0.D.D.D.D.D..XXXoX.XD..XoXoXXXF.{.{.D.D.D.D.{.F.F.XX%X%X%X%X*X*X*X*X*X-X-X-X-X-X-X-X*X*X-X*X-X*X*X*X*X&X@X$XXXoXOX2.b l b m @.%.&.%.&.;.>.>.>.>.>.>.>.,.,.2.2.2.>.>.>.2.>.>.>.*.%.*.*.%.@.z b ;._.OX:X XOX:X:X:X=X=X3X>X3X3X3X2X2X2X2X2X2X2X2X2X2X2X2X2XmXmX2X2XmX2X2X2X2X2X2X2X2X<X<X<X<X<X<X<X<X<X<X-X*X*X*X&XXXXX=XXXJ.oXXXXX.XD.D.oX.XD.D.D.D.D.D.D.D.D.D.D.D.D.D.0.D.D.D.D.0.0.9.G.G.D.D.D.D.F.D.J.9.G.G.G.W             X                                                                                                     X                 X X       X X O X X O O O O O O O     X O o O X O O O X X O O O O O O O o o o o o o o o o O O O O O O O O O o o o o o o O o o + o o O O o o o o o o + + + o o o + o o o o o + + o o o o o o o O o o O     O O o o + - - , 1 1 1 r u a a a a f f G G G K G J u.T.6X6X0XqXqXqXqX0X6X6X4X4X6X6X4X4X4X4X4X4X4X4X4X4X4X4X4XT.T.T.T.T.T.Y.Y.Y.Y.Y.Y.Y.Y.Y.Y.C.I.I.C.C.C.C.m.m.M.b.z.k.f.u.i.[ ] L P J f p i y 8 9 i i p J P L L Y Y Y ] T ] ] ] ] ] ] ] Y U L L P N f p i i i i i 9 > 8 8 * * * ",
"Z.Z.U.Q.Q.Q.Q.Q.U.U.U.U.I.Z.Z.Z.I.B.V.B.B.V.V.V.B.B.B.Z.Z.I.I.I.I.I.I.I.I.U.U.U.U.U.U.U.U.U.U.U.Q.Q.Q.Q.Q.W.W.W.W.W.!.!.7X7X7X7X!.8X7X~.wX} p p u u u u r r r u r r r r r r r t r r r r r r r r r r r r r u a a r r r r r r u u u r r t t t t r r t < < < < , 2 2 2 o o o X X X X X X               X X X X X X O O X X X X O O X X X X X X X X X X X X X X X X X X X X X X X X X X X X X X X             X                                                                                                                                                                                                                                                                     X       X X X X   o + + Z 8.9.9.D.D.D.D.D.D.G.D.D.D.D.D.D.D.D.D.D.'.D.D.F.F.D.D.F..X.XD.D.D.D.0.D.D.F.D.D.0.D.D.F.F.D.F..X.XoXH.F.F.oX@XD..X.XD.F.D.{..XF.H.@X%X%X%X%X%X%X%X*X*X-X-X-X-X-X*X*X%X-X-X-X-X*X*X*X*X&XXX&X$X|.OX'.;.M l M S %.%.%.&.&.=.>.>.;.;.;.&.;.>.>.>.>.;.;.;.>.>.;.&.&.&.%.n b z %.0. XOXOXOX>X:X,XOX:X>X>X>X3X3X3X3X2X2X2X2X2X2X2X2X2X2X2X2X2X2XmXmX2X2X2X2X<X<X<X<X<X<X<X<X<X<X<X<X<X<X-X-X*X*X%X@X@XoXoX&X.XJ.XXXX.X.XD.D..XF.D.D.D.D.D.D.D.D.D.D.D.'.D.D.D.D.D.0.9.9.9.0.G.D.D.D.D.D.D.G.G.D.G.G.^   O                                                                                                                 X                 X         X X X   X X O O O O O O O X O O o O O o O O O O o O o o o o O O O O o O O O O O O O O o o O o O o o o o o o o O o o o o o O O o o o o o o o o o o o o - + o o o - - - + o o o o o o o o O O     O O o o o o o + , 1 1 1 r a a p a f f G G G K G J { I.6X6X0X0XqXqXqX0X6X6X4X4X6X6X4X4X4X4X4X4X4X4X4XT.4X4X4XT.T.T.T.T.T.Y.Y.Y.Y.Y.Y.Y.Y.Y.Y.U.I.I.C.C.C.C.m.m.M.b.z.k.f.u.i.[ ] U P J J p i u y i i p J J L L Y ] [ [ [ [ [ [ [ [ [ { [ ] Y U L P J N f p i i i i u 8 8 * = * * ",
"U.U.U.Q.Q.Q.Q.Q.U.U.U.U.I.Z.Z.Z.I.B.V.B.B.V.V.V.B.B.Z.Z.P.I.I.I.I.I.I.I.I.U.U.U.U.U.U.U.U.U.U.U.Q.Q.U.U.U.W.W.W.W.W.W.!.7X7X7X7X7X8X9XwXE.~ p f u u a a r r r u r r r r r r r r r r r r r r r r r r r r r u a u r r r r r r r r u r r r r r r r r 1 < < < < , 2 2 2 o o o X X   X X X X             X X X X X X X X X X X X X X X X X X X X X X X X X X X X X X X X X X X X X X X X X X X X X   X X     X                                                                                                                                                                                                                                                               X         X       X X X   O O O e ' 1.9.D.D.D.D.D.0.0.G.F.F.F.D.D.D.D.0.9.D.D.0.D.D.D.D.D.|.|.D.D.D.D.G.D.'..XD.G.G.D.D.|.'.D.D.F.F..XF.F..XoXoX{.{.{.D.{.{.oXoX.X#X%X@X%X%X%X*X*X*X*X*X-X-X-X-X-X*X*X*X-X-X-X-X*X*X*X*X*X@X&X$XoXOX`.0.%.b l z S S S %.*.&.&.&.&.&.&.*.&.=.>.=.=.=.=.&.&.&.#.@.@.n b M S 2.`.OX+X=X=X:X+X:X:X:X>X2X2X2X2X2X2X2X2X2X2X2X2X2X2X2X2X2X2X2X2X2XmX2XmXmXmX<X<X<X<X<X<X<X<X1X<X<X-X<X<X<X-X*X*X&X@X@X@X.X.XXX.X|.XXoXJ.D.D.D.F.D.G.G.D.D.G.0.D.D.0.D.D.D.D.D.0.9.9.9.9.9.0.D.G.D.D.D.D.D.G.9.9.9.G.' O                                                                                                                   X X                                     X X O O O X X O O O O O O O O O O O o o o O o o o o o O O O O O O O O O O O o o o o O o o o o o o o O O O o o o O O O o o o o o o o o o o o - o o o + - + o o o o o o o o o O O       O o o o o o o + - 1 < 1 r a a p f f G G G G G G G ] m.6X6X9X9XqXqXqXqX6X6X6X4X6X4X4X4X4X4X4X4X4X4X4XT.4X4X4X4XT.T.4X4XT.T.T.Y.Y.Y.Y.Y.Y.Y.Y.Y.I.I.C.C.C.C.B.m.M.b.b.z.h.d.i.{ [ U L P J p p i i i p f J P L Y ] { { { { { { { { { { { { [ ] Y L L J N N f p i i i i 9 8 * * * * ",
"U.U.Q.Q.Q.Q.Q.Q.Q.U.U.U.U.I.Z.Z.I.Z.B.B.B.B.V.V.B.B.B.Z.P.I.I.I.I.I.I.I.I.I.U.U.I.U.U.U.U.U.U.U.U.U.U.U.U.Q.W.W.W.W.W.!.!.7X7X7X7X!.8X~.K.f p f a a a a r t r u r r r r r r r r r r r r r u u u r r r t r r u r u u u r r r t t u r r r r r r r t < < < < < , : 2 2 o o o o X X X X X X X           X X X X X X X X X X X X X X X X X X X X X X X X X X X X X X X X X X X X X X X X X X X X X   X X X X                                                                                                                                                                                                                                                               X X X               X X X X o   O + x -.<.G.G.D.G.G.0.0.D.{.{.D.D.D.D.D.9.<.0.D.9.9.D.D.D.D.D.F.|.D.D.D.D.D..X.XD.9.D.F.|.D.D.9.D.F..XoXF.XX#XF..X{.{.G.{.XXoXoX.X{.@X*X%X%X%X%X*X;X*X*X%X*X*X*X-X-X-X-X-X-X-X-X-X*X*X*X%X&X*X@XoXOXOX`.'.q.%.M k z m m m #.%.&.&.&.*.&.%.%.&.&.&.&.&.&.&.#.@.@.@.b M m &.e.`.OXOXOX=X>X=X:X:X:X:X2X3X3X2X2X2X2X2X2X2X2X2X2X2X2X2XmXmXmXmX2X2X2X2X2XmX<X<X<X<X<X<X<X1X-X-X-X-X-X<X<X<X*X&X&X&X@X&X&X.XD..XF.F.XX.XD.D.D.D.D.G.9.9.0.G.0.9.D.D.D.D.D.0.0.0.9.9.9.9.0.D.D.D.D.D.D.G.G.G.G.G.8.9.' +         X       .                                                                                                   X X                         X             X X X X X   X O O X   X O X X O O O O O O X O O o o o o O O O O O O O O O o o o o O o o o o o o o O O O O O O O O O O o o o o o o o o + + o o o o o o o o o o o o o o o o O         O o o o o + - - , , < r u a a p f f f G G G G G J U M.6X6X9X9XqXqXqXqXqX6X6X6X4X4X4X4X4X4X4X4X4X4X4XT.4X4X4X4XT.T.4X4XT.T.T.T.Y.Y.Y.Y.Y.Y.Y.Y.I.I.C.C.C.C.B.B.m.M.b.z.j.s.u.{ [ Y L P J f p i p p p J J P L Y ] { { { { { { { { { { { } { ] ] Y L P J f f f p p i i i 9 8 8 8 8 ",
"U.Q.Q.Q.Q.Q.Q.Q.U.U.U.U.Z.Z.Z.Z.I.B.B.B.V.V.B.B.B.B.B.B.B.B.I.U.I.I.I.I.U.U.U.U.Q.U.U.U.U.U.U.Q.Q.Q.Q.Q.Q.Q.Q.Q.T.W.W.!.7X7X7X7X8X7X8XwXu.p p f a a a a u u u u r r r r r r r r u r r r r r r u t u u r r u u t r r u r r r r r r r r r r r r r t t 1 1 < < , 2 2 2 : o o X X X X X X         X     X X X       X X X X X X X X o X X X X X X X X X X X X X X           X     X X X X X X X     X                                                                                                                                                                                                                                                               X X           X X       X X X X   X X O O - c 1.9.9.9.0.G.G.D.F..X.X.X|.D.D.D.'.D.D.D.D.9.G.D.D.D.G.D.D.D.D.D.F.D.D.|.|.D.G.D..X.XG.D.F..XXXoX.X.XF.oXD.F.F.G.@XXXoX.XXX@X@X@X%X%X%X%X*X*X*X*X*X*X-X-X-X-X-X-X-X-X-X*X*X-X-X*X*X*X&X@XXXXXOX].'.q.2.S k k z b m n @.@.#.&.&.&.#.&.&.&.#.@.@.@.@.@.@.n k z %.q. X XOX+X=X=X>X>X>X:X:X:X>X>X2X2X2X2X2X2X2X2X2X2X2X2X2X2X2X2X2X2X2XmX2X<X<X<X<X<X1X<X<X<X<X<X<X-X;X*X%X*X-X-X-X*XXXXX&X@XXXoX|.D.G.D.9.G.F.D.0.D.0.G.0.9.9.9.9.0.G.0.D.D.D.G.0.0.9.9.9.0.0.D.D.D.D.D.0.9.D.9.9.G.9.8.1.e   O                                                                                                                                       X X       X X X X X O O X O O O     X O O O X   O X O O O O X X O O O O O O O O O o o o O O O o O O O O o o o o o o o o O o o o o O O o o o o o o o o o o o o o o o o o o o o o o o o O O o O O O O       O O o + o + o - - , < r r r a a f f G G G G G K G U M.6X7XqXqX9XqX4XqX6X6X6X4X4X4X4X4X6X6X4XT.T.T.T.T.T.T.T.T.T.T.4X4X4X4X4X4XW.Y.Y.Y.Y.Y.I.C.C.C.C.C.C.C.B.m.M.b.b.z.j.s.u.} [ ] U P J f p i p R J R P L U Y [ { i.{ { { { { { u.u.} } } { ] L L P J N N f p p p i i 9 8 > > 8 ",
"U.Q.Q.Q.Q.Q.Q.Q.U.U.U.U.Z.Z.Z.Z.Z.P.B.B.V.V.B.B.B.B.B.B.B.B.I.I.Z.I.I.I.I.U.U.U.Q.U.U.U.U.U.U.Q.Q.Q.Q.Q.Q.Q.Q.Q.W.W.!.7X7X7X7X7X7X7X8XR.U p p a a a r r r r r r r r r r r r r r u r r r r r r r r r r r r r r r u r r r r r r r u u u r r r t t t t t 1 1 < < , 2 2 : o o o X X X X X X             X X X   X X X X X X X X X X o X X X X X X X X X X X X X X       X   X X   X X X X X X X     X                                                                                                                                                                                                                                                                         X X X X       X X X X X X X O O + d ^ 8.9.9.9.G.D.D.D..XF.D.D.F.|.D.D.D.D.D.D.D.D.D.D.G.G.D.D.D.D.D.D.D.|.|.'.D.G.D..X.X0.D.J.oXXXoXoX.XF.F.G.D.F.D.XXoX{.{..XoX#X@X@X%X%X*X*X-X*X*X*X-X-X-X-X-X-X-X-X-X-X-X-X-X-X*X*X*X*X&X@XXXOX|.'.'.0.;.b k k l z b n n n @.@.@.@.@.#.#.@.S n n n n M M S 3._.`.`.OX+X=X=X>X>X>X>X:X>X>X>X2X2X2X2X2X2X2X2XmXmX2X2XmXmX2X2X2X2X2X2X2X<X<X<X<X<X<X1X-X<X<X1X1X<X-X-X*X%X*X*X*X-X%XH.XX&X&XXXoXD.D..X|.0.G.D.D.9.0.0.0.0.0.9.9.9.0.0.9.0.0.0.0.9.q.9.9.9.0.D.D.D.D.D.D.0.G.9.9.9.1.G.8.d     O                                                                                                                       X           X X X X   X   X X X X X X O O O O O   X O O O O O X O O O O o O X X O O O O O O O O O O o o O O o o O O O o o o o o o o o o o o O O O O o o o o o o o o o o o o o o o o o o o o o o o o o o o o O O O O       O O o + o o - - , 1 1 r r r a a f f f G G G G G G L k.4X7XqXqX0XqX4XqX6X6X6X4X4X4X4X4X4X4X4X4X4X4X4X4X4X4X4XT.T.T.T.T.T.T.T.T.Y.Y.Y.Y.Y.Y.Y.I.I.I.I.I.C.C.B.m.m.M.b.z.j.s.u.} [ ] U L J J p p p p R R P U Y Y T { i.{ i.i.{ i.u.u.d.u.} { [ Y L L P J J N f f p p p i u 9 8 8 9 ",
"U.Q.Q.Q.Q.Q.Q.U.U.U.U.U.Z.Z.Z.Z.B.B.P.B.B.B.B.B.B.B.B.Z.B.P.I.I.P.I.I.I.U.U.U.U.U.U.U.U.U.U.U.U.Q.Q.Q.Q.Q.Q.Q.Q.W.W.!.6X7X7X7X7X7X8X8XK.G p p a a a r r u u u r r r r u u r r r r r r r r t r r r r r r r r r r u r r r r u r r u u r r r r t t < < 1 1 < < < < 2 2 o o o o o X O X X                 X X X X X X X X X X X X X X X X X o o X X X X X X X X X X X X X X X   X   X X X X X X X X X                                                                                                                                                                                                                                                                           X X X X   X X X X X X X X o o o 3 x 1.8.9.9.D.F.D.D.F.D.D.D.F.F.D.D.|.|.J.D.F..X{.D.D.D.D.D.D.D.D.D.D.F.|.F.D.D.D.|.D.9.D..X.X.X.XXX.XF.{.D.D.oX{.XX.X{.{.F..X#X@X@X%X%X*X*X-X*X*X*X-X-X-X-X-X-X-X-X-X-X-X-X-X-X-X*X*X*X&X$XXXOX X'._.0.4.%.k 4 k l l M z z b b n m S S S @.@.n z M k z %.q._._.|.+X=X=X>X>X>X>X>X>X>X>X>X2X2X2X2X2X2X2X2X2XmXmX2X2XmXmXmXmX2X2X2X<XmX<X<X<X<X<X<X1X-X1X1X1X1X<X1X-X-X*X%X%X%X*X%XJ.D.|.oXXX.XD.0.D..X0.0.D.9.9.9.0.0.0.0.0.9.9.9.9.9.0.0.0.9.9.9.9.9.G.D.D.D.0.0.0.D.9.9.9.9.9.<.G.Z     O                                                                                                                                   X     X         X X X X X X X O X O O X X O O O O O O O X O O O X X O O O O O O O O O O O o O O O o o O O O o o o o O o o o o o O O X O O o o O O o o O o o o o o o O o o o o o o o o o o o o o o o O O         O O o O o + - , , 1 1 r r r a a f f f G G G G G G P p.T.6XqXqX0XqX6XqX6X6X6X4X4X4X4X4X4X4X4X4X4X4X4X4X4X4X4X4XT.T.T.T.T.T.T.T.Y.Y.Y.Y.Y.Y.Y.Y.I.I.I.I.I.C.C.B.m.M.b.b.h.s.d.u.[ ] U L P J H H H p R J P U Y Y Y [ { i.u.u.u.u.u.u.u.u.u.{ ] ] Y L P P J J N f f p p p u u u u i ",
"U.U.Q.Q.Q.Q.U.U.U.U.U.U.Z.Z.Z.Z.B.B.B.B.B.B.B.B.V.B.B.Z.Z.P.I.I.I.U.U.U.U.U.U.U.U.U.U.U.Q.Q.U.Q.Q.Q.Q.Q.Q.Q.Q.Q.W.W.W.!.7X7X7X7X8X!.wXl.G p p f a a r r u u u r r r r r r r r r r r r r r t r r r t r u u r r u u r r r r u r r r r r r r r r r < < < < < < < < 2 2 o o o o o o o X     X X             X X X X o o o X X X     X X X X o X X X X X X X X X X X X X X X X X X X X X X X X X X X X                                                                                                                                                                                                                                                                           X X X X X X X X X   X X X o : o + 3 ^ <.9.9.9.D.F.F.D.F.F.F.D.D.D.D.|.|.F.D.F..X.X.X.XD.D.D.D.D.D.D.D.D.'.F.D.D.D.D.D.9.D.J.F..XH.oX{.F..XF.{.oX{.F.oXoXF.D.F.XX@X#X%X%X*X*X;X-X-X-X;X-X-X-X-X-X-X-X-X-X-X-X*X-X-X-X*X*X*X$X$XOX X`.r.0.q.;.b 4 4 k k k l l l M z b b b b b z M k k M &.r._._.'.|.+X=X:X>X>X>X=X>X>X2X2X2X2X2X2X2X2X2X2XmXmXmX2X2X2X<X2X2X2X2X2X<X<XmX2X<X<XmXmX<X<X<X<X1X1X1X1X1X-X*X%X%X@X@X*X&XXXD.D.|.@XXXD.0.D.|.D.G.D.9.9.9.0.G.D.D.0.0.9.9.9.0.0.0.0.9.9.9.9.0.D.D.D.0.0.q.9.0.9.<.9.9.9.G.(     O                                                                                                                                                       X X     X X   X X X   X X O O O X   O X   O O   X O O O O O O O O O O O O O O O O O O O O O O o o o O O O o o o o O O o o o O O o + o o o o o o O O o o o o o o O o o o o o o o o O O         O O o + o o o - , < 1 r r a a a f f f G G K G K G P u.T.6XqXqX0XqX6XqX6X6X6X6X4X4X4X4XT.4X4X4X4X4X4X4X4X4X4XT.T.T.Y.Y.T.T.T.Y.Y.Y.Y.Y.Y.Y.Y.Y.Y.I.I.C.C.C.B.B.m.M.b.z.j.s.d.u.{ ] ] L P J J J R H R J P U Y T Y [ { i.u.u.u.u.u.u.u.u.u.{ ] ] ] L P P J J N H f p p p i u u u p ",
"U.U.Q.Q.Q.Q.U.U.U.U.U.U.U.Z.Z.Z.Z.B.B.V.V.V.B.B.V.B.B.Z.Z.Z.P.I.U.I.U.U.U.U.U.U.U.U.U.U.R.R.R.R.Q.Q.Q.U.Q.Q.T.T.Q.W.W.!.7X7X7X7X8X!.wX} G p p p a u r r u u r r r r r t t r r r r r r r r t 1 r r t t u u r r u u r r r u u r r r r r r r r r r < < < < < , , , 2 2 2 o o o o o o X     X X             X X X X o o o X X X X X   X X X X X X X X X X X X X X X X X X X X X X X X X   X X X X X X                                                                                                                                                                                                                                                                             X X X X X X         X X o o X O , x ' 8.<.<.G.D.D.D.D.F.D.D.D.D.D.D.D.F.D.D.F..X.X.XF.D.D.D.D.D.D.D.D.F.D.D.D.D.D.G.D..XF.D..XoXH.F.F.F.D.D.{.D.G.{.{.D.G.D.H.#X@X%X%X%X*X;X;X-X-X*X*X*X-X-X-X-X-X%X*X*X*X*X*X=X-X*X*X*X$X+XOX X`._.r.3.;.%.k 4 4 4 4 4 4 k k l l l l l k k k M b ;.0.'.'.|.+X=XOX=X:X>X>X>X=X>X>X2X2X2X2X2X2X2X2X2XmXmXmXmX2X<X<X<X<X<X<X<X2XmXmXmXmX<X<XmXmXmXmX1X1X1X1X1X1X-X*X*X%X@XXXoXXX&XXX|.D.0.D.oX|.D.D.D.D.D.D.0.9.9.D.G.0.0.0.0.0.9.9.9.9.9.q.9.9.9.0.D.D.D.0.0.0.9.0.9.9.9.9.8.8.-.+   O     o                                                                                                                                                                   X O   X X X         X     X X     X O O O O O O O O O O O O O   O O O O O O O o o o O O O O O o o o O o o o O O O o o o o o o o o O o o o o o o o O o o o o o o O             O O o o o o o o - < 1 r u a a a f f f G G G G J G J i.T.6XqXqX0XqXqX0X6X6X6X6X6X4X4X4X4X4X4X4X4X4XT.T.T.T.T.T.T.T.Y.Y.T.T.Y.Y.Y.Y.Y.Y.Y.Y.Y.Y.I.I.I.C.C.C.C.B.m.M.b.b.j.s.d.u.{ [ ] L L J J J J J R J P U Y T T [ { i.i.u.u.u.u.u.u.u.d.{ ] ] ] L P P J J J J H f p p p i u p p ",
"Z.U.Q.Q.Q.Q.U.U.U.U.U.U.U.Z.Z.Z.I.Z.B.V.V.V.B.P.B.B.B.Z.B.Z.P.I.I.I.I.I.U.U.U.U.U.U.U.U.R.R.R.U.Q.Q.Q.U.Q.Q.T.T.W.W.W.6X7X7X7X8X!.8X~.L p p f u u u r r r u u u r r t 1 < t r r r r r r r r r r r r r r u r r u r r r r r u r r u u r r r r 1 < 1 < < < < < , , , 2 2 : o o o o O X X X X               X X X X X X X X X X X X X X X X X X X X X X X X X X X X X X X X X X X X   X     X X X X X                                                                                                                                                                                                                                                                         X X X X X X X X         X X X X   X + 3 D 1.<.<.9.D.D.D.D.D.D.D.D.D.D.0.D.{.{.F.{..XoX.X.XF.D.D.D.D.D.D.D.D.D.D.D.D.D.D.D..XD.D..XH.D.{.F.{.F.D.F.{.G.F.D.D.G.D..X@X%X%X%X%X%X*X*X-X-X*X*X*X;X;X*X;X-X%X%X*X*X*X*X=X-X*X*X$X@XXXOX X`._._.2.>.;.b 4 + O + + 4 4 4 4 4 4 4 4 4 k b %.;.0.'.`.`.OX+X=X=X:X:X>X>X>X3X>X3X2X2X2X2X2X2X2X2X2XmXmXmX2X2X2X<X<X<X<X<X<X2XmXmXmX<X<X<XmXmXmXmX<X1X1X-X-X-X*X%X@X@X@XoXJ..XXX.X'.D.0.0.|.|.D.0.D.D.D.D.0.9.9.0.9.9.9.9.0.9.9.9.9.9.9.9.9.9.9.0.D.D.0.9.9.9.9.9.2.<.9.8.9.1.e               O                                                                                                                                                               X                   X           X O X O O O O O O O   O O O       O o O O O O O o o o o O O O O O O O O O O O O O o o o o o o o o O o o o o o o o O o o o o o O             O O O O + - - o o - < r r u a a a a f f G G G G K G J [ R.7X0XqXqXqXqX0X6X6X6X6X6X4X4X4X4X4X4X4X4XT.T.T.T.T.4X4X4X4X4XT.T.T.Y.Y.Y.Y.Y.Y.Y.Y.Y.Y.I.I.C.C.C.C.C.C.m.M.b.b.x.g.d.u.{ [ ] L L P J J J J J J L U T [ { { { i.i.i.i.u.d.d.d.d.u.{ [ ] ] L P P J J J J J R H f f p p p p ",
"Z.U.Q.Q.Q.Q.Q.Q.U.U.U.U.I.Z.Z.Z.I.I.Z.B.B.B.B.Z.B.B.B.B.B.B.P.I.I.I.U.U.U.U.U.U.U.U.U.Q.R.R.U.U.Q.Q.Q.Q.Q.Q.T.T.W.W.W.6X7X7X7X8X!.wXP.G p f f u u a a u r r u u r r r t t r r r r r r r r r r r t r r r r u u u r r r r r r r r u r r r r t < < t t 1 < < < < < , , 2 2 o o o o X X X X                 X X X   X X X X O O o o X X X X X X X X X X X X X X X X X X X X X X X X X               X                                                                                                                                                                                                                                                                           X X X X X X           X X X X X X + 3 l / <.<.9.D.D.F.D.D.D.F.F.D.D.G.D.{..X.XoXoXoX.X|.'.|.|.D.D.D.D.D.D.D.D.D.D.D.D.D.F.D.D.F.F.F..XF.F.F.D.F.oXF.{.F.F.F..XoX@X%X%X%X%X%X%X*X*X-X*X*X*X*X;X;X-X-X*X*X-X-X*X*X*X*X*X*X@XXXOXOX X`._.e.3.2.5.) k 4 O     O O + + + 4 + 4 k m %.2.0.'.'.`.oX&X=X&X=X>X>X>X>X3X3X3X2X2X2X2XmXmX2X2X2X2X2XmXmXmX2X2X2X<X<X2XmXmXmXmXmX<X<X<X<XmXmXmX<X<X<X<X-X-X-X*X%X@X@XXX.XF.|..XF.D.|.D.0.D..XJ.D.0.D.G.D.0.9.<.9.9.9.9.q.9.9.9.9.9.9.2.9.9.9.9.0.D.0.9.9.q.q.9.9.9.<.8.8.1.c O O             O                                                                                                                         X X X     .                           X   X X X     X X X X     X X   X O X X X O O O O O   O O O     X O O O O O O O o o o o O O O O O O O o O O O O O O o o o o o o O o O o o o o o o O o o o o o O X           O O O O o + - - + , 1 r r r a a a p f f G G G G J G J [ R.7X9XqX0X0XqXqX4X6X6X6X6X6X4X4X6X6X4X4X4X4X4X4X4X4X4X4X4X4X4X4X4XT.Y.Y.Y.Y.Y.Y.Y.Y.Y.Y.I.C.C.C.C.C.C.B.m.M.b.b.k.g.d.i.{ [ ] U L P P J J J P P U Y [ { { { { i.i.i.i.u.u.u.u.} { { [ Y U L L P P J J J J J R H H f f f H ",
"Z.U.Q.Q.Q.Q.Q.Q.U.U.U.U.I.Z.Z.Z.I.I.I.I.B.B.B.Z.B.B.B.B.B.B.I.U.U.U.U.U.U.U.U.U.U.U.U.Q.Q.U.U.U.Q.Q.Q.Q.Q.Q.Q.Q.W.W.W.!.7X7X7X7X!.8Xl.G p f a a r u u r r r r u r r r r r r r r r r r r r r r r t r r r r a a r r r r r r r r r r r r r r r t t t < < < < < < < < , 2 2 o o o o X X X X               X O O X   O O O O X X X X X X o X X X X o X X X X X X X X X X X X X X X X X X             X                                                                                                                                                                                                                                                                                 X X X       X   X     o o o + - + v 1.<.9.G.G.D.F.{.{.F.D.D.D.D.D.F.F.{..XoX.XD.D.F..X.XF.D.D.D.D..X.X.X.XF.D..XD.D..X.X.XF..XD.D.F.F.D.D.{.F.{.F.F.{..XoX.X@X%X%X%X%X%X%X%X*X*X*X*X*X*X-X-X-X-X-X-X-X*X*X*X*X*X$X@XoXOXOX].`.).0.0.0.>./ M 4 O           O O O 4 l ) :.<.q.'.'.|.OX+X=X=X=X>X3X>X=X>X3X2X2X2X2X2XmXmXmXmXmXmX2X2XmX2XmXmXmXmX2X2X2XmXmXmXmXmX<X<X<X<X<XmX<X<X<X<X<X1X1X1X-X*X&X@XXX.X|..X.XD.D.|.D.9.9.D.|.J.D.D.0.G.D.9.w.9.<.9.9.9.2.<.<.9.9.2.<.9.9.9.q.0.0.9.9.2.9.9.2.<.9.9.8.1.A + O   X       X O                                                                                                                           X X X X X                               X O O X X X X O O O X X X O X O O X X X O O O O O O O O O     X O X O O O O O O o O O o o o o O O o o O O O o o o o o o o o o O O O o o o o o o O o o o o o o O O         O O O O o o - , , , 1 1 1 r u a a p f f G G G G K G G ] R.7X9XqX0X0X6X6X5X6X6X6X6X6X4X4X6X6X4X4X4X4X4X6X4X4X4X4X4X4X4XT.T.T.T.Y.Y.Y.Y.Y.Y.Y.Y.Y.I.C.C.I.C.C.B.m.M.M.b.b.j.g.d.i.[ ] ] U P P P J J P L L U T [ { [ [ { i.u.i.u.u.u.u.{ { [ { ] Y U L L P P P P P J J R R J J H J J ",
"Z.Z.Q.Q.Q.Q.Q.U.U.U.U.U.U.Z.Z.Z.B.I.B.B.V.V.B.B.B.B.P.B.B.Z.P.I.I.I.I.U.U.U.U.U.U.U.U.U.U.U.U.U.Q.Q.Q.Q.Q.T.T.W.!.!.!.!.!.7X7X7X8XwX| p G f a a a a a u t t r r r r u u r r r r r r r r r r r u r r r u u r r r u u r t r r u r r r r r r r r r t t 1 1 < < < < , 2 : 2 : : o o X X X o X X             X X X X X X o o X X X X X X o X X X X X X X X X X X X X X X       X X X                                                                                                                                                                                                                                                                                                                 X X X X X o o o + + 4 ^ 1.9.9.9.G.F.F.F.F.D.D.D.D.F.F.D..X.X.XF..XoXoX.XoX.XD.G.D.F..X.X.XJ.J.F..XF.'.XXoXD.D.F..X{.{.F.D.F.{.F.F.D.F..XoXoXXX#X%X@X@X@X%X%X*X*X%X*X-X-X-X-X-X*X-X-X-X*X*X%X%X*X$X@XXXoXoX].`.`._.r.0.3.,.*.b k +         O O O + v / *.2.q.'.'.|.oX+X&X=X>X>X>X>X>X2X2X2X2X2X2X2X2X2XmXmX2X2X2XmX2X2X2X2X<X2X2XmXmXmX2XmXmXmXmXmX<X<X<X<XmX<X<X<X<X1X1X-X-X-X=X&XJ.XX$XXX|.D.D.D.D.'.9.<.D.D.0.D.D.D.0.D.<.9.q.w.<.9.9.2.2.9.9.<.<.<.<.w.q.9.9.<.<.<.9.w.:.:.q.<.9.1.x +                                                                                                                                                         X X X X     X X X       X X X X X       X X o X X X X X X X X X o O X X X X X O O O O O O O X X X X O O O O O o o O O o o o X O o o o o o o O o o o o o o o o o o o o o o o O o o o o o O X         X X X O o o o o , 1 1 1 < r r u a a a f f G G G G G G G U P.0X4XqXqX9X7X7X6X6X6X6X4X4X4X6X4X4X4X4X4X4X4X4X4X4X4X4X4X4XT.4X4XT.T.Y.T.Y.Y.Y.I.U.U.U.U.I.U.U.Z.C.C.m.m.M.b.z.j.s.u.} [ ] U L L P P P P P P L Y Y [ [ { { i.i.u.u.i.{ i.i.{ [ [ ] ] Y I L L L L P P P J R R R J J J J P ",
"Z.Z.Q.Q.Q.Q.Q.U.U.U.U.U.U.U.U.U.B.Z.B.B.B.V.B.B.B.B.Z.B.Z.Z.I.I.I.I.I.U.U.U.U.U.U.U.U.U.U.U.U.U.Q.Q.Q.Q.Q.Q.Q.T.W.W.!.!.!.7X7X7X8X8XU p f a a h a a a u t t r r r r r u r r r r r r r r r r r r u u u u u u u r r u r t r r r r r r r r r r t t t < 1 < < < < < < , , 2 : o o o X X o X X X               X X X X X o o X X X X o o o o X X X X o o X X X X X X X X       X X X X X X X X X X X       X X                                                                                                                                                                                                                                                                                       X X X X X X o O + + 3 e ' 9.1.9.D.D.D.F.F.D.F.J..XJ.D.G.D.D.J.D..X.X.X.X|.D.D.D.D.D.F..X.XoX.X.X.XF.F..X.XD.D.F.D.D.D.D.D.D.F.D.F.{.{.F..XXXXXoX#X#X#X@X@X%X%X%X*X*X-X-X-X-X-X-X-X-X-X-X*X*X*X*X$X$XOXoXoX].`.'._.e.0.3.,.&.n k 4 O           4 v / *.>.3.0._.'.OX+X=X:X>X3X2X>X>X>X2X2X2X2X2X2X2X2X2XmXmXmX2X2XmXmX2X2X<X<XmXmXmXmXmX2XmXmXmXmXmXmX<X<X<X<X<X<X<X<X1X1X*X%X*X=X&X.XoXoXoXoX.XF.D.D.D.9.9.0.D.0.9.D.D.0.9.2.q.9.2.<.9.9.9.2.2.2.2.<.2.9.w.q.q.q.9.<.9.9.:.2.q.<.9.<.v +       o                                                                                                                                                 X X X X X X     X         X   X X         X O O X X X X X X X X X O O X X X X X O O O O O O O O O O O O O O O O o o O O o o o O o o o O O O O o o o o o o o o o o o o o o o o o o o o o o O X         X O X O o o O o 2 , 1 < < r r u a a a f f K K G K G G G U m.0X4XqX6X7X6X7X6X6X6X6X6X6X6X6X4X4X4X4X4X4X4X4X4X4X4X4X4X4XT.4X4XT.T.Y.T.T.Y.Y.U.U.U.U.I.I.I.C.Z.C.C.m.M.b.z.k.j.s.u.} [ ] U L L P P P P P P L U Y ] [ [ { { i.u.u.u.} { { { [ [ ] ] Y Y I L L L P P P J J P L L L L L L ",
"Z.Z.Q.Q.Q.Q.Q.Q.U.U.U.U.U.U.U.U.Z.Z.Z.B.V.B.B.B.B.B.P.P.Z.P.I.I.U.U.U.U.U.U.U.U.U.U.U.U.U.U.U.U.Q.Q.Q.Q.R.Q.Q.Q.W.W.W.!.6X7X7X7X8XE.P a p a a a a a a u r t r r r r u u r r r r r r r r r r r r r r u u r u u u r u u r r r r r r r r t r t 1 t < < 1 < < < < < < < 2 : : : o o X X X X X                 X X   X X X X X X X X X X X X X X X X 2 o X X X X X X X X X   X X X X X X X X X X X X         X                                                                                                                                                                                                                                                                                       X X X X X X X O O O + + x -.-.9.D.D.D.J.F.D..X.XF.D.G.9.9.D..X.XXX|..XoXD.D.F.F.D.D.D.F.oXXX.X.X.X.X.X.X.XF.F.F.9.G.D.F.D.D.F.D.oXXXoX.XoXoXXXoX#X#X#X#X@X%X%X%X*X%X%X*X-X-X-X-X-X-X-X-X-X-X*X*X*X&X$XXXoX].`.'._.e.0.3.,.&.n l 4 +     +   O v / ;.>.2.0._.`.|.OX&X:X>X>X2X2X2X2X2X2X2X2X2X2X2X2X2XmXmXmXmX2X2XmXmX2X2X<X<XmXmXmXmXmX<X<X<X<X<X<X<X<X<X<X<X<X<X1X<X1X1X%X%X%X*X&XXXXX|.|.XX|.D.D.D.9.9.0.9.0.9.w.0.0.9.9.<.q.q.9.9.9.2.2.2.2.2.2.2.9.q.q.w.9.9.2.w.9.2.2.2.9.9.<.v +                                                                                                                                                           X       X X     X           X   X       X X X X X X X X X X X X X X X X X X X   X O o o O X X O O O O o o O o o O o o O O o o O o o O X X O O o o o o o o o o o o o o o o o o o o o o O o O O       X O O X O o O O o + , , < 1 r r u a a a f G G G G G G G G L M.6X6XqX4X6X6X6X6X6X6X4X4X6X6X6X6X4X4X4X4X4X4X4X4X4X4X4XT.T.T.T.T.T.T.Y.T.T.Y.Y.U.U.U.U.I.C.Z.C.B.m.m.m.M.b.k.j.f.u.i.{ [ ] U L L P P P P P P L U Y ] ] [ { { i.u.u.u.u.{ { [ ] ] ] Y Y Y Y I I I L L P P P L L U U U Y Y ",
"Z.U.Q.Q.Q.Q.Q.Q.U.U.U.U.U.U.U.U.Z.Z.B.B.B.B.B.B.B.B.Z.P.I.I.I.U.U.U.U.U.U.U.U.U.U.U.U.U.U.U.U.U.Q.Q.Q.Q.R.Q.Q.Q.W.W.W.!.6X7X7X8X0XK.G f f a h a a a u u u u r r r r r r r r r r r r r r t t r r r r r r r r r r r u a r r r r r r r r t r t 1 t < < < < < < < < , , , : 2 2 : : o o X X X                 X X   X X o X X X X X X X X X X X X X o o o X X X X X X X X X X X X   X X X X                                                                                                                                                                                                                                                                                                   X X X X X X X X X X X O O + + + x 1.8.G.G.D.J.F.D..XJ.oXJ.D.D.D.D.D.F.XX|..XoXD.D..X.XD.D.D.F.oXoX.XF..X.X.X.X.X.XF.D.9.G.D.{.F.{.{.F.@X.X.X#XXXF..X#XXXXXXX@X%X%X*X*X%X%X%X%X*X*X*X-X-X-X-X*X*X*X*X*X*X$X@XXXoX].`.'._.e.0.3.,.&.@.z 4 + O O O + e ) %.;.,.3._.`.|.oX$X&X:X>X>X2X2X2X2X2X2X2XmXmXmXmXmXmXmXmXmXmXmXmX2X2X2X<X<X<X<XmXmXmX<X<X<X<X<X<X<X<X<X<X<X<X<X<X1X1X1X*X%X%X%X&X@XoXoXJ.D..XD.G.D.D.9.2.0.<.9.9.2.9.9.0.9.<.2.0.0.9.<.<.:.:.2.2.2.<.w.q.w.2.2.<.<.2.<.<.9.<.1.1.v +   +     X                                                                                                                                                           X X                             X X X X X X X X X X X X   X X     X X   X O o o X   X O O O O O o O O o O o o O X O o O o o O O O O O O o o o o o o o o o o o o o o o o o o o O o O O X     O O O O O o O O o o 2 , < 1 r r u a a a f G G G G G G G J P l.6XqX0X4X6X6X6X6X6X6X4X4X4X4X4X6X6X4X4X4X4X4X4XT.4XT.T.T.T.T.T.T.T.T.Y.T.T.T.Y.U.U.U.U.C.Z.C.C.m.m.M.n.b.b.k.j.u.u.{ [ [ ] U L P P P P P P P L U Y Y Y ] [ { { i.u.d.} { { ] Y Y Y Y Y Y Y Y Y Y I I L L L L L Y Y Y Y Y ",
"Z.U.Q.Q.Q.Q.Q.Q.Q.U.U.U.U.U.Z.Z.Z.B.B.B.B.B.B.B.B.B.Z.Z.Z.I.I.U.U.U.U.U.U.U.U.U.I.U.U.U.U.U.U.U.Q.Q.Q.Q.Q.Q.T.T.T.W.W.!.7X7X7X8X8Xl.p f f f h a a u r u u u u r r r r r r r r r r r r r t t r r r r r r r r r u u a a u r u u r u u r r 1 1 t t < < < < < < < < < , 2 2 : 2 : : o o X X                   X X X X X o X X X X X X X o o o o o o X o o o X X X X X X X X X X X                   X X                                                                                                                                                                                                                                                                             X X X X X X X X     X X X X X X o   + - O 4 ^ 1.8.9.G.D.D.D.J.F.@XoXJ.|.J.J.J..X.X|.oX.XD.|.XXD.D.G.D.D.F..XF.F..X.X.X.X.XF.D.D.G.G.D.{..X.X{.D.F.F.F.XXoXD.F.#XoXXXXX#X@X%X%X*X%X%X%X%X*X-X*X*X-X-X-X*X*X*X%X%X*X$X@XOXoX|.`.'.e.0.0.3.,.&.@.z k 4 + O O l ) -.*.,.3.e.`.`.{.OX&X=X>X>X2X2X2X2X2X2X2X2XmXmXmXmXmXmXmXmXmXmXmXmX2X<X<X<X<X2X<XmXmX<X<X<X<X<X<X<X<X<X<X<X<X<X<X<X1X1X;X%X%X%X&X@XoXD.|.D.D.D.D.D.D.D.9.:.9.<.<.<.2.9.9.0.9.<.2.9.9.2.<.<.<.:.:.<.2.<.2.w.2.<.<.:.:.:.9.9.<.<.' x + O           X                                                                                                                                                                                     X X X X X X       X X X X X   X X     X X X X O o O X     O X O O O O O O O O o o O X O o O O O O O O O O O o o O O o o o o o o o o o o o o O O O O o O O       X X X O O o o o o o 2 2 < 1 t t r u a a f G G G G G G K K P k.4XqX0X4X6X6X6X6X6X6X4X4X4X4X4X6X6X6X4X4X4X4X4XT.T.T.T.T.T.4XT.T.T.T.T.Y.Y.T.Y.U.U.U.U.I.C.C.C.M.M.n.b.b.z.j.f.u.i.{ [ ] U L L P P J P P P P L L U Y Y Y ] [ { { u.u.{ { ] Y Y Y Y Y Y Y Y Y Y L U L L L L U U Y Y ] ] [ ",
"Z.U.Q.Q.Q.Q.Q.Q.Q.Q.U.U.U.Z.Z.Z.P.B.B.B.B.B.B.B.B.B.B.I.Z.Z.I.I.I.U.U.U.U.U.U.U.I.I.U.U.U.U.Q.U.Q.Q.Q.Q.Q.W.W.W.W.W.W.!.7X7X7X8X8X} p p a a a a u u u u u u u r r r r r r r r r r r r r t r r r u u r r r r r r u a a u u u u u u u r r t t t t < < < 1 1 < < < < < < 2 : 2 o o o o X X X                 X X X X X o o X X X o X X o o X X o o   X o o X X X X X X X X X X     X X X X         X X X                                                                                                                                                                                                                                                                             X X X X X X X     X X X X X X o   + O + , w ' <.9.G.D.F.F..XXX.XD.D.J..XoXoX@X.XoXXX.XJ.oXXXD.D.D.F.F.F..X.X.X.XF.D.F.F.D.D.D.G.9.G.D.F.{.F.D.G.F..X{.F..XXXXX.XXX#X@X%X%X*X*X%X%X%X*X-X-X*X*X*X*X*X*X%X%X%X%X*X&X@XXXXX|.`.'.r.0.3.3.>.&.@.n k 4 + + 4 m -.;.>.3.e._.[.].XX=X=X>X>X3X2X2X2X2X2X2X2X2XmXmXmXmXmXmXmXmXmXmXmXmX2X2X<X2X2X2X<X<X<X<X<X<X<X<X<X<X<X<X<X<X<X1X<X<X1X*X%X#X@X@X@XXXoXD.|.|.D.D.9.0.D.D.9.<.9.2.<.<.<.9.9.9.9.9.2.<.<.<.<.:.<.:.:.<.2.:.<.2.<.:.:.<.2.<.9.9.8.' x O   O O                                                                                                                                                               X X       X X           X       X X                   X X X   X X     X X X   O O O X   X O X X X X O O O O O o o O O o o O O O O O o o O O O O O O o o o o o o o o o o o o O O O O o O X       O O X O O O o o o o o 2 , 1 t t r u u a h G G K K G K G J P k.4XqX0X4X7X6X6X6X6X6X4X4X4X4X4X6X6X6X4X4X4X4X4X4XT.T.T.T.T.4X4XT.T.T.T.Y.Y.Y.Y.U.U.U.Z.C.C.B.m.m.M.n.b.z.j.f.u.i.{ [ Y U L L P J J J J P P P L L L U U Y Y [ { { { { { ] Y Y Y L L L I Y Y Y Y Y Y I L L Y Y Y T T [ [ [ ",
"Z.U.Q.Q.Q.Q.Q.Q.Q.U.U.U.U.Z.Z.Z.P.B.B.B.B.B.B.B.B.B.B.B.B.B.I.I.I.I.I.U.U.U.U.U.U.U.U.U.U.U.U.U.U.U.U.U.Q.T.W.W.W.W.!.6X7X7X7X8X~.o.p p a a a a a u u u u u u r r r r r r r r r r r r r r r r r a u r r r r r r u u u r u u u u u u r r t < < < < < 1 1 1 < < < < < , 2 2 : o o o o o X X X X             X X X X o o o X X X o X X X X X X X X X X X X o o X X X X X X X X X X X X X X X X X X X X X                                                                                                                                                                                                                                                                                                 X X X X X X X o   - 1 + x ' 9.9.9.D.|..X@XXXJ.D.|..XJ.J..XXXXXXXoXoXXX.XF..X.X.XF.F..XoX.X.XD.D.F.'.D.D.F.G.9.G.D.F.F.F.D.D..XoX.X.XXX@X.X#X@X@X@X%X%X%X%X%X%X%X%X*X*X*X*X*X%X*X*X%X%X%X%X&X&X@XXXXXoX`._.r.0.3.3.>.&.@.n k 4 4 4 l %.;.>.2.e.r.[.].OX$X=X>X>X2X2X2X2X2X2X2X2X2X2XmXmXmXmXmXmXmX2X2X2X2XmX<X<X2X2X2X2X<X<X<X<X<X<X<X<X<X<X<X<X<X1X1X;X;X1X1X*X%X#XXXXXoXoXoXD.|.|.D.0.9.9.0.D.9.9.9.2.2.<.<.9.<.2.<.2.<.:.:.<.:.:.<.:.:.2.2.:.<.<.:.:.:.<.w.9.<.<.-.x O       X X     X                                                                                                                                                               X X X X       X X X                           X X X   X X     X X X X X O O X X X X     X X O O O O o o O O o o o X O O o o o o O O O O O o o o O O o o o o o o o O O O o o o O       X O O O O O O o o o 2 2 2 < < t t r u a a f G G K G G G G G P k.4XqX0X4X0X7X6X6X6X4X4X4X4X4X4X4X4X6X6X4X4X4X4X4XT.T.T.T.T.4X4XT.T.T.T.Y.Y.Y.Y.Y.Y.U.Z.C.B.m.m.n.b.z.x.j.s.u.i.{ [ Y U U L P J J J J J J P P P L L L U Y Y T [ [ { [ T Y Y Y L L L L L Y Y Y ] ] ] Y Y Y Y ] [ [ [ [ { { ",
"Z.U.Q.Q.Q.Q.Q.Q.U.U.U.U.U.Z.Z.Z.I.B.B.B.B.B.B.B.B.B.B.B.B.B.Z.I.I.I.I.I.U.U.U.U.U.U.U.U.U.U.U.U.U.U.U.U.Q.T.W.W.W.W.!.7X7X7X7X8XE.L p f f a r a a a u u u u r r r r r r r r r r r r r r r r r u u u r r r r r r u u u r r u u u u r r r < < < < < < 1 1 1 1 < < 2 2 2 2 : 2 o o o o o o X X X             X X X X o o o X X X o o o o o X X X X o X     o o o   X X X X X X X X X     X         X X X                                                                                                                                                                                                                                                                                           X X X X X X X X   o o o + + , - Z 1.<.9.D.D.D..X.XD.D..XXX.X.XoXXXXXXXoXXX.XJ.F..XXXXXD.D..X.XF.D.G.G.F..XD.D.D.D.G.D.F.F.F.F.F.F.{.oXoXoXoX.XF.#X@X@X@X@X@X@X@X%X%X%X%X%X%X%X%X%X%X%X%X*X%X%X%X&X@X@XXXXX|.`._.e.q.3.3.>.&.#.n k 4 4 4 m *.;.,.3.r.[.].OX$X=X=X>X2X2X2X2X2X2X2X2X2XmXmXmXmXmXmXmXmX2X2X2X2X2X2X<X<X<X2X2X<X<X<X<X<X<X<X<X<X<X<X<X<X1X1X*X;X;X*X1X*X%XXXoX.X.X.X.XD.D.D.D.0.9.<.2.0.:.9.9.<.2.:.<.2.:.<.:.<.:.:.-.:.:.<.2.<.:.2.<.:.<.<.:.-.:.w.<.<.8.' e O       X     X     X                                                                                                                                                         X X X   X X       X X X     X                   X X X X   X X   X X X X O X O O O O X   X X X X O O O O o o O O o o O   o o o O O o o o O O O o o o O O o o o o o o o O o o o o o O       O o O O O O O o o o , , 2 < < t r r a a a f G G G G G G G G L j.T.4XqX4X7X6X6X4X4X4X4X4X4X6X6X4X4X4X6X6X4X4X4X4XT.T.T.T.T.4X4XT.T.T.T.Y.Y.Y.Y.Y.Y.U.Z.C.m.M.n.b.z.x.j.h.u.u.{ { [ Y U L P P J J J J J J J P P P L L L L Y Y ] [ ] T Y Y Y L L L L L L Y Y ] ] ] [ [ T T [ { { { { { i.i.",
"Z.Z.U.U.Q.Q.Q.U.U.U.U.U.U.Z.Z.B.B.B.B.V.V.B.B.B.B.Z.Z.P.I.I.I.Z.U.U.I.I.U.U.U.U.U.U.W.W.U.U.U.Q.T.T.T.Q.Q.T.Q.Q.W.W.!.6X6X7X7X8XE.K p f a a a a a a u u u r r r t t t r u u r r r r r t t r r r r u u r r r r a u u u u u r r r u u u r r t t t t < < < < < < < < 2 : 2 2 2 o o o o o X X X X X           X X X X X o o o o o o o o o o o o o o o o o o X X X X X X X X X X X X       X X X X   X                                                                                                                                                                                                                                                                                         X X X   X X X             X o o o , - 4 ) 1.1.9.G.D.D..XJ.J.oXXXoX.X.X.XXXXXXX=XXX.XXX.X.X.XD.D..X.XF.G..X'.XXoXG.D..XD.G.F.F.G.D.F.D.D..X{..X#X.XF.XX@X@X#X#X@X@X@X@X@X%X%X%X%X%X%X%X%X%X%X%X@X@X%X%X&X@X@XXXXXOX`._.r.q.3.,.>.=.#.n k k 4 M %.&.,.,.t.r.[. X+X=X=X-X>X2X2XmX2X2XmXmX2X2X2XmXmXmXmXmXmXmX2X2X2X2X2X2X<X<X<X<X<X<X<X<X<X<X<X<X<X1X<X<X<X1X-X1X*X%X%X1X*X%X%XoXXXoXD..X|.D.D.|.D.9.D.w.2.<.9.9.2.2.2.:.:.:.<.<.<.:.:.<.:.:.<.2.<.<.2.2.:.<.<.:.-.:.<.<.:.1.^ e O                                                                                                                                                                     X                     X     X   X     X X X     X     X X X X X X X X O O X X O o     X O O O O O O O O X X X     O O O o o o o o o o O o o O O O O O o o o O O O   X o o O X O O   X O o O X       X O o o o O o o o o o , < < < r r u u a h f G G G G G G f G P h.6X9XqX5X0X7X6X6X6X6X6X6X6X6X6X6X6X6X6X4X4X6X6X4X4X4XT.T.T.T.T.T.T.T.Y.T.T.Y.Y.U.Z.C.Z.B.m.n.b.b.x.j.s.u.u.i.{ ] ] Y L P J J J J f f R J J P P P P L L L U Y Y ] Y Y Y U L L L L L L L Y Y ] [ [ [ [ [ [ { { { u.u.u.u.d.",
"Z.Z.U.U.Q.Q.Q.U.U.U.U.U.U.Z.Z.B.Z.B.B.B.V.B.B.B.B.Z.Z.P.I.I.I.I.I.I.U.I.U.U.U.U.U.U.W.W.U.U.U.Q.Q.Q.Q.Q.Q.T.Q.T.W.W.!.6X!.7X7X8XP.K p p a a a a a u u u u r r r t t t r r u r r r r r t t r r r r r r r r r r u r r r r r r r r r r r t < < t t t < < < < < < < < , 2 : 2 : o o o o o X X X X X             X X X X o o o o o o X o o o o X X X o o o X X X X X X X X X X X X X       X X       X                                                                                                                                                                                                                                                                                                 X X X X           X X X o 2 - 3 x ' 8.8.9.F.D.D.G.D..XoX.XJ.oXoXXX.X.X&XXX.XXX.XXXXX.X.XoX.XJ.'.XX.XXX.XG.D.oXG.D.{.F.G.F..XD.G.oXXXoX#X#XoX@X@X#X#X#X#X@X@X@X@X%X%X%X%X%X%X%X%X%X%X%X@X@X%X%X&X@X@XXXXX|.'._.r.q.3.,.=.=.#.+.M k k n *.>.3.t.[.[. XOX=X=X-X-X2X2X2X2X2X2XmXmX2X2XmXmX2X2X2X2XmXmX2X2X2X2X2X2X<X<X<X<X<X<X<X<X<X<X<X<X1X1X1X1X1X*X*X*X%X%X%X*X*X*X%XH.oXoX0.0.0.0.0.0.9.9.0.9.2.<.9.q.2.<.<.:.<.<.<.<.:.:.:.:.-.:.2.9.2.2.2.:.2.<.:.:.:.:.:.1.-.^ e O                                                                                                                                                                                                   X   X     X X X     X X   X X X X X X X X X X X X X O       X O O O O O X X X X X X X o O o o o o o o o o O O O O O O o o o o o o o o X O o o O O O o O O O o O O         O o o o o o o o o o , < < < < r u u a f G G G G G G G f G P u.4X0X5X5X7X6X6X6X6X6X6X6X6X6X6X6X6X6X6X4X4X6X6X4X4X4X4XT.4X4X4XT.T.T.Y.Y.Y.Y.Y.U.Z.Z.C.m.m.b.b.x.j.s.u.i.i.{ [ ] U L P J J J J H f p f J J J J P P P L L L U Y ] Y U L L L L L L P L L Y Y ] [ { { { { { { i.i.d.d.d.d.d.",
"Z.Z.U.U.Q.Q.U.U.U.U.U.U.Z.Z.Z.Z.I.Z.B.B.B.B.B.B.B.B.Z.P.I.I.I.I.I.I.I.U.U.U.U.U.U.U.U.U.U.U.U.W.Q.Q.U.U.Q.Q.T.W.W.W.!.6X!.7X7X8XK.G p p a a a a a u u u u r r r t t t r r u r r r r r r r r r r r r r r r r r r r r r r r r r r t < < < 1 t t t t < < < < < < < < < 2 2 2 : o o o o o o X X X X             X X X X o o o X o o X o X X X X X X X X X X X X X X     X X X X         X X X X     X                                                                                                                                                                                                                                                               X X X X X X X X X                 X X X X X     X X X   X o : - 3 4 c 1.1.9.D.D.D.G.D..X.XJ.J.oX@XXX.XF.XX.XF..XoXXXXXXXoXoXoX.X.XXX.X.X.XD.D..XG.F.oX{.D.oXXXD.9.oX@XoXXX@X@X#XXXXXoXXX#X@X@X@X@X@X%X%X%X%X%X%X%X%X%X%X%X%X%X%X&X@XXXXXoX`.'.r.e.3.3.>.=.=.#.+.z k k &.>.3.q._.]. XOX+X=X=X>X>X2X2X2X2XmX2XmXmXmXmXmXmXmXmX2X2XmXmXmXmXmX<X<X<X<X<X<X<X<X<X<X<X<X<X<X<X1X1X1X1X-X*X%X*X*X%X%X%X%X%X%XH.oX@XD.9.9.0.q.9.9.0.9.9.<.:.2.9.2.:.:.:.<.<.<.<.:.:.-.:.:.<.9.9.w.9.w.:.<.:.-.%.-.1.1.1.A e O                                                                                                                                                                                                       X X       X X       X         X X X   X X X X X X X       X O O O O X X X X X X X O O o o o o o o o O O O O O O O X o o o o o o o o O o o o O O O O O O o O O X       X O O O O o o o o o o 2 , 1 < t r u u p f f G G G G G G G G P u.4XqX5X5X7X6X6XqX6X6X6X6X6X5X6X6X6X6X6X4X4X6X6X4X4X4X4X4X4X4X4XT.T.T.Y.T.Y.Y.Y.I.C.C.B.m.n.z.x.j.j.s.u.i.{ [ Y ] L J J J f f p p p p p f N J J P P L L L L L Y U Y U L L L L L P P L L Y Y ] { { { { { i.u.u.d.g.f.f.f.f.",
"Z.Z.U.U.Q.Q.U.Q.U.U.U.Z.Z.Z.Z.Z.I.I.B.B.B.B.B.B.B.B.Z.P.P.I.I.I.I.I.U.U.U.U.U.U.U.U.U.U.U.U.U.W.U.U.U.U.Q.Q.W.W.W.W.!.!.!.7X7X8Xc.G p p a a a a a u u u u r t r t t t r r r r r u u u r u u u u r r r r u u r t r r r r u r r r t t 1 1 r r r r r < 1 < < < < < < , 2 : 2 2 : o o o o X X X X X               X X X o o X X X o X X X X X X X X X X X X X X X X     X X X X X   X X X X X                                                                                                                                                                                                                                                                       X X X X X X X X                     X X X X         X X X X o o - - 3 Z 1.8.9.D.D.D.J.|..X.X.X.XXXXXF.F..XF.D.D.oXXXoX.X|.|..XoX'..XF.{.F.D.D.D.D..XXX{.D.oXXXD.9.oX@X.XoX#XoXoXoXoXoXXX#X@X%X%X@X@X%X%X*X*X%X@X@X%X%X%X%X%X%X%X&X@XXXoX{.'.'.0.3.3.3.,.=.=.#.n M k n >.3.3.r.[. X XOX+X=X>X>X2X2X2X2X2X2XmXmXmXmXmXmXmXmXmXmXmX<X<X2X2X<X<X<X<X<X<X<X<X<X<X<X<X<X<X<X<X<X1X1X1X-X*X*X*X*X%X%X@X@X#XXXJ..XXXD.<.9.9.0.q.0.D.2.2.<.:.<.9.<.:.:.<.<.<.<.<.:.:.:.:.<.<.9.2.<.<.2.<.:.:.-.' -.-./ Z 3 O     O                                                                                                                                                                                                   X X X     X X X     X           X X   X X X X X X X   X X X X O O O     X X X O O O O O O O o o O O O O O O O O O X o O O O O O O o O O o O X X X O o o O O O X     O O O O X X O o O o o o 2 , > < r u u a a f f f G G G G G G G P u.4XqX0XqX7X6X6XqXqX6X6X5X4X5X5X6X6X5X5X4X4X6X6X4X4X4X4X4X4X4X4XT.T.T.T.T.T.Y.Y.C.Z.B.m.M.b.x.j.s.s.d.u.{ [ Y U L P J N f f i u u y y i p f J J J P P L P L L L L L L L L L L L P P L U Y Y [ { { { i.i.u.d.s.j.x.x.k.k.k.",
"Z.Z.U.Q.Q.Q.Q.Q.U.U.I.Z.Z.Z.Z.Z.I.I.B.B.B.B.B.B.B.B.Z.B.I.I.I.I.U.U.U.U.U.U.U.U.U.U.U.U.U.U.U.W.U.U.U.U.Q.T.W.W.W.W.!.7X!.7X7X8Xl.G p f a a a a a u u u u r t r t r r r r r r r r r r r u r r r r r r r u u r t r r r r r r r r r r r r r r r t r t 1 < < < < < < , 2 2 , 2 2 o o o o o o X X X             X X X X o o o X X X X X X X X X X X X X X X X X X X X X X X X X X   X X X X X                                                                                                                                                                                                                                                                                                           X X X X X X     X X X o o 2 + 3 - 3 ' 8.8.D.D.D.D.D.D..X.XJ.F..X.XF..XJ.F.F..X.X.X.XJ.J..XoX.XF.F.F.F.F.D.D.D.{..XD.D..XoX.XG.F..X.XoXoXoXoXXXXXXXXX@X@X@X%X@X@X%X%X*X*X%X@X@X@X@X@X%X%X%X%X%X@XXXoX{.'.0.0.3.3.3.,.=.=.#.n M k &.3.e.e.]. XOXOX+X=X:X>X2X2XmXmXmXmXmXmXmXmXmXmXmXmXmXmXmXmX<X<X<XmX<X<X<X<X<X<X<X<X<X<X<X<X<X<X<X<X<X1X1X-X*X%X%X%X%X@XXXoX@XXX.X.XF.D.0.2.9.2.9.q.0.q.<.2.2.:.-.<.:.-.:.<.:.<.<.<.<.:.<.<.<.<.<.<.:.-.:.:.-.-.-.-.-./ x O O             X                                                                                                                                                                                           X X X X     X X X     X X X           X X X X X X X X X X X     X O O     O O X O O O O O O O O O O O O O o o O O O O O O O O O O O O O O O O O X O O o o O O X       O O O O X X O o O o o o 2 , 1 < t r u u p p f f G G G G G G G J u.4XqXqXqX0X4X7X0X6X6X5X4X4X4X6X6X5X5X5X4X4X4X4X4X4X4X4X4X4X4X4X4XT.T.T.T.T.Y.Y.C.C.B.m.n.b.k.j.u.u.u.{ [ Y U L P J J f p p u y y 8 y u u p f N J J P P P P L L L L L L L L P P P J P U ] ] { i.i.i.d.d.d.s.j.k.b.b.b.b.x.",
"Z.Z.U.U.Q.Q.Q.U.U.I.I.I.Z.Z.Z.Z.I.B.B.B.B.B.B.B.B.Z.B.B.P.P.I.I.U.U.U.U.U.U.I.I.U.U.Q.Q.U.U.U.U.Q.Q.Q.Q.T.W.W.W.W.W.!.7X!.7X7X8Xp.f p f a a a u u r u u u u r r r r r r r t r r r r r r r r r r r r r r r r r r r r r r r r r r r r r r t 1 < < r < 1 < < < < < , 2 2 , , , 2 2 o o o o o X X   X           X X X o o o o X X X X o X X X X X X o o o X X X X X X X X X X X X   X X X X X             X X                                                                                                                                                                                                                                                                                 X X X     X X X X X X     X X o o o o o - + - c 1.9.G.G.D.D.D.D..XXX.X.XoXoXoXoXoX.X.X.X.X.XoX.XJ.J..XoX{..XJ.F..X.X.XF.F.F.F.F..XXXXXF.F.F..XoXXXXXXX#X#X#X@X@X@X@X@X@X@X%X%X*X*X%X@X@X@X@X@X%X*X%X%X&X@XXX{.'.'.0.0.q.3.3.,.=.=.#.n k z ,.3.)._.OXOX+X&X=X=X>X2X2X2XmXmXmXmXmXmXmXmX2X<X2X<XmXmX<X<X<X<X<X<X<X<X<X<X<X<X<X<X<X<X<X<X<X<X<X<X1X1X-X*X*X*X%X%X%X@XXXoX@XXXJ.J.F.D.0.9.9.<.9.9.q.2.<.2.<.:.-.:.:.-.-.<.:.:.<.<.<.<.<.<.<.:.<.<.-./ %.-.%.' -.' ^ e +                                                                                                                                                                                                           X X X X       X X       X X             X X X X X   X X X X X       O O X X O O X X X O O O O O o o O O o O o o O o o o O O O O o O o O O o o O o O O O o o O X         X X X X X O o o O o o & , < 1 < < r u u p f f f f G G G G G G J h.4X0X9X0X9X4X7X0X6X6X5X4X4X4X6X6X5X5X5X4X4X4X4X4X4X4X4X4X4X4X4X4XT.T.T.T.T.Y.I.C.C.N.n.b.z.j.h.u.u.{ [ Y U P J J J f p u u y y 9 9 y 9 u p p f J J J P P P P P P L L L P P P P J J P L Y [ { u.i.i.d.d.g.j.x.z.b.b.b.b.b.",
"Z.Z.U.U.Q.Q.U.U.Z.Z.I.I.I.Z.Z.Z.B.B.B.B.B.B.B.B.Z.P.B.Z.Z.P.I.I.U.U.U.U.U.U.I.I.I.U.W.W.W.U.U.U.W.Q.Q.Q.T.W.W.W.W.!.!.7X!.7X7X8Xp.p u p a u a u u r u u u u r r r r r r t t t r r r r u u r r r r r r r r r r u r r r r r r t t 1 t r t t t < < r < < < < < < < < , , , < , 2 2 2 o o o X X X   X           X X X o o o o X o o X o o o o X X X X X X X X X X X X X X X X X X   X         X X X         X                                                                                                                                                                                                                                                                       X X X X X X X X X X     X X X X X X X X X X o o 2 o - - 3 ^ 8.G.G.D.D.D..X.X.XoXXXXXXXoXoXoXoX.X.XJ.J..X.XD.D.D.J.D..XF.D..X.X.XF..X.X.XoXXXoXXXoX{..XoXoXXX#X#X#X#X#X#X@X#X#XXX#X#X%X%X%X%X@X@X@X@X@X@X%X*X%X&X@X@XoX{.'.'.0.0.e.q.3.>.=.=.#.z M #.3.e._.}.OX+X&X=X=X=X>X3X>X2XmXmXmXmXmXmXmXmX2X<X<X<X<X<X<X<X<X<X<X<X<X<X<X<X<X<X<X<X<X<X<X<X<X<X-X-X1X1X1X*X*X*X*X%X%X@XXX.XoXXXD.D.D.0.0.0.9.<.9.w.q.:.w.<.:.:.:.:.:.-.-.:.:.<.<.<.<.<.<.<.<.:.:.:.-.%.%.-.-.-.) v 4 O O           . .                                                                                                                                                                                         X X X X           X         X X X           X X X X         X X       X X O O X X O X X X X O O O O O O O O O o o o o o o o O O O o o O O O O O o o o o O O o o O X             X X O O o o o o o 2 < < 1 1 t r u u p f f G f G f f G G G J j.5XqX9XqX7X4X7X6X6X6X6X4X5X6X6X6X6X6X6X4X4X4X4X4X4X4X4X4X4XT.T.T.T.T.T.T.Y.Y.I.C.m.N.N.b.k.j.s.u.i.[ Y U L P J J p i i y 8 8 8 > > 8 8 u i p p f J J J J J P P P P P P P J K J J P P L Y { { i.i.i.d.g.j.x.z.b.n.b.b.b.b.",
"Z.Z.U.U.Q.Q.U.U.Z.Z.I.U.I.Z.Z.B.B.B.B.B.B.B.B.B.P.P.B.Z.Z.P.I.I.U.U.U.U.U.U.U.U.I.U.W.W.W.U.U.U.W.W.W.W.W.W.W.W.W.W.!.7X7X7X8X8X} u u a u u a u a u u u u r r r r u u r t t t r u r r a a r r r r u u r r r r a r r r r r r r t 1 t r r t t t < t < < < < < < < < < < < < 2 2 o 2 o o o o X X   X X         X X o o o o o o o o o X o o o o o o X X X X X X X X X X X X X X               X X X         X                                                                                                                                                                                                                                                                       X X X X X X     X X     X X X X X X X     X X o o 2 , + + c 1.G.D.D.F.oX.XF.F..XXXoX.X.X.XXXXX.X.XF.D.D.D.G.0.D.9.9.F.D.D..X.XF.F.oXoXoXoXXXoX.XoX.XoXoX.XoXXXXX.X.XXXXX#X#X#X#X#X#X@X%X%X@X@X@X%X@X@X@X%X*X%X&X@XXXoX{.'.'.0.0.0.q.3.,.=.&.@.M z ,.3.).].,XOX=X&X=X-X1X2X2X2X2X2X2XmXmXmXmXmXmXmX2X<X<X<X<X<X<X<X<X<X<X<X<X<X<X<X<X<X<X<X<X<X<X<X<X1X1X1X1X1X*X%X%X*X%X@XoXoX.X.XXXD.9.D.9.q.q.2.<.q.2.9.-.q.:.-.:.:.<.:.-.-.<.<.<.2.<.<.:.-.:.:.:.:.-.%.%.-.-.-./ v + O O O                                                                                                                                                                                 X                 X X X X               X       X X X X             X X           O X         X O O O O O X X     O O O O O O X X O O O o o o o o X O O O O O O X X X O O o O O X o o O X           X O O O X O O o o o , 1 1 1 < r u u u a f f G f G f f G G G J j.5X0X9X5X0X4X0X6X6X6X6X6X6X6X6X6X6X6X6X4X4X4X4X4X4X4X4X4XT.T.T.T.T.T.T.T.Y.I.I.m.m.n.b.z.k.h.s.u.{ ] U L L P J f i i 9 8 8 > * = = > > 8 u u p f f f J G J J J J J J J J J J J J P P L Y { { { i.u.s.f.x.z.n.n.N.N.N.b.b.",
"Z.U.U.Q.Q.Q.U.U.Z.Z.U.U.Z.Z.Z.Z.B.B.B.B.V.V.B.B.V.B.B.P.Z.B.P.I.U.U.U.U.U.Q.U.U.U.U.U.U.W.W.U.U.W.W.T.Q.U.Q.W.W.W.W.7X!.7X8X7X~.o.u a u u a u u u u u u u u u r r r r r r t t t r r r r r r r r r r r r r r r r r r r r r r r 1 r t t < t < < < < < < < < < < < < < < < < 2 2 o 2 o o o o o X             X X X X X o o o o X X o o o X o o X X o o o o X X X X X X X X X X X X X X X X X X X X X X                                                                                                                                                                                                                                                                                             X X     X   X X X X       X X o 2 o + - 3 d c G.D.D.F..X.XF..XD.D.J.J.F..XXXXXXX.X.X.XD.D.D.D.F.D.G.G.G.G.F.oX.XoXXXoX.X.XoXXXoX.X.X.X.X.XoXXX.XXXoXoXoXXXXX#X#X#X#X#X#X#X@X@X@X@X@X#X#X@X@X@X@X@XoX{.{.D.0.0.0.t.t.3.3.=.=.+.M @.3.t.r.OXOX$X=X=X=X>X2X2X2X2X2X2X2XmXmXmXmX2X2X2X2X2X<X<X<X<X<X<X<X<X<X<X<X<X<X<X<X<X<X<X1X1X1X1X1X1X1X1X-X-X*X%X*X*X%XXXoXoXJ..XD.9.9.0.0.9.2.9.9.2.:.<.2.:.:.:.-.-.:.:.-.%.-.:.-.<.9.<.:.:.<.<.:.-.%.%.-.-.' ^ d + O                                                                                                                                                                 X X X X               X       X X                     X X X             X X X     X X X X X X X   X X X X X X X X X X X X X X X X X X X X X X X X X X X X X X X X X X X o o o o o O X X o O X X X X X X O X X           O X X X X X o o o o 2 , < < < < t r a a a p f G f f G f G G G P j.4X0X9X5X0X7X6X0X0X0XqX6X6X6X4X4X4X4X4X4X4X4X4X4X4X4X4X4X4XT.T.T.T.T.T.Y.Y.I.Z.V.m.m.n.k.f.f.u.i.[ Y U P J J f u 9 8 * > > = = = = = > > 8 u i f f f f f f f f f f J J N f G J J J P L Y ] { { u.s.g.j.k.z.M.M.N.N.N.N.N.",
"Z.Z.U.U.U.U.U.U.Z.Z.U.U.Z.Z.Z.Z.B.Z.Z.B.B.B.B.B.B.B.Z.I.I.B.P.I.I.I.U.U.U.U.U.U.U.U.U.U.W.W.U.U.W.W.T.Q.U.Q.T.W.W.W.7X!.7X8X0XE.o.a a a u u u a u u u u u u u u r r r r r t t t t t r r u u r r u u r r r r r r r r r r r 1 1 t < < < < 1 t t 1 < < < < < < < < < < < < 2 2 o o : o o o o o X X                 X X o o o X X o o o X X o X X X X X X X X X X X X X X X X X X X X X X X X X     X       X X                                                                                                                                                                                                                                                                         X X X X     X X X       X X X X X X X X O o o o o + 3 w e ' D.D.D.{..X.X.XD.D.F.D.D.J.oXoXoX.X.X.XJ.D.D.|..X.XF.F.F.F..XoXoXoXoXoXXXXXXXXXXXXXXXoX.X.XoXXXoXoX.X.X.XoXoXXXXX#X#X#X#X#X@X@X@X@X@X@X@X@X@X@X#X@X.X{.D.D.0.0.0.t.t.3.,.=.$.+.z &.q.r.[.OX+X$X=X:X>X>X2X2X2X2X2X2X2XmXmXmXmX2X2X2X2X2X2X2X2X<X<X<X<X<X<X<X<X<X<X<X<X<X<X1X1X1X1X1X1X1X-X*X*X*X%X%X%X@XoX.XoXoXJ.D.D.D.0.0.0.9.<.2.w.2.:.<.2.;.<.:.-.-.-.-.-.-.<.<.:.:.<.:.:.:.:.-.-.-./ / ' ' W e -                                                                                                                                                         X X           X X X               X       X X       X             X X X           X X X         X X X X X X   X X X X X X X X   X X X X X     X X X X O o o O O O O X X X X X X X X o o o o O O o o o o o X X X O X X X X         X O O X X X o o o o o 2 , < < < < t r r a a p G G f f G f G G G P k.4X0X9X6X0X7X6X6X6X6X6X6X6X6X6X4X4X4X6X4X4X4X4X4X4X4X4X4X4XT.T.T.T.T.T.Y.Y.I.Z.m.n.n.b.k.j.f.u.i.[ Y U P J f p > > = = = = = = = = = = = > 9 u i i i i p p p f p f f f f f f f J J P L U Y [ { u.d.h.j.x.b.M.m.C.C.C.C.C.",
"Z.Z.Z.U.U.Z.Z.Z.Z.Z.Z.Z.Z.Z.Z.Z.Z.Z.Z.B.B.B.B.B.I.Z.Z.I.U.I.I.I.I.I.I.I.I.U.U.U.U.U.U.U.W.W.U.U.W.W.W.Q.U.Q.W.W.W.W.7X7X7X8X8XR.~ a f a u u u a u u u u u u r r r r r r r t t t t t t r u u u r u u u r r r r r r r t t t t t < < t < < < r r r < < < < < < < < < < > 2 2 : o o o o o o o X X X X               X X X X X X o o o o X X X X o X X X X X X X X X X X X X X X         X                       X                                                                                                                                                                                                                                                                       X X X X X X     X X   X X X X X X X X X X O o X o + 3 3 - x G.D.D.{..XoXXX.XJ.J.F.D.J.oX.X.XJ.J.|.|.D.D.|.XX.X.XF.F..XoXXX@XXXoXXX@X@XoX.XoXXXXXXXXXoXoXXXXXoX.X.XoXXXoXXXXX#X#X#X@X@X@X#X#X#X@X@X@X@X@X#XXXoX{.'.D.'.D.0.0.0.q.3.,.=.#.n n ,.r._. X+X+X=X:X>X>X>X2X2X2X2X2X2X2XmXmXmXmX2X2X2X2X2X2X2X2X2X<X<X<X<X<X<X<X<X<X<X<X1X1X1X1X1X1X1X-X-X*X*X%X%X%X#X@XoXF.H.XX.XD.D.D.D.D.0.9.9.<.<.2.2.<.2.2.<.2.:.:.:.:.:.-.:.2.<.:.:.<.<.<.:.-.-.%./ / -./ v 3 O O                                                                                                                                                                                           X       X X                       X         X X X                       X X         X           X X X X X X X X X X X o o o o O O X X X X X X X X o o X X X O o o o o o o o o o o X X         X X o o X X X O o o o o o , < < t t r r r a p f G G g f G G G G G L k.4X0X0X6X0X7X7X7X6X6X6X6X6X6X6X6X6X6X6X6X6X4X4X4X4X4X4X4X4XT.T.T.T.T.Y.Y.I.I.Z.m.n.M.b.x.j.f.u.i.[ Y L J H p y > = = = = = = = = = = = = = > 9 u u u u u u u u u i s f f s f f f J J P L Y ] [ i.u.f.j.z.b.M.m.C.C.C.C.C.",
"Z.Z.Z.U.Z.Z.Z.Z.Z.Z.Z.Z.Z.Z.Z.Z.B.Z.Z.B.B.B.B.B.I.Z.B.I.U.I.I.I.I.I.I.I.I.U.U.U.U.U.U.U.W.U.U.U.T.W.Q.Q.U.Q.W.W.W.W.!.7X!.8X8XP.K a f a a u a a u u u u u u r r u r r r t t t t t t t t r u r r r r r r r r r r 1 1 t t t t t t t t < < 1 t t t < < < < < < < < < < > > 2 : o o o o o o X X X X X               X X X X X X o o o X X o o o o o X X X o o o X X X X X X X                                   X X                                                                                                                                                                                                                                                                 X   X X X X X X         X X X X   X X X X X X X o o o o 3 3 3 e 1.D.D.H..X.X.XF.D.F.D.D.F.J.D.D.D.D.|..XD.D.D.XX.XoXD.D..XoXoX@X@XXXXXXXoX.XF.J..X.XoXXXXX.XoXXXXXoXoXXX#XXXXX#X#X#X@X@X@X#X#X#X#X@X@X@X@X#X#X#XoX{.{.'.'.'.0.0.0.q.3.,.=.#.z +.3.r._. X,X=X:X>X>X2X2X2X2X2X2X2X2XmXmXmXmX2X2X2X2X2X2X2X2X2X2X2X<X<X<X<X<X<X<X<X<X<X1X1X1X1X1X1X*X*X*X%X%X%X@X@XXX#XoXH.oX@X.XG.D.D.D.D.0.0.9.9.<.<.w.2.2.2.<.2.:.:.:.<.<.<.<.2.-.<.2.2.:.:.-.%.-./ / -.' v 4 O     O                                                                                                                                                                                         X                                           X X X                     X X X X       X           X X X X X X X X X X X o o o o X X O O O o o o O O O O X X X O o o o o o o o o o o X X         X X o o o o o o o o o o o 2 , < < < t r r a h f G G G f G G G G G L z.4X6X0X6X0X0X0X0X0XqX6X6X6X4X4X6X6X6X6X6X6X4X4X4X4X4X4X4XT.T.T.4XT.T.Y.Y.I.I.Z.m.M.b.b.x.k.f.u.{ [ U L J f u y 8 > = = = = = = = = = = = > > 1 9 9 u u u u u u u u u i p i p p f G J P L L Y [ { i.f.j.z.b.M.m.C.C.C.C.C.",
"Z.Z.Z.Z.Z.Z.Z.Z.I.U.U.Z.Z.Z.Z.Z.Z.Z.Z.B.B.V.B.B.I.B.B.I.U.I.I.I.U.U.I.I.I.U.U.U.U.U.U.U.U.U.U.U.Q.Q.Q.Q.W.Q.Q.W.!.!.!.7X!.8X8XK.K a a a a r a u u u u u r r r r r r r t t t t t r t < < t r r r r r r r r r r r r r r r r r r r r r t < < < < < < < < < < < < < < < < < 2 2 : : o o o o X X X X                 X X X X X X o o o o X o o o o o X o o o o X X X X X X X X X X                                                                                                                                                                                                                                                                                                         X X         X X X X X X X   X X X X X X X O X O O - 3 3 e ' G.D.F.F.D.D.D.F.J.F.J.oXoX.XJ.F.J..X.XD.D.D.oXoXoXD.D..XoX.X.XXXXXoXF.F.oXoX.X.X.XoXXXoX.X.X#X#XoXXX@X@XXXXX@XXXXX@X@X@X@XXXXX#X#X#X#XXXXX#X#XoX.X{.'.'.0.0.q.q.q.,.>.=.#.z #.t._.`.OX=X=X>X>X2X2X2X2X2X2X2XmXmXmXmX2X2X2X2X2X<X<X2X2X2X2X2X2X<X<X<X<X<X<X<X<X<X<X1X-X1X1X-X-X*X*X%X%X%X%X%X@X@XXXoX.XXX@X.XG.D.D.D.0.0.0.0.9.2.<.w.2.2.2.:.<.:.:.<.<.<.<.<.<.:.2.2.:.-.%.%.-./ / ' / v 3 O O                                                                                                                                                                                               X                 X X         X X             X X                   X X X X X X       X X     X X X X X X X X X X X X X o o o O X O O O O O O O O X X o o o o X X X X O o o o o o X X X         X X X O O o o o o o o 2 2 : , < < t t r u a h h f G f G G G G G P b.5X5X0X6X0X7X0X0X0XqX6X6X6X4X4X6X6X4X4X4X4X4X4X4X4X4X4X4XT.T.T.T.T.T.Y.Y.I.C.C.m.M.b.b.x.k.f.i.{ [ U P J f u y 8 > > = = = = = > > > > > > > > > > 9 9 u 9 9 9 9 9 u u u i p i f f J J P L Y [ { u.f.j.z.b.M.N.m.B.C.Z.C.",
"Z.Z.Z.U.Z.Z.Z.Z.I.I.U.U.Z.Z.Z.Z.B.Z.Z.B.V.V.B.B.B.B.B.I.I.I.I.I.U.U.U.U.U.U.U.U.U.U.U.U.U.U.U.U.Q.Q.Q.Q.W.Q.Q.Q.!.6X!.7X!.8XwXc.G a a u a u a u u u u u r r u r r r r t t t t t r t < < < t r r r r r r r r r r r r r r r r r r r r t < < < < < < < < < < < < < < < < < < 2 2 2 o o o o o X X X X                 X X X X X o o o o X o o o o o X X X o X X X   X X X X X X X   X X X             X X X                                                                                                                                                                                                                                                                                             X X X X   X X X X X X X X X X X O   - - 3 3 c G.G.D.D.F.D.F..XoXoXoX@XXX.X.XD.D.D.D.D.G.D.F.F.F.D.F.oXoX.XF.oXoX.XD.F.XX@X@X@XXXoX.X.X.XXX@X#XoXoX@X@XXX#X@XXX#X@X@X@X#XXXXX#X#XXXXXXX#X#X#XoX{.{.'.D.0.q.3.q.3.,.>.=.#.z =.r.]. X+X=X:X2X>X2X2X2X2X2X2X2XmXmXmX2X2X2X2X2X2X<X<X2X2X2X2X<X<X<X<X<X<X<X<X<X<X<X<X-X-X-X-X-X-X%X%X%X%X%X%X%X%X&XXX.XF.oXXXJ.D.D.D.D.0.0.0.q.9.9.<.w.2.2.<.:.<.<.<.:.:.<.2.<.:.;.:.:.-.-.-.%.%.' ' ^ v 3 + O O                                                                                                                                                                                               X                 X X         X X X         X   X       X         X X X X X X X X   X X X X X X X   X X X X X X   X X O o o o o o O O O O O X O O X X O o o o X X X X X O O O X X X X X         X X X X O o o o o o o 2 , , < < t t t r u a f h f f f G G G G H P M.7X5XqX6X0X6X7X6X6X6X6X6X6X6X6X4X4X4X4X4X4X4X4X4X4X4X4X4XT.T.T.4XT.T.Y.Y.I.C.C.m.M.n.b.x.k.g.i.{ [ U P J p i y 8 > > = > > > > > 8 8 > > > > > > > > 9 9 8 8 8 8 8 > 8 8 9 u i i s f J P L Y ] { i.g.j.z.b.N.N.B.Z.I.I.Z.",
"Z.Z.Z.U.U.U.U.U.I.I.I.I.Z.Z.Z.Z.B.B.Z.B.B.V.B.B.B.B.B.P.I.P.I.U.I.U.U.U.U.U.U.U.U.U.W.W.U.U.U.U.U.Q.Q.Q.W.W.T.T.W.!.!.8X!.8X8Xl.f a a a a u a u u u u u r r r u r r r r t t t < t t < < < t t r r r r r r r r r r r r r r r 1 1 r r r < < t < < < < < < < < < < < < < < < 2 2 2 2 : o o o o X X X X X             X X X X X o o X X X o o o o X X X X o o X X X X X X X X X     X X X X   X         X X         X X                                                                                                                                                                                                                                                   X X                           X X X X X X X X X X X X X X   X O O - + 3 4 x G.9.D.D.F.F..XF.H..X.X.XJ.D.F.F.D.D.G.G.G.D.D.D.D.D.F.J..XoX.XoX.XF.F..XXX@X@X@X@XXXoX.XoX#X#X#XoXoX@X@XXX#X@XXXXX#X#X#X#XXXXX#XXXoXXX#X@X#XXXoX{.'.'.0.q.q.q.q.3.3.,.=.#.z 3._. XOX=X=X>X2X>X2X2X2X2X2X2X2X2XmX2X2X2X2X2X2X2X<X<X<X<X2X<X<X<X<X<X<X<X<X<X<X1X1X-X-X-X-X-X-X-X%X%X%X%X%X%X%X%X@XoXF.F..X.XF.D.D.D.0.0.0.0.0.9.9.<.9.9.<.<.:.<.<.<.<.<.<.2.<.:.:.:.-.&.:.-.%./ ' ^ x 3 + + O                                                                                                                                                         X X X                                   X     X     X     X X X X     X X X X             X X         X X X X X X X X X X   X X X X X X X       X X       X X X X o o o o X X X X X X X X O O O o o o o X X X O O O X X X X X         X X X X X X O o o o o o 2 , , < < t t r u u a f f G f f G G G G G L m.0X5X0X6X0X6X6X6X6X6X6X6X6X6X6X6X4X4X4X4X4X4X4X4X4X4X4X4X4XT.T.4XT.T.T.Y.I.C.C.C.N.N.N.z.k.f.u.{ [ Y L J H p u y 8 > > 8 8 8 8 8 9 y 8 8 9 8 8 8 > > > 8 > > > > > > > 8 8 8 9 u u s f J L U ] { i.g.j.b.n.N.m.C.I.U.U.I.",
"Z.Z.U.U.U.U.U.U.I.I.I.I.Z.Z.Z.Z.Z.Z.Z.Z.B.B.B.B.V.B.B.I.I.P.I.U.I.I.U.U.U.U.U.U.U.W.W.W.U.U.U.U.Q.Q.Q.Q.W.W.Q.Q.W.!.!.8X!.6X8Xh.p a a a a u a u a u u u r r r r r r r r r t t t < t < t t t t r r r r r r r r r r r r r r 1 < < t t 1 1 < t r r t < < < < < < < < < < < < 2 2 2 2 2 o o o o X X o X X               X o o X X o X X X o o o X X X X o o o o X X X X X X X X     X X X X X X X X     X X         X X X                                                                                                                                                                                                                                                 X X                           X X X X X   X X X         X     X   - + 3 - x G.8.G.G.D.D.D.D.F.F.J..X.X.X.XF.F.D.9.0.D.F.|.oXF..X.XD.F.XXXX@X.XF..XoX.XoXXXoXXXXXXXXX@X@XXX#XoXoX@X@XXX#X&XXXXX#X#X#X#X#XXXXXoXoXXX@X@X#XoXoX.X'.D.0.q.0.0.0.q.3.,.=.#.n q._.OX+X=X=X>X2X-X2X2X2X2X2X2X2X2X2X2X2X2X2X2X2X2X<X<X<X<X<X<X<X<X<X<X<X<X1X<X1X-X-X-X-X-X-X*X*X*X%X%X%X%X%X%X%X%XXXH.F..X.X.XF.D.D.D.0.9.0.0.0.0.9.<.9.9.<.<.:.<.<.<.<.<.2.2.:.-.:.:.&.%.-./ / / ^ c 3 + + O                                                                                                                                                           X X X                                   X   X X     X X                   X X             X X X       X X X X         X X   X X X X   X X     X X X X     X X X X X X o o X X X X X X X X o o O X X X o X X X o o O X X X X           X o   X X X O o o o o o , , 2 : < < t r u u a a f G f f G G G G G U m.0X5X0X6X0X6X6X0XqX6X6X6X4X4X4X6X6X6X4X4X4X4X4X4X4X4X4X4X4X4X4XT.4XT.T.Y.Y.C.C.C.C.m.M.b.k.f.u.{ [ Y L P J p i i y y y y y y y y u u u u u u y y > > > > > > > > > > 8 8 8 8 > 9 u i f J P L Y { i.g.k.b.N.C.C.C.I.U.U.I.",
"U.U.Q.Q.Q.U.U.Z.Z.Z.Z.Z.Z.Z.Z.Z.Z.B.B.V.V.B.B.B.B.B.B.Z.P.I.I.U.I.U.U.U.U.U.U.U.U.U.Q.W.Q.U.U.U.U.U.U.Q.U.Q.W.W.W.W.7X7X8X8X8X} f a a a a a a u a a u r r r r r r r r r r t t t t t t t t t r r r r t r r r r r < r r r t t r r 1 1 r r r r < < < < < < < < < < < < < < < 2 , , : : 2 2 o o o o X X X X           X X o o X X X o o X X X X X X X o o o X X X X X X       X X X     X X X X X X X X                                                                                                                                                                                                                                                                                       X X X     X X X X X X X X X X X X           o O - - - 3 1.G.G.G.D.D.D.F.F.oX&X%XXXXX.X.X.XF.D.D.D.F..XF.F.F.F..XoXoX.XXX.XF.F..X.XoX.XXXXX@XXXXXXXXXXXXXXX@X@X@X@X#X#XXXXXXXXXXXXXXXXXXXXXoXXXXXXXXXXX{.{.'.D.0.0.0.e.0.q.3.>.=.@.@.e.`.OX+X&X:X>X2X2X2X2X2X2X2X2X2X2X2X2X2X2X2X<X<X<X<X<X2X<X<X<X<X2X<X1X-X1X-X-X-X-X-X-X-X-X-X*X*X%X%X%X@X#X@X#XXXXXoXJ.F..X.XD.D.D.0.0.9.9.9.9.0.9.9.2.2.9.2.:.:.2.2.<.<.<.2.<.-.-.&.:.-./ / ) D -.c e + O                                                                                                                                                             X X X X                                                           X           X X X                     X X X X       X                     X X X X X X X X X X X   X X X O X X X X X X X X o O X X X X o o o o o o o o X X X X         X X X X X X o o o o 2 o o o 2 , < < < < t r u a f f f f f G G G G ] I.6X9X5X6X0X7X6X0XqXqXqX6X6XqXqX4X4X6XqX6X4X4X4X4X4X4X4X4X4XT.T.4X4X4XY.Y.Y.I.C.C.C.M.b.b.k.f.u.i.[ Y U L J f f p p p i u u i p i i p p u u p p p u u 9 8 8 8 8 8 8 8 > > > 8 8 < u u f J P U Y { i.d.f.b.n.C.C.U.Z.Z.B.B.",
"Z.Z.Z.Z.Z.Z.Z.Z.Z.Z.Z.Z.Z.Z.Z.Z.Z.B.B.V.V.B.B.B.B.B.B.Z.Z.P.I.U.I.U.U.U.U.U.U.U.U.U.U.U.U.U.U.U.Q.Q.Q.Q.U.Q.W.W.W.W.7X!.8X0X!.| p a a a a a a u u u u r r r r r r r r r r t t t t < < < < t t t t < < t r r r r t t r r t t r r 1 1 r r r t t < < < < < < < < < < < < < < 2 , , 2 : : o o o o X X X X X         X X o o X o X X X X X X o o o o X X o o X X X X X X       X X X     X X X X X X X X                                                                                                                                                                                                                                                                                         X X     X X X X X X   X X X X X         X , o - - - - ' G.G.G.D.|.oXoXoXXXXXH.J.XX@X=XXX.XF.D.D.D.D.D.F..XF.F.F..X.XoXXXXXXX.X.X.X.X.X.XoXoXoXXXXXXX.XXX@X@X@XXX#X#X@X#XXXXXXXXXXXXXoXoXoXoXoXoXoXoX.X.X{.'.0.0.q.q.0.q.3.>.&.@.@.r. XOX+X=X=X3X2X2X2X2X2X2X2X2X2X2X2X2X2X<X<X<X<X<X<X<X<X<X<X-X-X<X<X-X-X1X-X-X-X-X*X*X*X*X*X*X*X%X%X%X@X#XXXXXoXoXoX.X.X.X.XD.G.0.D.0.9.2.9.9.9.9.<.<.<.2.<.<.<.<.9.9.9.9.<.:.-.:.-.%.%./ / ' / A 3 - O                                                                                                                                                               X X X X                                     X X X X X X X X       X           X X X                     X X X X X X         X X X X X   X X           X X X X X X X X X X O O O O O o O o o O O X X X X o O o o O O o o X X X           X X X X X X o o o o 2 2 2 2 2 < < > t t t r u a f f f f f G G G G ] R.qX9X5XqX0X7X7X0XqXqX6X6X4X4X4X4X4X4X4X4X4X4X4X4X4X4X4X4X4XT.T.T.4XT.Y.Y.Y.I.C.C.C.N.n.b.x.f.s.u.{ ] Y L P J J R J J f p p p p f f p p p p p p p p p i y 8 8 > > > > > > * * > < u u f J P L Y [ i.d.f.x.b.N.C.B.B.B.B.B.",
"B.B.Z.Z.Z.Z.Z.Z.U.U.U.U.Z.Z.Z.Z.Z.B.B.B.V.B.B.B.B.B.Z.Z.B.B.I.U.U.U.U.U.U.U.U.U.U.U.U.U.U.U.U.U.Q.Q.Q.Q.Q.W.W.W.W.W.!.!.8X8X!.| p a a a a r u u r r r r r r r r r r r r t t r r < < < < < < < < < < < 1 r r r r r t 1 1 r r r r 1 t r r r t < < < < < < < < < < < < < < < < , 2 , : o o : : o X X X X           X X X o o o X o o o X o o o o o X X X X X X X X X X X     X X X   X X X X X X X X X                                                                                                                                                                                                                                                                                                 X X X X X X X X X X X X X       o 1 + , - - + c G.G.D.D.F.J..X.XXX@XoXoXXX@X.X.XF.F..X.X.X.XF..XoX.XF.F..X.XoXXXXXXXoX.X.XoX.X.XoXXXXXXX@X@XF.oX@X@XXXoXXX#X@XXXoXoXoXoXoXoX.XoX.X.X.X.X.X.X'.{.'.'.D.0.0.0.q.3.3.>.&.S #.r. X+X&X=X>X3X2X2X2X2X2XmXmXmXmXmX2X2X2X<X<X<X<X<X<X<X<X<X-X-X-X-X<X-X-X-X-X-X*X*X*X*X*X*X*X*X*X*X%X%X#XXXXXoX.XJ..X.X.X|.'.|.D.D.D.0.9.2.9.9.9.<.<.2.2.<.<.2.2.<.9.9.9.9.:.-.-.:.:.-.-.%./ ' D 4 + O                                                                                                                                                                                                             X X X X X X X X       X           X X X                     X X X X X X       X X X X X X X X X X         X X X X X X X X X X X O O o o o o o O O X X X X X X O o O O X X X X X X         X X X X X X X o o o o 2 2 2 , < < < < r r r r u a a f f G f G G G G [ R.0X9X5X6X0X0X0X6X6X6X6X6X4X4X4X4X4X4X4X4X4X4X4X4X4X4X4X4X4XT.T.T.T.T.Y.Y.Y.I.C.C.C.N.N.b.z.j.s.u.{ [ ] Y L P P P P J J J J J J J J R H H H H H f f f p i y y > 8 > > > > > * = > u u p J P L Y [ i.s.f.j.b.N.N.V.V.m.m.m.",
"B.Z.Z.Z.Z.U.U.Q.U.U.U.Z.Z.Z.Z.Z.Z.B.B.B.V.B.B.B.B.B.Z.Z.B.B.I.U.U.U.U.U.U.U.U.U.U.Q.U.U.U.U.U.W.Q.Q.Q.Q.Q.W.W.W.W.W.!.!.8X8X0X} p a a a u r u a r r r r r r u u u r r t t t r r t < < < < < < < < < < < t r r r r t < 1 r r r t r r r r r t < < < < < < < < < < < < < < < < , : : : o o : : o X X X X           X X o o o o X o o o o o o o X X X X X X X X X X X X X X X X X X   X X X     X X X X X                                                                                                                                                                                                                                                                                               X X X X X X X X X X X X X     X o 1 1 1 1 3 + e G.F.J.J..X.X.X.XXX&X*X=X&XXX.X.XJ..X.X.X.X.X.XoXoX.X.X.X.X.X.X.XF.F..XoXoXoXoXoXXXXXXXXX@X@X.XXXXXXXoX.XoXXXXXoX.X.X.XoXoX.X.X.X.X.X.X.X.X.XF.'.'.'.0.0.0.0.3.3.3.,.;.S &._.OX+X=X=X=X3X2X2X2X2X2XmXmXmXmXmX2X2X<X<X<X<X<X<X<X<X<X-X-X-X-X-X-X-X-X-X-X*X*X*X-X*X*X*X%X%X%X%X%X#X#XoXoXoXJ.J.J..XF.D.D.D.D.D.0.0.9.9.9.w.<.<.<.9.9.2.2.9.2.<.<.:.:.:.:.-.-.-.:.:.%./ ' Z 4 O + O O                                                                                                                                                                                                                                   X         X X X X                   X X   X X X       X X X X X X X X X X X X X X X X X X X X X X X X X O o o O o o o O X X X X X X X X o O X X X X X X X           X X X X X o o o o o o 2 2 , < < < < r t r r u a p a f f f G G G J } T.0X9X5XqXqX6X6X6X6X6XqX6X6X4X4XqX6X6X4X4X4X6X6X4X4X4X4X4X4XT.T.Y.T.T.Y.Y.Y.I.C.C.C.C.N.N.b.j.f.d.i.{ [ [ U U U L L L P J J J J J J J J J J J J R J J H p p p u y 8 > > 8 8 > > < y u p H P U Y { u.g.f.k.b.b.M.n.n.n.n.n.",
"Z.Z.Z.U.U.U.U.U.I.I.Z.Z.Z.Z.Z.Z.Z.Z.B.V.V.V.B.B.B.B.B.B.B.B.I.U.U.U.U.U.U.U.U.U.U.Q.U.U.U.U.U.W.U.U.U.Q.Q.T.W.W.W.W.!.!.8X8X8X} p a a a u u u u r r r r u u u u r r r < t t r r t < < < < < < < < < < < < r r r r r t r r r r r r r t t 1 1 1 < < < < < < < < < < < < < < < 2 2 : : : : o o o o X               X X o o o o o o o o o o o X X X X X X X X X X X X X X X X X X X X X X X X     X X X                                                                                                                                                                                                                                                                                                 X X X X X X X X X X X X X     X o 1 , 1 - - 3 - 1.G.G.D..XXX&XXXXX@X@X@X@XXXXXXXXXXX.X.X.XF..X.X.XF.F..X.X.XD.D.D.D.F.oXXXoXXXoXXXXXXXXXXX@X#XXXXXoX.X.XXXXXoX.X{.{..XoXoX.XoXoX.X.XoXoX.X.X.X.X'.D.0.q.q.q.3.3.3.>.;.S &._. X+X=X=X-X>X>X2X<X<X<XmXmXmXmXmX2X2X2X<X<X<X<X<X<X-X<X-X<X<X<X<X-X-X-X-X-X*X*X*X*X*X*X%X%X%X@X#X#X#XXXoXoX.X.XF.F..X|.G.0.D.D.0.q.9.q.q.9.w.2.<.<.<.<.<.<.2.<.<.-.-.-.-.:.:.-.-.-.-./ ) Z e O O O O                                                                                                                                                                                                                                     X X       X X X X                         X X X     X X   X X X         X X X X X X X X X X X X X X X X X X X X X X X X X X X X X X X X o O X X X O X X X X         X X X X O o o o o o o 2 , , , < < < < t t r r a p p f f f G G G J u.T.0X9X0X0X6X6X6X6X6XqXqXqXqX6X4X4X4X4X4X4X4X4X4X4X4X4X4X4X4XT.T.Y.T.T.Y.Y.Y.Y.I.C.C.C.C.M.b.k.j.s.u.u.{ [ ] Y Y Y Y Y U L L L L L P P L L L L P P J J R H f p p u y y 8 8 8 8 > > y u p J P U T { d.g.j.k.z.b.b.b.b.n.n.n.",
"Z.Z.Z.Z.U.U.Z.Z.Z.I.Z.Z.Z.Z.B.B.Z.Z.B.B.V.V.B.B.B.B.B.B.P.I.I.I.I.I.U.U.U.U.U.U.U.U.U.U.U.U.U.U.U.U.U.Q.U.T.W.T.W.W.!.!.8X8X!.| p a a u u u u u r r r r r u u u r r r 1 1 t t r < < < < < < < < < < < < < t r r r r r r r r r r r r t t 1 t t 1 < < < < < < < < < < < < < < 2 : o : 2 2 : o o o X X               X o o o o o X X X X o o o X X X o X X X X X X X X X X X X X X X X X X X       X X                                                                                                                                                                                                                                                                                                   X X X X   X X X X X X       X o 1 + - + + 3 + ' G.9.9.D.J..X.XoX.XF.J.oXoXF..X.X.X.X.X.X.XF.{.F.F.F..X.X.XD..XoXoX.XoXXXXXXXXXXXXXXXoXXX@X&X@XXX.X.X.XXXXXXX.X.X.XoXoXXXoXXXoXoXoXoXoX.X.X.X|.'.D.0.0.q.q.q.3.3.>.;.S ;. XOX=X=X=X-X2X-X2X<X<X2X2X2X2X2X2X2X2X<X<X<X<X<X-X<X-X-X-X<X<X<X<X-X*X*X-X*X*X*X*X*X%X%X%X%X%X@X@X@X#XoXoX.XH.F.F.D..X|.D.D.D.0.9.9.9.9.q.9.9.9.<.<.<.<.<.<.<.<.<.1.:.:.:.-.-.-.%.-.) ) v 4 + O O                                                                                                                                                                                                                                             X X   X X X X               X X               X X X                           X X X X X X X X X X X X X X X X X X X X X o O O o X X o O X X X X X X X X         X X X X O o o o o o o 2 , , , , < < < < < r r u u p f f f G G G J u.6X0X9X9X0X0X6X6XqXqXqXqXqXqXqXqX6X4X4X4X4X4X4X4X4X4X4X4X4X4X4XT.Y.T.T.Y.Y.Y.Y.I.I.C.C.C.N.n.b.k.h.s.u.u.i.[ [ [ T T T Y Y Y Y Y U U U U U U U U U L L J J H f p p u u u u y 9 8 u u p f J P U [ i.d.g.f.k.z.z.z.b.b.b.b.b.",
"Z.Z.Z.Z.U.U.U.Z.Z.Z.Z.Z.Z.Z.B.B.Z.B.B.B.V.B.B.B.B.B.B.B.I.U.U.I.I.I.U.U.U.U.U.U.U.U.U.U.U.U.U.U.Q.Q.Q.Q.Q.Q.T.W.W.W.!.!.8X8X!.| p a a a u u r r r r 1 r r r u r r r r r r t r t < < < < < < < < < < < < < < < < t r r r r r r r r r t t t t t t t < < < < < < < < < < < < < 2 2 : : : o o o o o X X X X           X o o o o X X X X o o o o o X X X X X X X X X X X X X X X X X X X X X X       X X                                                                                                                                                                                                                                                                                                   X X X X X X X X             X o 1 o + O + 3 - -.H.D.D.D.J.D.F..XJ.D.D..XJ.F.F.F..X.XF.D.D.F.J..XF.F..X.XoXF.XX@XXXoXXX@X&XXXXX@X@XXX.XoX@X&X@XXXoX.X.XXXXXXXoXoXXXXXXXXXXXXX@XXXoX.X.X{..XF.D.D.D.0.0.0.0.q.3.2.>.&.S >. XOX=X=X=X>X2X-X2X<X2XmX2XmX2X2X2X<X<X<X<X<X<X<X-X<X-X-X-X-X<X-X-X-X*X*X-X*X%X%X%X%X%X%X%X%X%X@X@XXXoXoXH.F.F.F.F.D.F.D.0.0.D.0.0.0.9.9.9.9.9.2.<.<.<.<.<.<.<.1.<.<.<.:.:.-.%.%./ / b x e O   O                                                                                                                                                                                                                                                       X X               X X X               X X X     X X X                 X X X X X X X X X X O X X X X X X X X O O o o o O O O o X X X X X X X X X       X X X X X O o o o o o 2 2 , , , , 1 < 1 r t t r u u p f f f G G G P k.7X7X0XqX0X0X6X0X0XqXqXqXqXqXqXqX6XqXqXqXqXqX6X4X4X4X4X4X4XT.T.4XT.4X4XY.Y.Y.Y.I.Y.C.C.C.m.M.b.b.j.j.h.u.u.i.i.i.{ { { [ T [ [ [ [ [ [ T T T T T Y Y U P P J J f p p p u u u u u u u p H J L Y [ u.d.g.f.k.x.x.k.z.z.k.k.k.",
"Z.Z.Z.U.U.U.U.U.U.Z.Z.Z.Z.Z.B.B.Z.Z.B.B.V.B.B.B.I.B.V.B.I.U.U.I.I.I.U.U.U.U.U.U.U.U.Q.W.Q.U.U.U.U.R.Q.Q.T.T.W.W.W.W.!.!.7X8X!.} a h a a a u r r r r 1 r r r r r r r r r r r r t < < r 1 < < < < t < < < < < < < < t r r < < 1 r r r t t t t t r < < < < < < < < t < < < < < 2 2 2 : o o : 2 o o X X X X             o o o o X X o o o o o o X X X X X X   X X o X X X X X       X X X X X       X X                                                                                                                                                                                                                                                                                                   X X X X X X X               X o 1 O + O + 3 + ' F.D.D..XXXXXoX.XF.D.F..XJ.D.D.D.D.F.F.D.D.F..X.XF.F.F..XoXXXXXXX.X.X@X@X@X@X@X@X@XXX.X.X@X@X@X@XXX.X.XXX#X#XXX@XXX@X@X@X@XXX@X&XXX.XF.F..XD.D.D.D.D.0.0.q.3.3.3.>.;.n ,. XOX=X=X=X>X2X-X<X2X2X2X2XmX2X2X2X-X<X<X<X<X<X-X-X<X-X-X*X-X-X-X*X-X*X*X*X*X*X%X%X@X@X%X@X@X#XXXXXoX.XH.F.F.F.F.F.F.D.D.9.9.9.9.9.9.0.9.9.<.<.<.<.<.<.<.<.<.<.<.<.<.:.-.%.%.%.%./ A x + O + O                                                                                                                                                                                                                                     X             X     X X               X X X     X       X X X       X X X       X X X X X X X X X X X   X X X O O O O o o o O O O o o o o o o O O X X X X X X X X X       X X X X X O o o o o o 2 , , , , , < r r t r r r r u a a f f G G G U c.7X9X0X5X6X6X6X9XqXqXqX6XqXqXqXqX4X4X6XqX6X4X4X4X4X4X4X4X4X4XT.T.T.4X4XT.Y.Y.Y.I.Y.C.C.C.C.N.n.b.k.k.k.f.u.u.u.u.i.d.i.i.i.i.i.{ { { i.{ [ T T T T T Y U L P J J f p p p u u u p p p p H P L Y [ u.s.g.j.k.z.k.j.j.j.k.j.k.",
"Z.Z.U.U.Z.Z.Z.U.U.U.U.U.U.Z.Z.B.B.B.B.B.B.B.B.B.V.V.B.B.P.I.U.U.U.U.Q.U.U.Q.Q.U.U.U.U.Q.Q.U.U.U.Q.Q.Q.Q.Q.Q.W.W.W.Q.!.7X8X8X!.| p a a a a a u 1 < < 1 1 < 1 u u r r < < < < r r < < < < < < < < < < < < < < < < r t t t t t r r < < < t t t < < < < < < < < < t < < < < < 2 < < : : : : : : o o X X X             X o o o o o X X o o o o X o o X X X o o o X   X X X X X X X X X X X X X X     X                                                                                                                                                                                                                                                                                                     X X X X X X X             X X X o o O + + - 4 e <.G.9.'.|.XXF.D..X.XD.{.XXD.D.G.D.G.9.9.D.D..XF.D.F..XoXXXXXXXXXXXXXoX@X*X*X@X@XXXH.F.F.H.oXXX#XXXXXXXoX.X@X@X@X@X@X@X@X@X@X#XXXoX.XH.H.H.'.D.D.D.D.0.0.q.3.3.,.>.&.S &. XOX&X=X=X<X<X<X<X2X2XmX2X2X2X2X2XmX2X2X<X<X<X<X<X-X-X-X-X*X*X*X*X*X*X*X*X*X*X*X%X%X@XXXXX@XXXXXoXoX.X.X.X.XF.F..X.XD.D.0.9.9.0.9.9.9.9.<.1.1.<.<.<.<.<.<.1.<.G.9.<.:.%.%./ / ' Z 3 3 + O O O                                                                                                                                                                                                 X X                 X             X                       X X X X X X X X X X X X X             X X X X X X X         X X X o X       X X X X X X X X X X X O O O O X X O o o O X X X O o X X                   X O O X X o o 2 2 o 2 2 2 , , , < t t t t r r r u p a p G G G H ] P.0X0XqXqXqX0X6X6X6X6X6X6X6X6X6X6X6X6X6X6X4X6X6X6X4X4X4X4XT.T.T.T.T.T.T.T.T.Y.Y.I.Y.I.C.C.C.m.M.n.N.b.k.k.j.f.g.d.d.d.d.d.u.u.u.i.i.i.i.i.i.i.i.[ [ [ Y U U L P P H J H f p p f p p p H J P U T { u.d.f.k.k.k.k.x.j.j.j.g.f.",
"Z.U.U.U.U.Z.Z.U.U.U.U.U.Z.Z.B.B.B.B.B.B.B.Z.Z.Z.B.B.B.B.P.P.I.I.I.U.U.U.U.Q.U.U.U.U.Q.Q.W.U.U.U.U.U.Q.Q.Q.R.W.W.W.W.!.6X7X8X!.| p a a a a a r 1 < < < < < 1 r u r r r t t r r r t 1 t < t t < < < < < < < < < < t t t t t t t r < < < < t t < < < < < < < < < < < < < < 2 2 < 2 : : : : : : o o X X X             X o o X o o X X o o o X X X o o X X X X X X X X X X X X X X X X X X X X X     X                                                                                                                                                                                                                                                                                                     X X X X X X X                 X O O O + - 3 - x 8.D.D.'.D.D.D.D.D.D.D.D.F.D.D..X.X.XF.G.D.F.F.D.F.F.F.F.oXF.XXXXoXXX@X@XXX@X%X@X@XXXoXoXoXoXXXXXXXXXXXoX.X%X%X@X@X@X@X@X@X@X#XXXoXH.H.F.F.'.'.D.D.D.0.0.q.4.3.,.>.&.S :. X$X&X=X1X1X<X<X2X2X2XmX2X2X2X<X<X2X2X<X<X<X<X<X-X-X-X-X-X-X*X*X*X-X-X*X*X*X*X*X%X%XXXoXXX@X@XXXXX.X.X.X.X'.D.F..XD.D.0.0.9.9.9.9.9.9.<.<.<.<.<.1.1.9.8.<.1.1.9.9.9.-.S ' ' ^ c e - + O   X X                                                                                                                                                                                                                           X X                             X X               X X X X X X X X         X X X X X X     X X X X X X X       X X X X X X X X X X X X X X X X X X O X X X X o o O X X X           X X X o O O o o o o 2 2 2 2 2 , , , < t t t t t t r u a a p G G G G [ R.0X0XqX0X0X0X7X6X6X6X6X6X6X6X6X6X6X6X6X6X6X6X6X6X4X4X4X4XT.T.T.T.4XT.T.T.T.Y.Y.Y.Y.I.I.C.C.C.N.n.n.b.z.k.f.f.f.f.g.g.g.g.f.s.d.u.u.u.u.i.i.i.i.{ { { [ Y U U L L J J J J H H H H H H J J L Y [ i.u.d.f.j.j.f.j.j.j.j.g.s.d.",
"Z.Z.U.U.Z.Z.Z.U.U.Z.I.U.Z.Z.Z.B.Z.Z.Z.B.B.B.B.B.Z.B.Z.Z.P.P.P.P.I.U.U.U.U.U.U.U.U.W.W.Q.W.U.U.U.U.U.Q.Q.Q.Q.W.W.W.Q.!.!.!.8XE.o.a a a a a a u r < < < < < < < < t t t r r r r r r r r r r r t < < < t < < < < < < t t t t t t t < t < < r t < < < < < < < < < < < < < < 2 2 2 2 2 : : : o o o X X X X           X o o o X o o o X o o o X X o o o o X X X X o o X X X X X X X X X X X X X X X X X                                                                                                                                                                                                                                                                                                     X X X X X X X X               X X O o - 1 w - Z 9.D.F.'.0.0.D.D.9.9.0.D.D.D.D.F.F.F.D.D.D.D.D.D.F.XX.X.XXXoXXX.XF..XXX@X#XXX%X%X%X%X%X#XoXXXXX#X#XXX#XXXXX@X@X@X@X#XXXXXXX@X#XXXoX.XH.H.J.'.'.'.D.D.0.0.3.3.2.,.>.&.m :. X$X&X=X-X1X<X2X2XmXmXmXmX2X2X<X<X<X<X<X<X-X-X<X<X-X-X-X-X-X-X-X*X-X-X*X*X*X*X%X%X%X@XoXXXXXXXXXXX.XoX.X.XD.F.'.'.D.0.D.0.9.9.9.9.9.9.9.9.9.9.9.9.9.G.9.9.9.<.1.-.<.-./ / / x 4 O O                                                                                                                                                                                                                                   X X X X                     X X X X                         X X X X         X X X X X X X X X X X X X X X X     X X X X X X X X X X X X X X X X X X X X X X X o o o O X X X .       X X X o O o o o o o 2 2 2 2 2 , , , < < t t t t t r u u p p f G G G i.T.0X0X0XqXqX0XqXqX0X0XqXqX6X6X6X6X6X6X6X6X6X6X6X6XT.T.4X4XT.T.T.T.4X4XT.T.T.T.Y.Y.Y.I.I.I.C.C.B.N.N.n.b.b.x.k.k.j.j.f.f.k.k.j.j.f.f.f.f.d.u.u.u.i.u.i.{ [ ] Y U U P P J J J J J J J J P L U Y [ i.u.d.f.k.k.k.j.j.f.f.s.s.d.",
"Z.Z.U.U.Z.Z.Z.U.Z.U.U.I.I.Z.Z.Z.B.B.B.B.B.B.B.B.B.B.Z.Z.P.I.I.I.I.I.U.U.U.U.U.U.Q.U.U.U.U.U.U.Q.U.U.Q.U.Q.Q.W.W.W.W.!.!.!.8XE.U u a a a a a u r r < < 1 < < < < < < < < t t t t r r r r r r < < t t t t t < < < < < t t t t t t < < < < t < < < < < < < < < < < < < < < < < 2 2 2 : 2 : : : o X X X X X X       X o o X X X o X X o o o X o o o o o X X X X o o X X X X X X X X X X X X X X X X X                                                                                                                                                                                                                                                                                                       X X X X X X X                 X   o , 3 3 3 Z G.9.D.|.D.D.'.D.9.2.G.D.D.D.D.D.D.D.D.D..XF.F.F.F.oXXXXX@X@X.XF..XoXoXXX*XXX@X@X@X@X*X@XoX#X@X@X@X@X@X@X#X@X@X@X#X#XXXXXXX@XXXXXoXoXoX.X.X.X'.D.D.D.0.0.3.4.2.2.>.&.b ,. X$X&X=X-X<X<X2X2XmXmXmXmX2X2X2X<X<X<X2X<X<X-X<X<X-X-X<X<X1X-X-X-X*X*X%X%X%X%X%X%X%X@XXXXXXXXXXXXXoXXX.XF.D.|.|.D.D.D.D.0.0.9.9.0.9.9.9.9.9.9.9.9.9.9.8.9.9.9.-.' -.-./ Z x 4 + O O                                                                                                                                                                                                                                   X X X X                     X X X                     X X X X X X X         X X X X X X X X   X X X X X X X   X X X X X X X X X X X X X X X X X X X X X X X X o o o o O X                 X O o o o o o 2 , 2 2 , 1 < , < < t t t t t r u u p p f G G G u.6X0XqXqXqX0X0X0X0X0X0XqXqXqX6X6X6X6X6X6X6X6X6X6X6XT.T.4X4X4X4X4X4XT.T.T.T.T.T.Y.Y.Y.I.I.I.I.C.C.N.N.N.n.b.b.x.x.b.x.x.x.b.b.b.x.x.k.k.j.f.d.s.s.d.u.u.i.{ [ Y U U L J J P P P P P P P L U Y T { i.u.g.j.x.x.k.f.f.s.f.s.s.d.",
"Z.Z.U.U.Z.Z.Z.U.Z.Z.Z.U.I.Z.Z.Z.B.B.B.B.B.B.B.B.B.P.P.P.Z.I.I.I.I.I.I.U.U.U.U.U.U.U.U.U.U.U.U.W.U.U.Q.Q.Q.Q.W.W.W.W.!.!.!.8XR.L p a a a a a u u u r t < < < < 2 2 < < < < < t < < t t t r < < < t t t t t < < < < t t t t t t t < < < < < < < < < < < < < < < < < < < < < < 2 2 2 2 : : : : o o o o X X X       X X X X X X o X o o o o o o o o o X X X X X X X X X X X X X X X X X X X X X X X X                                                                                                                                                                                                                                                                                                       X X X X X                         O , 3 - 3 e G.9.D.|..XD.D.D.G.D.'.|.D.D.'..X.X.X.X.X.X.XXX.XD.F.oXoXXXXXoXXX&X&XXXXX%X#X@X#XXXXX%X@XXX@X#XXX@X@X@X@X@X%X%X@X@X@X@X@X@X@XXXXXXXXXXXoX.X.X'.'.D.D.D.0.q.3.2.3.>.%.S q. X$X=X-X-X<X<X2X2XmXmXmXmXmX2X2X2X<X<X<X<X<X<X<X<X-X-X<X<X1X-X-X-X*X*X%X%X%X@X@X@X&X@X@X@XXXXXXXXXoX.X|.D.F..X'.D.0.0.0.0.0.9.9.0.D.9.9.9.9.<.<.1.<.<.1.1.9.9.:.1.-.-.Z e 4 - + - O O                                                                                                                                                                                                                             X         X X X                                 X X X X   X X X         X X X X X X X X   X X X             X X X X X X X X X X X X X X X X X X X X X X X X O O X o o O O O X                 X o o o o o o 2 , , , , 1 < < < < t t t t t r u u p a f f G J l.7X0XqXqXqXqXqX0X0X5X5X5X5X5X5X5X6X6X4X6X6X6X6X6X4XT.4X4X4X4X4X4X4XT.T.T.T.T.T.Y.Y.Y.Y.Y.Y.I.I.C.C.N.N.N.N.b.b.b.b.b.b.b.b.b.b.b.b.x.x.k.f.f.f.f.f.u.u.i.{ [ Y U U U P P L L L L U L L U U Y [ { u.u.s.f.k.k.j.j.s.s.s.s.d.u.",
"Z.U.Q.Q.Q.U.Q.Q.Z.Z.U.Z.Z.Z.Z.Z.B.B.B.B.B.B.B.B.I.I.I.I.Z.Z.P.I.I.I.I.U.U.U.U.U.U.U.U.U.U.U.U.U.U.U.T.Q.Q.T.W.W.W.W.7X!.7X8XP.P p a u u r r r u u u r t < < < < < < < < < < < < < < < < < < < < t t t t t < < < < < t t t t t t t < < < < < < < < < < < < < < < < 2 < < < < 2 2 2 2 2 : : : o o o o o X X         X o X X o o X o o o o o o o o X X X X X X X X X X X X X X X X X X X X X   X   X                                                                                                                                                                                                                                                                                                               X X                     X o + 1 , 3 4 1.9.D.D.D.D.D.D.D.'..X.X.XD.D.F..XXX.XF..XF.XX.XG.D..XoXoXXX@X@X@X@X@X&X%X@X%X#XXXXX@X@XXX#XXXXXXX@X@X@X@X%X%X%X@X@X@X@X@X@X#XXXXXXXXXoX.X.X'.'.D.'.D.0.0.3.3.3.>.%.S 0.oX$X&X-X1X<X<X2X2X<X<X2XmXmXmX2X2X<X<X<X<X<X<X-X-X-X<X<X<X1X-X-X-X-X*X*X%X%X%X@X@X@X%X&X@XXXXXXXXX.X.XD.D.D.|.D.D.0.0.0.0.0.9.9.0.D.9.G.9.9.<.<.<.<.<.8.<.<.<.:.1.-.Z e 4 - 3 O + O O         .                                                                                                                                                                                       X X X                       X         X X X                             X X X X X     X X X         X X X X X X       X X X     X         X X X X X X X X X X X X X X X X X X X X X O O O O X O O X X X X           X     X o o o o o o o 2 2 , , 1 < < < < t t t t r r u u a f f f G L M.0X0XqX0XqXqXqXqX0X5X5X5X5X6X6X6X6X6X4X6X6X6X6X6X6X4X4X4X4X4X4XT.T.T.T.T.T.T.T.Y.Y.Y.Y.Y.I.I.C.C.C.C.N.N.n.n.b.b.b.b.b.b.b.b.b.b.b.b.b.b.k.k.k.k.k.f.s.u.i.[ [ Y U U L P L L U U U U U U Y ] [ { u.u.s.f.k.k.j.h.s.s.s.d.u.i.",
"Z.U.U.U.Z.Z.U.U.I.I.U.U.Z.Z.Z.Z.B.B.B.B.B.B.B.B.Z.Z.Z.I.Z.I.I.I.U.I.I.U.U.U.I.U.U.U.U.U.U.U.U.U.Q.Q.T.T.T.R.W.W.W.W.7X!.7X~.P.K f a r r r t t r r r r r t < < < < < < < < < < < < < < < < < < < < < < < < < < < < < < < < < t t t < < < < < < < < < < < < < < < < < < < < < 2 2 2 2 2 2 2 : : o o o o X X X       X X o o o o o o X X o o o o X o X X X X X X X X X X X X X X X X X X X   X     X                                                                                                                                                                                                                                                                                                       X X     X                     o + 2 + - 3 w 4 ' G.G.9.D.D.D.D.D.'.'..X.XF.D.G.D..XF.D..XD.oX.XF.F.oXXX@X%X@X#XXX#X%X*X*X%X@X@X@X@X@X@X@X@XXXoXXX@X@X@X&X&X&X@X@X@X@X@X@X@X@XXXXXXXXXXX.X.X.X'.D.'.D.0.0.3.3.2.;.S S '.OX$X&X-X1X<X2X2X2X<X<X<XmXmXmX2X2X<X<X<X<X<X<X<X-X<X<X<X-X-X-X-X-X<X-X*X*X*X%X%X%X@X@X@XXXXXXXXXXX.XD.D.D.D.D.D.D.D.D.0.D.D.0.9.0.9.9.9.9.<.<.9.9.9.9.D.G.9.<.-.-.^ e 4 + 3 1                                                                                                                                                                                     X X X X X X X X       X X                       X X     X X X X                             X X         X X X X         X X X X X X           X   X X X       X   X X X X X     X X X X X X X X X X X o O O X X o o X X X X X           X     X o o o o o 2 o o 2 2 , < < < < < t t t t t r u u u f f f J Y R.9X0XqX0XqXqX5X6X0XqXqXqX6X6X6X6X6X6X6X6X6X6X6X6X6X4X4X4X4X4X4XT.T.T.T.T.T.T.T.Y.Y.T.Y.Y.I.I.C.C.C.C.C.N.m.M.M.n.n.n.n.n.n.n.n.n.N.b.b.b.b.b.b.b.x.j.f.u.u.i.[ [ T U U U L U U U Y U Y Y [ [ { { i.u.d.g.j.j.j.h.s.s.d.u.{ { ",
"B.Z.Z.Z.Z.Z.Z.Z.U.U.U.U.U.I.Z.Z.V.V.V.V.V.V.V.V.B.B.B.Z.I.U.U.U.U.U.U.U.U.U.I.U.U.W.W.W.Q.U.U.I.Q.Q.W.T.T.W.W.W.W.W.7X7X7X~.K.G f a r t < < < < t r r r t < < t t < < 2 2 2 < < < < < < < < < < < < < < < < < < < < < < < < < t t < < < < < < < < < t < < < < < < < < < < < 2 2 2 : 2 2 2 : : o o o o X X X       X o o o o o o X X X X o o o o o o X X X o X X X X X X X X X X X X X X         X                                                                                                                                                                                                                                                                                                     X X X X X                     O , 1 1 , + 3 3 e ^ G.G.9.'.9.0.D..X.X'.D.D..XD.D..XXX.XF..X{.XX@X#X#XXXXX%X&XoXoX%X*X@X@X%X@X@X@X&X*X@X@X@X@XXXXX#X@X&X&X&X*X*X*X&X%X@X@X@X&X@XXXXXXXXXXX.X.X.X'.'.'.D.0.0.3.3.,.;.S / |.OX$X&X-X<X<X<X2X2XmX<X<XmX2XmX2X<X2X<X<X<X2X2X<X<X<X<X-X-X-X-X-X-X<X-X*X*X*X*X*X*XXX@XXXoX.X.X.X.XD.D.D.D.D.G.G.D.D.D.0.D.D.0.9.D.D.9.9.9.9.9.9.9.9.9.G.9.9.9.<.1.Z 3 - + O O   O     X X                                                                                                                                                                         X X X X X X X X                                   X X X X X X                   X             X               X X X   X         X X               X o X X     X     X X X X           X X X X X   X X o O X X X o o X   X X X           X   X X o o o o o 2 o o 2 , , < < < < < t t t t t r u u t f f f J [ T.7X0XqX0XqX5X5X5X6XqXqX6X6X6X6X6X6X6X6X6X6X6X6X6X6X4X4X4X4X4X4XT.T.T.T.T.T.T.T.Y.Y.T.Y.Y.I.C.C.C.Z.C.C.N.N.N.N.m.n.N.N.n.n.N.N.N.n.N.n.n.b.n.n.b.z.x.j.s.u.i.{ [ [ U U U U U U Y ] ] ] [ { { { { { u.u.s.f.j.f.s.d.u.u.i.{ [ ",
"Z.U.Q.Q.Q.Q.U.Z.U.U.Z.Z.Z.Z.Z.B.Z.B.B.V.V.B.B.B.V.V.B.B.Z.U.U.U.I.U.U.U.U.U.U.U.U.U.U.U.W.W.W.Q.Q.Q.T.W.T.T.W.W.Q.W.!.!.7X!.M.J p a a u t < < 2 < < < < t t t t < < < < 2 2 < < 2 2 2 2 < < < < < < < < < < < < < < < < < < < < < < < < < < < < < < < < < < < < < < < > 2 2 < < : 2 2 2 : 2 2 2 o o o o o X       X o o o o o o o X X o o o X X o o X X   X X o X X X X X X X X X X X                                                                                                                                                                                                                                                                                                                                               X o 2 , 1 3 3 e 4 W 9.9.D.D.9.0.D.D.D.'.F.D.|..X.X.X.X.X.XXX@X&X#X@XoXXXoXoX.X@XXX@X#XoX&X*X*X%X@X%X%X@XXXXX@X@X@X#XXXXX&X*X*X&X@XXX@X&X&X@X&X&X@X@X@XXXXX.X.X.X'.'.D.D.0.q.3.3.>.>.b %.OXXX=X-X<X2X<X<X<X<X<X<X<X<XmXmXmXmX<X<X<X<X<X<X2X2X2X2X<X-X-X1X<X<X<X-X*X-X*X*X&X&X&X@XXXoX'.F.J.D.G.D.D.D.D.D.D.0.D.|.D.0.9.9.9.9.9.9.9.8.9.<.<.<.9.9.9.<.:.<.<.-.3 1 + O O O     X                                                                                                                                                                                                       X X X               X   X         X     X X X       X X         X X X X   X X X       X                 X X X   X X X X X X X X     X X X X     X X X   O O X X X X X X X X X X X o X X o o X X X X X X                 X X O o o o o o o 2 , < < < < < t t t r t t r u p a f G G [ I.9X9X9X0XqXqXqX0X0X6XqX0X0X6X6X6X6X6X6X7X6X6X6X6X4X4X4X4X4X4X4XT.T.4XT.T.T.T.T.Y.Y.Y.Y.Y.Y.Y.I.I.I.C.C.C.m.N.N.B.C.m.N.N.N.N.N.N.m.N.N.m.n.b.b.b.n.k.f.f.u.i.i.[ T U U U U U U Y ] ] ] [ [ { { { { i.u.u.s.s.s.s.s.u.u.{ [ ] ",
"Z.Z.U.U.U.U.Z.Z.U.Z.Z.Z.Z.Z.Z.B.B.B.B.V.V.B.B.B.V.B.B.B.I.U.U.U.U.U.U.U.U.U.U.U.U.U.U.U.W.W.W.W.Q.Q.T.W.T.T.W.W.Q.W.!.!.7X!.K.K p a a u r < < < 2 2 2 2 < < < < < t < < < < < < 2 2 2 2 < < < < < < < < < < < < < < < < < < < < < < < < < < < < < < < < < < < < < < < > 2 2 < < 2 2 2 2 2 2 2 2 o o o o X X X     X X o o X X X o X X o o o X X o o X X   X X o X X X X X X X X   X X                         X                                                                                                                                                                                                                                                                                                                     X o 2 , 1 3 3 e 4 x 8.9.D.D.0.D.'.D.D.'..XXX.X.X.X.XoX.X.XXX.XXX@X%X#XXXF.D.F.H.D.F.D.D.oXXXXXoXXX@X%X@X@X@X*X@X@X#X#XXXXX@X&X&X&X@X&X*X*X@X&X&X&X&X@XXXXX.X.X.X'.D.D.D.0.0.3.2.;.;.b -.OXXX*X*X<X<X<X<XmXmXmX<X<X<X<XmXmXmX2X2X<X<X<X<X2X2X<X<X-X=X-X-X-X-X-X*X*X*X*X*X&X%X=X@XXXXX.X.X.XD.D.D.D.D.D.D.D.0.9.G.0.0.D.0.9.0.9.9.8.<.8.9.9.G.9.9.<.<.<.1.1.Z + + O O O X X   X                                                                                                                                                                                                       X X         X     X X X X X X X X X X X X X X       X X         X X X X   X X X       X                 X X X       X X X X X X   X X X X X X X X X X X X X X X X X X X X X X X o o o X o o O X X X X             X X X o o X o o o o o 2 2 , < < < < < t t t t t r r u u p f f G { R.6X0X0X0X0XqXqX0X0XqXqX0X0X6X6X6X6X6X6X6X6X6X6X6X4X4X4X4X4X4X4XT.T.T.T.T.T.T.T.Y.Y.Y.Y.Y.Y.I.I.I.C.C.C.C.C.C.C.B.B.B.B.C.C.C.B.N.N.N.N.N.n.n.b.b.n.b.k.f.u.u.i.[ [ U U L U U U Y Y ] [ [ { { { { { u.u.s.s.s.s.s.d.u.} { ] Y ",
"Z.Z.U.U.Z.Z.Z.Z.Z.Z.Z.Z.Z.Z.Z.Z.B.B.V.V.V.V.B.B.B.B.B.Z.Z.I.I.U.U.U.U.U.U.U.U.U.U.U.U.U.W.W.W.W.Q.Q.Q.T.T.T.W.W.W.W.W.!.7X8XP.P p a a u u r t < < 2 : : : < < t r r r r < < < < < 2 2 2 < < < < < < < < < < < < < < < < < < < < < < < < < < < < < < < < < < < < < < < < < 2 < < 2 2 2 2 2 2 2 2 2 o o X X X X X     X o o X X X o o X o o o X X o o X X X X X o X X X X X X         X X X X X               X X X X X X X                                                                                                                                                                                                                                                                                                           X o o + , 1 3 e 3 4 1.D.F.'.'.|.F.D.'..X|.D.D.F.F..XXXXXXXXX#XXX@XXXXXoX.XF.F..XD.D.D.D.oXXXoXoXXX@X%X%X%X@X*X@XXX#X@XXXXXXX*X*X*X*X*X*X&X&X&X&X&X@X@XXX.X.X|.|.'.D.D.0.0.q.3.;.&.%.b ;.OXXX*X*X-X<X<XmXmXmXmXmXmX<X<XmXmXmX2X2X2X2X2X<X<X<X<X<X<X-X-X-X-X-X-X*X*X*X*X*X&X%X&XXXXXXX.X.X.XF.|.D.D.D.0.D.D.0.G.G.9.9.G.9.9.G.G.G.9.9.9.9.9.D.D.9.9.9.8.1.1.e O O o o o X X X                                                                                                                                                                                                     X X           X X   X X X X X       X X X   X X X X       X X X X   X X       X X X     X X X X         X   X X       X X X X X X X X X X X X X X X X X X X X X X X X X X X X X X X o o o O o o o X X X                     o o o o o o o o 2 2 , , < < < < t t t t t r u u r p f f J u.T.7X0XqXqX0X0XqX6X6X0X6X6X6XqXqX6X4X6X6X6X6X6X6X6X4XT.T.T.4X4X4XT.T.Y.Y.T.T.T.Y.Y.Y.Y.Y.Y.I.I.I.I.I.C.C.C.C.C.C.C.m.C.C.C.C.C.C.m.m.N.N.N.M.N.b.b.b.b.z.k.f.u.i.[ [ U U L U U U U Y ] [ { { i.i.i.i.i.u.d.s.s.s.d.u.} } [ ] Y ",
"Z.Z.U.U.U.U.U.U.Z.Z.Z.Z.Z.Z.Z.Z.B.B.V.V.B.B.B.B.B.B.B.Z.Z.I.U.U.I.I.I.U.U.I.U.U.U.U.U.U.W.W.W.W.Q.Q.Q.T.R.T.W.W.W.W.W.!.7X8XP.L u a u u u r t t < < < 2 2 < < t 1 t r r t < < < < < < < < < < < < < < < < < < < < < < < < < < < < < < < < < < < < < < < < < < < < < < < < < < < 2 2 2 2 : 2 2 : o o o o o X X X     X X o X o o o o X o o o X X o o X X X X X o X X X X X X X       X X X X X X             X X X   X X                                                                                                                                                                                                                                                                                                               X O o + - 3 e e 4 ) D..X|.oX|.|.D.'..XD.9.D.D.F.oX@XXXXX&X&X@X@X.XXX.XXXoXoXXXXXXXXXXX@X@X@X@X@X%X*X*X%X@X@X#XXXXX#XXXXXXX&X*X*X*X*X&X&X&X&X&X@X@X@XXX.X.X.X|.'.D.0.0.q.3.2.&.%.@.b 2.oXXX*X-X-X<X<XmXmXmXMXMXmXmXmXmXmXmXmXmX2X2X2X<X2X<X<X2X2X<X1X<X<X-X-X*X*X*X*X*X*X%X&X@XXXXX'.'..X.X'.D.D.0.0.D.D.D.D.G.9.9.9.9.9.9.9.G.9.9.9.9.9.9.9.8.1.<.<.1.' 3 + + + o o X X X                                                                                                                                                                                             X X   X X X                   X X                   X X X X     X X X X X X X X       X X       X X X X X     X X X X         X   X X X X X X X X X X X X X X X X X X X X X X X X X       X O o O X o o O X X X                     o o o o o o o o 2 2 , , < < < < t t t t t t u u u p p f J } R.9X0XqX0X0X0XqX6X6X0X6X6X6X0X0X6X4X4X4X6X6X6X6X6X4XT.T.4X4X4X4XT.T.T.T.T.T.T.Y.Y.Y.Y.Y.Y.I.I.I.I.I.I.I.C.C.C.C.C.C.C.C.C.C.C.C.m.N.N.n.n.n.b.b.b.b.b.b.k.f.u.i.[ [ U U L U U U U U ] [ { { { { { i.i.i.u.u.u.u.u.} { { ] Y U ",
"Z.U.U.Z.Z.U.U.U.U.U.I.Z.Z.Z.Z.Z.B.B.B.V.V.B.B.B.B.B.B.Z.Z.Z.U.U.I.I.I.U.U.U.U.U.U.U.U.U.U.U.W.W.Q.Q.Q.Q.R.T.W.W.W.W.W.W.!.~.R.U u a u u u u r r r t t < < < < t < < < < t < < < < < < < < < 2 2 , , , < < < < < , < < < , 2 , < < < < < < < < < < < < < < < < < < < < < < < < < 2 2 2 2 2 : 2 : o o o o o o X       X o o o X o o X X o o o o X X o o X X X X o X X X X X X X X   X X X X X X X     X X       X X X                                                                                                                                                                                                                                                                                                                         o + 3 w e 4 x 9.D.D.|.oXoXF.D.D.|..X'..X.XXXXX.X.XXX.X.X@XXX@XoXXX.XoXXX@XXXXX@X@X@X%X%X%X&X*X*X%X@X@X#XXXXXXXoXXX@X@X@X&X&X@X@X@X&X@X@X@X@XXXXX.X.X.X'.'.D.0.0.q.3.,.&.%.@.b 9.oX@X*X-X<X<X<XmXmXmXMXmXmXmXmXmXmXmXmXmXmX2X2X2X2X<X<X<X<X<X-X-X-X-X<X-X*X*X=X=X*X&X&X&X$XoXD.D..XoX0.0.0.0.0.0.D.D.G.D.9.<.<.9.D.G.D.G.G.G.9.9.9.9.9.9.1.-.' 1.x + - + o O X X                                                                                                                                                                                                 X X   X X X                         X X X X X X X X X X X X X X X X X X X X         X         X X X X X X X X X X X           X X X X X X X X X X X X       X X X   X X X X X X X X       X O o O X X O o X X X X X           X X X X o o o o o o 2 2 2 , , , < < < t t r t t t u p a f p f G U l.6X0XqXqX0XqXqX6X6X0X6X6X6X0X0X6X4X4X4X4X6X6X6X6X6X4X4X4X4X4X4XT.T.T.T.T.T.T.Y.Y.Y.T.Y.Y.Y.I.I.I.I.I.I.C.C.C.C.C.C.C.C.C.C.C.C.m.N.M.N.N.b.b.b.b.b.b.b.j.f.s.i.[ T U U L L U U U U Y [ { { { { { i.i.i.u.u.u.u.} { [ ] ] L L ",
"Z.Z.Z.Z.Z.Z.U.Z.U.U.U.U.Z.Z.Z.Z.B.B.B.B.V.V.B.B.B.B.B.B.Z.Z.U.Z.U.U.U.U.U.U.U.U.U.U.U.U.U.U.Q.T.Q.Q.Q.Q.R.T.W.W.W.W.W.W.!.!.E.| p a u u u u u r r r r t t t t t < < < < < < < < t t < < < < < < , , < < < < < < , , < , 2 2 2 , < < < < < < < < < < < < < < < < < < < < < < < < < < < 2 2 : : : X o o o o o X       X X X o o o o o X o o o o X X o o X X X X X X X X X X X X X X X X X X X X     X X X         X                                                                                                                                                                                                                                                                                                                           o , 3 3 e e e 8.G.0.D.|..X'.D.'..XoX.X.X.X.XF.D.F.XXD.F.XXXX#XXXXXoXoXXX@XoXoX@XXX@X@X%X%X&X*X*X*X*X%X%X@X@XXXXXXX&XoXoXoXXX@X@X@X&XXXXXXXXXXX.X.XF.F.F.'.D.D.0.q.3.2.;.*.%.b 9.oX%X-X-X<X<X<X<XmXmXmXmXmXmXmXmXmXmXmXmXmX2X2X2X<X<X<X<X<X-X-X<X1X-X1X-X*X*X*X=X*X&X@XXXXX.XD.D.'.|.0.0.D.D.0.D.D.D.D.D.D.9.9.D..XD.D.G.D.D.9.9.9.<.<.8.1.^ Z Q + O + O                                                                                                                                                                                                                 X X           X X       X   X X     X X X                   X X X X X X               X X X X X X X X X       X X   X X   X X X X   X X X X X         X     X X X X X X X X X X X X o o o O O X X X X X X X         X X X X X X o o o o o 2 2 2 2 2 , , < < t t r r t t u p f a p G G G u.6X0X0X0X0XqXqX6X6X0X6X6X6XqXqX6X4X6X4X4X6X6X6X4X6X4X4X4X4X4X4XT.T.4X4X4XT.T.Y.Y.Y.Y.Y.Y.Y.I.I.I.I.I.I.C.C.C.C.C.C.C.C.C.C.C.C.C.m.M.M.b.b.b.b.b.b.b.z.j.f.s.u.[ T U L L P P L U U U Y [ { { { { { i.i.i.i.i.i.} { ] ] Y L P ",
"B.Z.Z.Z.U.U.Z.Z.Z.I.I.I.Z.B.Z.Z.B.B.B.B.B.B.B.B.V.V.B.B.Z.Z.Z.Z.U.U.U.U.U.U.U.Q.U.U.U.U.U.U.T.T.W.Q.Q.Q.R.W.W.W.W.W.!.W.!.!.!.} f a a u u u u u r r r r r t t t t < < < < < < < < < < < < < < < , , , , < < < , , , , , 2 2 2 2 < < < < < < < < < < < < < < < < 2 < < < < < < < < > 2 2 2 : 2 2 X X o o o o X X     X X X X o o o X X X o o o X X X o X X X X X X X X X X X X X X X X X X X       X X X     X X X                                                                                                                                                                                                                                                                                                                           + 1 3 3 e 4 l <.9.D.D.D.'.'.D.'.D.G.D.D.F.F.F.G.D..X.X.XF.H..X@X@X@XXX@X*XXXoX@X#X%X@X%X%X&X*X=X-X*X*X*X&X&X@X@X@X@X@XXXoX@X@X@X@X@XXXXXXXXXXX.X.X.X.X.X'.'.'.'.0.q.3.>.*.%.b 2.oX&X-X1X<X<XmXmXmXmXmXmXmXmXmXmXmXmXmXmXmX2X2X<X2X<X2X2X<X-X-X<X-X-X-X*X*X%X&X=X*X&X&XXXXX.XD.D.D.D.D.D.'.'.D.D.'.'.D.D.D.9.9.9.G.9.9.9.9.9.<.1.1.:.-.-.' A d e + O O O                                                                                                                                                                                             X X                     X X       X X     X X                                       X X X X X X X         X X X     X X X       X X X X X X X X X X X   X X X X X       X X     X X X X X X X X X X X X o o O X o o O X X X X X         X X X X X X o o o o 2 , , , , , , , < < t t t t t r u u u a f G f H } T.0X0X0X0X0X0X0XqX0X0XqXqX6X6X6X6X6X4X4X6X6X4X4X6X4X4XT.T.T.4XT.T.4X4X4XT.T.T.Y.Y.Y.Y.Y.Y.I.I.I.I.I.I.C.C.C.C.C.C.C.C.C.C.C.C.C.C.N.M.b.b.b.b.z.z.x.j.f.f.u.i.[ [ U L J J P P L U U Y [ [ [ [ [ [ { { { { { { [ [ ] ] L P P ",
"B.Z.U.Q.Q.U.Z.Z.Z.Z.I.Z.Z.B.Z.Z.B.B.B.B.B.B.B.B.V.V.B.B.Z.Z.Z.Z.U.U.U.U.U.U.U.U.U.U.U.U.U.U.T.T.W.W.Q.Q.Q.W.W.W.W.!.!.W.!.~.8Xp.f a u r u u u u r t r r r t t t r t < < < < < < < < < < < < < < 2 , 2 , 2 2 2 : , , , , 2 2 2 2 2 2 < < < < < < < < < < < < < 2 2 < < < < < < < < < < 2 2 : 2 2 o o o o o o o X     X X X X o o o X X X o o o X X X o X X X X X X X X X X X     X X X X X X         X X X X X X X X                                                                                                                                                                                                                                                                                                                       X , 3 3 3 e 4 x 1.9.G.D.D.'.D.0.0.G.D.D.D.'..X.XD.G.D..XF.D.F..X@XXX#X@X@X=X@XXX&XXX@X%X&X%X%X*X*X*X*X*X*X&X*X*X&X@X@X*X&X@X&X&X&XXXXX&X&X&X&X@X@XXXoXoXoX|.|.'.'.r.q.2.,.%.S b 2.XX&X-X<X<X<XmXmXmXmXmXmXmXmXmXmXmXmXmXmXmX2X2X2X2X<X<X<X-X-X=X-X-X=X*X*X*X%X&X=X*X=X=X&XXXOX.X.X'.G.D.D.'.'.D.D.'.D.F.D.D.D.9.9.9.9.G.9.9.9.-.-.<.8.1.1.1.Z d - 3 O       X                                                                                                                                                                                         X X X                   X X X     X X     X     X X   X X X X X                       X X X X X X         X X X     X X X X     X X X X X X X X X X   X X X X   X X     X X X   X X X X X X X X X X X X X O X X o o o X X X             X X X   X X o o o o 2 , , , , , , < < < t t t t r r r t u a f G p p ] K.9X9X0XqX0X0X0X0X6X0X0X0X6X6X6X6X6X4X6X6X6X4X4X6X4X4XT.T.T.4X4X4XT.T.T.T.T.T.Y.Y.I.I.Y.I.I.I.I.I.I.I.I.C.C.C.C.C.C.C.C.C.C.C.C.C.m.M.b.z.z.z.z.k.j.f.s.u.u.i.[ [ U P R J J P L L U U Y [ [ [ [ [ { { [ [ [ [ ] Y L L L P J ",
"Z.U.U.U.U.Z.Z.Z.Z.Z.Z.Z.Z.Z.Z.Z.Z.Z.B.B.B.B.B.B.Z.B.B.B.B.Z.I.U.U.U.U.U.U.U.U.Q.U.U.U.W.W.U.U.U.U.U.U.Q.T.W.W.W.W.!.!.W.7X!.!.u.f u u u r r r r r u u u r t t r < < < < t t < < < < < < < < < < 2 2 < < 2 2 : 2 < 2 2 : : : : : < 2 2 2 2 < < < < < < < < < < < < < , , : , < < < < , 2 : : : : : : : o X X X o       X o o o o o o o o o o X X o o X X X X X X X X X X X X X X X X X                     X X X                                                                                                                                                                                                                                                                                                                           o 2 + + e e 4 e ' 9.9.9.0.0.D.D.D.|.D.D.D.D.'..XD.9.D.G.D.D.D.F..X.XD..X=XXXF.@X*X@X*X*X*X*X*X&X&X*X&X*X&X&X*X*X*X*X*X&X&X&X&X&X&X&X&X*X*X*X&X&X@X@XXXoXoX.X.X'.'.D.0.2.>.&.@.b 2.oX*X*X<X<X<X<XmXmXmXMXMXmXMXmXmXmXmXmXmXmX2X2X2X2X<X2X<X-X-X-X-X=X=X-X*X*X&X&X&X&X&X&X&X+XoX.X'.D.9.D.J..XD.D.F.|.D.D..X0.0.9.9.<.9.9.9.9.9.9.<.9.<.:.-.' x e 3 - O   X X X X X                                                                                                                                                                                           X                                                                   X X X       X X X X       X X X           X X X   X X X X X X X X X X         X X X X   X X X X X   X X X X X X X X X   X O X X o O X X X X o o X             X X X X X o o o o o 2 , , 2 2 2 2 < < t r r t t t r r r r f f p G p J P.0XqX0XqX0X0X0X0X6X6X6X6X6X6X6X4X4X4X4X6X6X4X4X4X4X4X4X4X4X4X4XT.T.T.T.T.T.T.Y.Y.T.Y.I.I.Y.Y.Y.I.I.I.I.C.C.C.C.C.C.C.C.C.C.C.C.C.M.M.N.b.b.z.x.x.f.f.f.u.i.i.[ Y U P J J J J J P U U U Y Y ] ] ] ] ] ] ] ] ] U L L P K J J ",
"Z.Z.Z.Z.U.Z.Z.Z.U.U.U.Z.Z.Z.Z.Z.Z.Z.B.B.B.B.B.B.B.B.B.B.B.P.I.I.U.U.U.U.U.U.Q.Q.U.W.U.W.W.U.U.U.U.U.U.Q.T.W.W.W.!.!.!.!.7X!.!.u.p t u u r u r r r u u u r r t t r < < < t t < < < > < < < < < < < < < < < 2 2 : 2 2 : : : : : : : : : : 2 < < < < < < < < < < < < < < , , < < < < < , : : : : : 2 2 2 : o X X X       X o o o o o o o o o o X X o o X X X X X X X X X X X X X X X X X X X X X               X X                                                                                                                                                                                                                                                                                                                           X o o   1 e e l / 9.0.0.0.G.D.D.D.'.D.0.D.D.0.D.D.D.D.D.D.G.D.'.|..X.XoX&X@XoX@X%X@X%X*X*X*X*X&X&X@X@X*X&X&X*X*X*X*X*X@X%X%X%X%X%X&X&X*X*X*X&X&X@X@XXXoXoX.X.X'.'.D.0.2.>.%.S b 9.XX%X*X1X<X<X<XmXmXmXMXMXmXmXmXmXmXmXmXmXmXmX2X2X2X<X2X2X-X-X-X-X-X-X-X@X@X*X=XXXXX&X+XXXoX'.D.'.D.0..X.XJ.D.D.G.G.G.9.9.9.9.9.9.9.9.9.9.9.9.<.:.9.9.-.:.1.Z e w , O   X X X X                                                                                                                                                                                             X X X                                                               X X X       X X X X         X X           X X X   X X X X     X X X X X X X X X X X X       X X X X X X X X X X X X X X O o X O o o X X X X X o X             X X X X X X o o o o 2 2 : 2 2 2 2 < < < t t r r r u u u a h f p G p G N.0XqXqX0X0XqXqXqX6X6X6X6X6X6X6X4X4X4X4X6X6X4X4X4X4X4X4X4X4X4X4XT.T.T.T.T.T.T.Y.Y.Y.I.I.I.Y.Y.Y.I.I.I.C.C.C.C.C.C.C.C.C.C.C.C.C.C.M.M.b.b.b.x.j.j.f.f.u.i.i.[ [ Y U P J J R R J J L L U U U U U U Y Y ] Y Y L L L P K J N N ",
"Z.Z.Z.Z.Z.Z.Z.Z.U.U.U.U.Z.Z.Z.Z.Z.Z.B.B.B.B.B.B.B.B.B.Z.Z.P.I.I.U.U.U.U.U.U.Q.Q.W.W.W.W.W.W.U.U.Q.Q.W.W.T.W.W.W.!.!.!.!.7X!.!.p.p r u u r u r r r r u u r t t t r r t t r r < < 1 < < < < < < > < < < < < < : : 2 2 : : : : : : : : : : 2 2 < < < < < < < < < < < < < < < < < < < < , 2 : : : : : : 2 : o o X X       X o X o o o o o o o o o X o o X X X X X X X X X X X X X X X X X X X X X X             X X X X X                                                                                                                                                                                                                                                                                                                   X X X X   + e e l ) 9.G.9.0.0.0.D.'.D.D.9.D.D.0.0.D.D.0.'.0.9.D..X.XXX=XJ..XoXXX@X@X@X%X&X*X*X*X&X&X*X*X*X&X&X&X*X*X*X*X%X%X%X@X@X@X@X@X&X*X*X&X&X@XXXoX.X.X.X{.{.'.0.0.2.>.%.S D 9.XX%X*X1X<X<XmXmXmXmXMXMXmXMXmXmXmXmXmXmX2X2X2X2X<X<X2X2X-X-X=X=X-X-X-X&X&X=X=XXXXX&XXXoX.X'.'..X'.D..XF.D.F.D.D.D.D.D.0.9.<.8.<.<.9.1.1.<.8.8.<.9.8.-.<.8.^ e w 3 O X X X X                                                                                                                                                               X X                   X X       X X X X X   X X X X       X             X                 X           X X       X X X         X X     X       X X X     X         X X X X X X X X X X X X       X X X X X X X X X X X O o X o O X X o o O X X X X X X             X X X X X o o o o o o o 2 2 2 < < < < < t t t r u u u a a f f u H p G l.0X6XqXqXqX0X6X6X6X6X6X6X6X6X5X4X4X4X4X6X4X4X4X4X4X4X4X4X4X4X4X4XT.T.T.T.T.T.Y.Y.Y.Y.I.I.Y.Y.I.I.I.C.C.C.C.C.C.C.C.C.C.C.C.C.C.C.M.M.b.b.x.k.j.f.f.u.u.i.{ [ T U U P J R R R R R P P L L U U U U U U U L L L P P K B N f f ",
"Z.Z.Z.Z.Z.Z.Z.Z.U.U.U.Z.Z.Z.B.B.B.B.B.B.B.V.B.B.B.B.B.I.P.I.I.P.I.U.U.U.U.U.U.U.W.W.Q.W.W.U.U.U.Q.Q.W.W.T.W.W.W.!.!.!.!.7X!.7Xh.f u a u u u r r r r r r r r t t r r r r r r 1 < t < < < < < < 2 < < < < < < 2 : < < 2 2 2 2 : : : : : : : : : 2 < < < < < < < < , , < < , , 2 2 < < , 2 2 : : : o o 2 2 : : X X       X X X o o o o o o o o o o o o X X X X X X X X X X X X X X X X X X X X X X               X X X X X                                                                                                                                                                                                                                                                                                               X X X X O + + e e l D 9.9.2.9.9.q.0.D.0.0.0.D.D.0.0.D.D.D.D.9.9.0.D.D.F.XXD.G.D.oXoXXX@X%X%X*X*X*X&X&X*X*X*X*X&X&X*X*X&X@X&X%X@X@X@X@X#X#X&X&X&X&X&X@XXXoXoXoX.X{.{.D.0.q.2.,.%.b S 0.XX%X*X-X<X<XmXmXmXmXMXMXMXMXmXmXmXmXmXmX2X2X2X2X<X<X2X-X-X*X*X*X=X-X=X=X=X*X=X=X&XXX.X.XoX.X.X.X'.'.{.F.D.D.D.9.9.9.9.9.9.w.9.<.<.9.<.9.9.8.8.8.9.-.<.1.-.Z 3 w 3 + X X X                                                                                                                                                                           X           X X         X X X X X X X X X X                                     X X             X X   X X             X X X       X X X X             X X                       X X X X X X X X X X X X O O o o X O X X X X O X X X X X X X             X X X X o o o o o 2 o 2 : 2 < < < < < < t r r r r u u u a f f u p p J k.0XqXqXqX0XqX6X6X6X6X6X6X6X6X4X4X4X4X6X6X4X4X4X4X4X4X4X4X4X4X4X4XT.T.T.T.T.T.Y.Y.Y.Y.Y.Y.I.I.I.I.C.C.C.C.C.C.C.C.C.C.C.C.C.C.m.m.M.M.b.b.z.j.f.f.f.u.i.i.[ [ T Y L P R J R R R R J J P P L L L L L L L P P P J J N N f f f ",
"Z.Z.Z.U.U.U.Z.Z.I.I.Z.Z.Z.Z.Z.Z.B.B.B.V.V.B.B.B.B.B.B.I.I.I.P.P.I.I.U.U.U.U.U.U.Q.Q.U.U.U.W.W.W.Q.Q.Q.W.Q.W.W.W.W.!.!.!.!.!.8Xh.f u u u u u r r r r r r r r r t r t t r r r t 1 < < < < < < < > 2 < < < < < < 2 2 2 2 2 2 2 : 2 : 2 2 : : : : : 2 2 < < < < < < < , < < , , , , < < < , , 2 2 2 o : : 2 2 : X X X     X o X O o o o o o o o o o o o X X X X X X X X X X X X X X o o X X X X     X               X X X X X X X X                                                                                                                                                                                                                                                                                                         X X o o - ; d e e D <.<.<.9.q.w.9.0.9.w.D.0.9.9.9.0.'.'.D.G.9.G.D.D.D.D.G.9.G..XF..X@X@X&X*X*X&X@X@X&X*X*X*X&X*X*X&X@XXX%X@X@X@XXX@X#X@X&X&X&X&X&X@XoXoXoX.X.X'.D.D.0.q.2.,.%.b %.G.XX%X*X-X<X<XmXmXmXmXMXMXMXMXmXmXmXmXmX2X2X2X2X2X<X<X-X-X-X*X*X*X=X-X=X-X=X=X&X&XXX.X.X.XoX.X'.'.'.'.D.D.D.0.0.G.G.9.0.0.D.D.D.9.D..XG.9.9.9.<.<.9.<.1.-./ Z 3 w 3 -   X                                                                                                                                                                                           X           X X X X X X X X X                                     X               X X X X                 X X X       X X             X X X                 X X X X X X X X       X X X X O O o o X O X X X X O X O X X X X X             X X X   o o X o o 2 2 2 , 2 < < < < < t t r r r r u u u a f f u p p J c.0X0X0X0X0X0X0X6X6X6X6X6X6X6X4X4X6X6X6X6X4X4X4X4X4X4X4X4X4X4X4X4XT.T.T.T.T.T.Y.Y.Y.Y.Y.Y.I.I.I.I.C.C.C.C.C.C.C.C.C.C.C.C.I.C.C.m.m.M.b.b.b.x.f.f.u.u.i.i.[ [ T Y U L J J J H J J H H G J J P P P P P P P J J J N N f f s s ",
"Z.Z.Z.U.U.U.Z.Z.Z.Z.Z.Z.Z.Z.Z.Z.B.B.B.V.V.V.B.B.B.B.B.I.I.I.I.P.I.I.U.U.U.U.U.U.Q.Q.U.U.U.U.W.W.U.U.Q.W.T.W.W.W.W.!.!.!.!.!.8Xl.f u u u u u r r r r r r r r r r 1 t t r r t t t < < 1 t r < < < < < < < < < < < : : : 2 2 2 : : : : : : : : : : : : 2 < < < < < < < < < < < < < < < < , < < 2 2 : 2 2 2 2 o X   X     X X X X o X X X X o o o o o o X X X X X X X X X X X X X X X X X X X       X X X         X X X X X X X X X                                                                                                                                                                                                                                                                                                         X X o - - 1 d e x / 9.<.<.2.q.<.9.0.2.<.9.w.9.9.9.0.0.D.D.F.F.D.F..X.XF.J.G.D..XF..XXXXXXX@X&X&X&X@X*X=X*X*X*X*X*X&X@X@X#X#XXXXXXX@X@X@X@X@X@X@X@X@XoXoX.X|.'.D.D.D.0.q.2.>.@.z :.D.XX%X-X1X<X<XmXmXmXmXMXMXMXMXmXmXmXmXmX2X2X2X<X<X<X<X-X-X*X*X=X=X=X-X=X*X=X*X&XXXXXXXXXXXXXoX.X|.|.oX'.F.D.0.D..XXXXXD.D.D.D.9.9.9.0.D.9.9.9.9.-.<.9.-.-.' Z e w 3 ,                                                                                                                                                                                                             X X   X X X X             X X             X X                       X X X X       X           X X X       X X           X X X           X X X X X X X X X X X       X X X X X O O O o o o X X O o X X X X X X X             X X X X o o X X o o 2 2 2 2 > > < < < t t t t r r u a a h h f u p p P M.0X0X0X0X0X0X0X6XqXqX0X6X6X6X6X4X6X6X6X6X4X4X4X4X4X4X4X4X4X4XT.T.T.T.T.T.T.T.Y.Y.I.I.I.I.I.I.I.I.I.C.C.C.C.C.C.C.C.C.C.C.I.I.C.C.m.N.N.b.b.x.j.f.u.u.i.i.[ T T U U P J H H H H H H H H G J J J J J J J J J N f f f s i i i ",
"Z.Z.Z.Z.U.U.U.Z.Z.Z.Z.B.B.B.Z.Z.Z.B.B.V.V.V.B.B.B.B.B.P.I.I.I.I.I.U.U.U.U.U.U.U.Q.U.U.U.U.U.U.Q.U.U.U.Q.Q.W.W.W.W.!.!.!.!.!.8Xl.f u u u r u t t u r r r r r r r t t r r r t t t t t < t t t < < < < < < < < < < : : : : 2 2 : : : : : : : : : : : : 2 < < < < < < < < , , < < < < < 2 2 2 2 2 2 , 2 2 2 2 o X   X     X X X X o o o o o o o o X o o X X X X X X X X X X X X X X X X X X X X X X X X X X X X X X X X                                                                                                                                                                                                                                                                                                                       X X o - 1 w e v :.9.9.w.<.q.<.2.0.9.2.<.<.9.0.0.0.D.D.D.F.F.F.{.oXXXXXXX.X.XXXXX.XXXXX.XoX@X&X&X@X&X*X&X&X&X&X@XXXXX@X@X#XXXXXXX#X@X@X@X@X@X@XXXXXoXoX.X|.{.D.D.0.0.q.2.>.@.z 2..X@X*X-X<X<X<XnXmXnXmXmXmXmXmXmXmXmXmXmX2X2X<X<X<X<X-X-X*X*X*X=X=X=X=X=X=X&X&X+XXXXX&X&X@XXXXXoXoXXXXXoX|.D.D.D.D.D.|.'.D.D.D.9.9.0.9.D.9.9.9.9.-.:.:.:.1.1.Z e w 3 +                                                                                                                                                                                                               X                                                 X X               X X       X X X X       X   X     X   X X X     X X X X       X X X X X X X X X   X X X X X X O O X X X X X X X o o O X o O X X X X X X X           X X X X X X o o X X o 2 2 : 2 2 < < < < t t t t t r u u a h a u u p p P M.0X0X0X0X0XqX6X6XqXqXqXqX6X6X6X6X6X6X6X6X4X4X4X4X4X4X4X4XT.T.T.T.T.T.T.T.T.T.Y.Y.Y.I.I.I.I.I.I.I.I.I.C.C.C.C.C.C.C.C.C.C.I.I.I.C.C.N.N.b.b.z.j.f.u.u.i.i.[ T Y U L J H H p p p p p p p p H G G G G G f f f f p p i i i u i ",
"Z.Z.Z.Z.U.U.Q.Q.I.I.Z.Z.B.B.Z.Z.Z.B.V.V.V.V.B.B.B.B.B.Z.Z.I.I.I.U.U.U.Q.W.U.Q.U.U.U.U.U.U.U.U.U.U.U.U.Q.Q.W.W.W.W.!.!.!.!.!.8Xl.G u u u r r t t u r r r r r r r r r r r r 1 < 1 r t < < < < < < < < < 2 2 2 2 < : : 2 < < 2 2 2 2 : : : : : : : o : 2 < < < 2 < < < , 2 : , < < 2 2 2 : 2 2 2 2 2 2 2 : 2 : o X X     X X X X o o o o o o o o X o o X X X X X X X X X X X X X X X X X X X X X X X X X X X X X X X X                                                                                                                                                                                                                                                                                                                   .       O - - + e v 1.9.q.q.2.q.<.<.q.9.<.<.w.9.0.9.D.OXXX@X@X@X@XXX@X&X=X@XXXXX@X@XXX@X&X.XoX@X&XXX.X.X.XXXXXoXoX.X.XoXXX@X@X#XXXXXXXXXXX@X@XXXXXXXXXXXXX'.'.D.D.D.0.0.q.2.;.S z q.XX%X*X-X<X<X<XnXmXmXmXnXmXmXmXmXmXmXmXmX2X2X<X<X<X-X-X*X*X&X&X=X-X=X*X@X*X=XXX.XXX+X+XXXoXoXoXXXXX.X.X.XD.D..X.XD.D.D.D.0.0.D.0.D.0.9.8.8.9.9.8.<.9.8.-.1.-.x w w 1 O               X                                                                                                                                                                         X X                                     X X         X X                 X X X X X X X X   X X       X X X X           X         X X X X X X X X X       X X X                   X X X X O O O X X X X X X O o X X O X   X     X X             X O O O X X X o o X X o 2 2 2 < 1 < < < t r t t t t r r u h u t u p p U K.0X0X0XqXqX6X6X6X0X0X0X0XqX6X6X6X6X6X6X6X4X4X4X4X4X4X4XT.T.T.T.T.T.T.T.T.T.T.Y.Y.4XY.Y.I.I.I.C.C.I.I.I.C.C.C.C.C.I.C.C.C.I.I.C.C.C.N.N.N.b.b.j.f.d.u.i.i.[ T U U P J H p p p p p p p p p p f f f f f f f s p i i i i u u 9 ",
"Z.Z.Z.Z.Z.Z.Z.Z.Z.Z.Z.Z.Z.Z.Z.Z.Z.Z.B.B.B.B.B.B.Z.B.V.B.P.P.I.U.U.U.U.U.U.W.U.U.U.Q.W.W.U.U.U.U.U.U.U.U.T.T.W.W.W.!.E.!.7X7X!.c.K u u r t t r u r r r r r r r r t r r r r t < < < < t t < < < < < < < < < < < 2 2 2 2 2 2 < < < : : : : : : : o o o : : : 2 2 2 < < < < 2 2 < < < < < < < , < < 2 2 : : : : X X X X       X o o o o o o o o o 2 o o o o o X X   X X X X X X X X X X X X X X X X X X X X     X X   X X X         X             X                                                                                                                                                                                                                                                                                             X X - 1 + e x :.<.9.q.q.q.<.q.0.<.<.9.0.0.0.D.D.D..XoXXXXXXX*X=X@X.X.XXXXXXX&X&XXXoX.X{.oX@XoXF..XXXoXXXXX@X@XXX@X=X*X&X&X&X&X@XXXoX@XoXXXXX.XoXXX.X.XF.F.D.G.0.0.q.2.:.b D D.XX*X-X<X<XnXmXnXnXnXnXMXmXmXmXmXmXmX2XmX2X<X<X2X<X-X-X*X&X&X*X=X&X&X&X=X=X&XXXoX@X$XoX@X+XXXoXoX.X.X'.|.|.'.D.0.D.|.|.D.D.0.9.9.9.9.9.9.<.9.9.<.9.8.9.1.<.' e 3 w +                                                                                                                                                                                       X X X X     X                                             X     X X X       X X     X X                 X X               X X X X X X X X X X X                   X X       X     X X O X X X X X X X X X X o X X X X O X X X X O O O X           X X o o O X X X o X o o o 2 2 < < < < < < < t t t t r a a a u t u p p ] R.6XqX0X9X0X0X0X6X6X6X0X0X6X6X5X4X4X4X4X4X4X4X4X4XT.T.T.T.4X4XT.T.T.T.T.T.T.T.Y.Y.Y.Y.Y.I.I.I.I.I.I.I.I.C.C.C.I.I.C.C.C.C.I.I.C.m.m.m.M.n.b.b.k.f.f.d.u.i.[ T Y U P H H p p u y y y u u u u p p p p p p p p u u u u u u u 9 ",
"Z.Z.Z.Z.Z.Z.Z.Z.Z.Z.Z.Z.Z.Z.Z.B.Z.Z.B.B.V.B.B.B.B.B.B.B.P.I.I.U.U.U.I.U.U.U.U.U.U.U.W.Q.U.U.U.U.U.Q.U.W.W.W.W.W.W.!.E.!.7X7X!.M.K u u u u t r r u u r r r r r r < 1 r r t t 1 < < < 1 t t < < < < < < < < < 2 2 2 2 2 2 : : < < : : : : : : o o X o : : : : 2 < < < < , 2 : 2 < < < < < < , , , 2 2 : : : : o X X X     X X o o o o o o o o o o o o X X X X X X o o X X X X X X X X X X X X X X X X X X     X X   X X X                                                                                                                                                                                                                                                                                                                         , - 3 e v 1.<.q.q.q.9.9.9.w.<.w.0.D.D.0.D.D.'.oXXXXXoX.XoXXX.XF..XXXXXXX+X$XOXXXXX.XoXoX{.F..XXXoXoXoXoXoXoX@X&X&X@X&X@X@X@X@X@X@XXXXXXX.X.X.X.X.X.X'.D.D.0.0.2.2.:.b S D.@X-X<X<X<X<XmXnXnXnXMXMXnXmXmXmXmXmX2X2X<X<X<X2X<X-X-X*X&X&X*X=X=X*X*X=X@X@X&XXXXX+X@XXXoX'.'.'..X.XoXD.D.D.G.9.9.D.D.D.0.9.9.9.9.9.9.9.9.9.<.<.<.<.9.9.1.' e - 3 1 o                                                                                                                                                                                     X X X X     X               X             X             X X     X X         X X     X X                 X X X X           X X X X X X X X X X X X X                 X X X X X X X X X X X   X X X X X X O X O X X X X X X X X X X X X             X X X X X X X X o o o o o 2 2 < < < < < < t r r r r u a a a r t u p p } T.6XqX0X0X0X0X0X6X6X0X0X0X6X6X5X4X4X4X4X4X4X4X4X4X4XT.T.T.4X4XT.T.T.T.T.T.T.T.Y.Y.Y.Y.Y.I.I.I.I.I.I.I.I.I.C.C.C.C.C.C.I.I.I.I.C.C.C.m.N.M.b.b.x.j.f.d.u.i.[ T U U J H H p p u y y y y y u u u u u u u u u u u 9 9 u u 9 9 9 ",
"U.Z.U.U.U.U.Z.Z.Z.Z.Z.Z.Z.Z.Z.B.Z.B.B.V.V.B.B.B.B.B.B.Z.I.I.I.U.U.U.U.U.U.U.U.U.W.U.U.U.U.U.U.U.U.Q.W.W.W.W.W.W.W.!.E.!.!.8X!.K.G r u u u t r r u u r t t t r r < < t t 1 < < < t t t t t < < < < < < < < < 2 2 2 2 2 : : : : : 2 : : : : : o o X X o : : : 2 < < < < < , : , , 2 2 2 2 , , 2 2 2 : 2 : 2 : X X X X X X X X o o o o o o o o o o o o X X X X o X o o X X X X X X X X X X X X X X X X X X     X X       X                                                                                                                                                                                                                                                                                                                     X O - - e 4 v <.<.q.q.q.q.q.9.2.9.9.9.D.D.D.F..X.XXX@X@X#XoX.X.X.XF..XXXXXXXXXXXoXoXoXoXXX@XoXoXoXoXXXoXoXoXoXoXXXXX@X&X&X@X@XXXXX@XXXXXXXoXoX.X'.'..X'.'.D.D.0.0.2.,.%.z %.D.%X-XnX<X<X<XnXnXnXMXMXMXMXmXmXmXmX2X2X2X<X-X-X<X-X=X=X*X*X&X*X=X=X=X*X@XXX@X&X+XXX+X$XXXoX|.'.'.'..X.X|.D.D.0.9.9.9.9.D.D.0.9.9.9.9.9.-.<.<.<.:.:.9.9.<.1.^ d - 1 1                                                                                                                                                                       X X         X X X X     X X X               X             X X         X X X     X X X X     X X X X X X X                   X X X X   X X X     X X X X     X X   X     X X     X X X X X X X X X X X X     X X X X X X o X X X o O X X X X   X X X X             X X X X   X X o o o o o o : 2 < < < < < < t r r r r u a a r t t u u G p.6X0XqXqXqXqXqX0X0X0X0XqXqX6X6X5X5X4X4X4X4X4X4X4X4X4X4X4X4X4X4XT.T.T.T.T.T.T.Y.Y.Y.Y.Y.I.I.I.I.I.I.I.I.I.I.C.C.C.C.m.C.I.I.I.C.C.I.I.C.m.M.n.b.b.k.f.f.u.i.i.[ T U P H H p u y y y > > < > > < y u u u u 9 u 9 9 9 9 9 9 9 9 ",
"Z.Z.U.U.Q.U.Z.Z.I.I.Z.Z.Z.Z.Z.B.B.B.B.V.V.B.B.B.B.B.B.I.I.I.I.U.U.U.U.U.U.U.U.U.Q.U.U.U.U.W.U.U.U.U.U.Q.T.T.W.W.!.!.!.!.!.7X!.K.K u u u u t r r u u r r t t r r < t t r r 1 < < r r r r t < < < < < < < < < 2 : < 2 2 : : : : : 2 2 : : : : : o X X X o : : : : 2 2 , < , < < < 2 2 2 2 , , 2 : 2 : 2 : 2 : o o X X X X X X X X o o o o o o o o X o X X X X o X o X X X X X X X X X X X X X X X X X X X     X X                                                                                                                                                                                                                                                                                                                         X X X O O 3 e 4 v <.2.2.w.0.q.9.9.9.D.D.9.D.D.J..X.X.X.XXX@X&X@XXXXXoX.XXXXX.XoXXXXX.X.X.X.XXX@X@X@X@XXX@X@XXX@X@XXXXXoX@X@X&X@X@XXXXXXXXXXXoX.XoX.XD.'..X'.'.'.D.0.0.3.,.%.z ,.{.*X-XnX<X<X<XmXnXMXMXMXMXMXMXmXmXmXmXmX<X-X-X-X-X-X*X*X=X*X&X&X=X*X&X&XXX@X=X@XXX&X&XXXXXXXoXoXoX.X.X'..XD.0.0.0.0.9.9.9.9.0.0.9.<.<.:.-.:.-.:.-./ -.:.-.1.x 3 3 3 o                                                                                                                                                                       X X       X X X           X X                                         X X X   X X X X X X   X   X   X X X X X X X           X X X X       X       X                       X   X X   X X X X X X X X X X X   X X X   X X o X   X o o X X X X X X X X X             X X X X X X o o o o o o o : 2 < < < < < < < t r r r u u r t < r u u J l.T.0XqXqXqX6XqXqX0X0X0XqXqX6X6X6X5X4X4X4X4X4X4X4X4X4X4X4X4X4X4XT.T.4XT.T.Y.Y.Y.Y.T.I.I.I.I.I.I.I.C.C.I.I.I.C.C.C.C.C.C.C.I.I.I.I.I.I.C.m.N.n.n.b.x.j.f.u.i.i.i.T U L J H p p y y > > > > > > > > y 8 8 8 9 9 9 9 9 9 9 9 9 9 ",
"Z.Z.Z.U.Q.Q.U.Z.U.I.I.Z.Z.Z.Z.Z.B.B.B.V.V.V.B.B.B.B.B.I.I.I.I.U.U.U.U.U.U.U.U.U.Q.U.U.U.W.W.U.U.U.U.U.Q.Q.Q.T.T.!.!.!.!.!.!.!.K.L u u u u t r u r r r r r r r r t t r r r r r t r r 1 t < < < < < < < < < < < 2 < < < 2 : : : : : : : : : : : : o X X X o : : : : : : < < < < < < 2 : : < < 2 : 2 : 2 2 2 2 o o X X X     X X X o o o o o o o o o o o o o o X X X X X X X X X X X X X X X X X X X X     X X X X   X X X                                                                                                                                                                                                                                                                                                                 X X O O + 3 e l / <.9.2.9.0.9.9.0.0.|.D.G.D..X.XoXoX{..XXXXXXXXXXXXXXX.XXX.X.X.XXXXX.X.X.X.X.X.X.XXX&X&X=X&X&X=X=X&X@X@XXXXXoXoXXX@X@X@XXXXXoX.XXXoX'.|.'.{.'.'.'.0.0.q.2.#.b q.XX-X-X<X<X<XmXnXnXnXMXMXMXMXMXMXnXmXmXmX<X-X-X-X-X-X=X=X=X*X*X&X&X&X&X@X@X&X=X&X+X&X&XoX.X.XoXXXXXXXoX|..X0.0.D.0.0.9.9.<.<.9.9.<.:.-.-.-.%./ -./ D / %.1.' e + 1 1 : :                                                                                                                                                                             X X X             X X                                               X X X     X X X               X X X X X X X X X   X X X         X X X X     X X             X X       X           X X X X X X X X X X   X X o X   X o o X X X X X X X X X X X X       X X o O X o o o o o o o o : : 2 < < < < < t r r r u u u r < t u u u L K.6X0X0XqXqX0XqX0X0X0X6XqX6X6X6X6X6X6X6X6X4X4X4X4X4X4X4X4X4X4X4XT.T.T.T.T.Y.Y.Y.Y.Y.I.I.I.I.I.I.I.C.C.I.I.I.I.C.C.C.C.C.C.C.I.I.I.I.I.C.m.N.M.n.b.x.k.f.u.u.i.i.T U U P H p p y y > > > < < > > < y t u u 9 9 9 9 9 8 8 9 9 9 ",
"Z.Z.Z.U.U.U.U.Z.U.I.Z.Z.Z.Z.Z.Z.B.B.B.V.V.V.V.V.B.B.I.I.I.P.I.U.I.U.U.U.U.U.U.U.Q.U.U.U.W.Q.U.U.U.U.Q.W.W.W.W.W.W.!.!.!.!.!.!.P.~ a u u u t r u t r r r r r r t 1 r r r r r r r r t 1 < < < t t < < < < < < < 2 < < < 2 2 : : : : : : : : : : : : : o X o o : : , : 2 , < < < , < < : 2 < < 2 : : 2 2 2 2 2 o o X X X       X o o o o o 2 2 o o o o o o o o X X X X X X X X X X X X X X X X X X X X X   X   X X   X X X                                                                                                                                                                                                                                                                                                                     O + 3 3 e / <.<.2.q.q.9.9.0.0.0.D.D.D..X.X.XXXXXXX@XXXoX.X.XoXoXoX.X.X.XF..XXX.X'..X.XF.F..X.XXX&XXX=X=X&X=X=X&X=X*X&X#XoXoXoXXXXX@XXXXXXXXXXXXX|.|..X'.'.'.'.0.0.q.2.@.D 0.XX-X<X<X<X<XnXnXnXMXMXMXMXMXMXmXnXmX2X2X<X<X-X<X<X-X-X-X=X=X*X&X&X&X&X@X&XXX@X&X@XXXoX.X'..X|.oXoXoXoX.X'.D.D.D.0.9.9.9.<.-.-.<.:.-.%.S S D D / %.%.-.-.1.v - 3 + X : :                                                                                                                                                                             X X                 X               X X X X X X X X                   X         X X               X X X X X X X X X   X X X         X X X X     X X         X X X X       X             X X X X X X X X X   X X O X X X X X X X X O X X X X X X X         X X o o O o o o o o o o o : : 2 < < < < < t r r r r u r t < r u y y ] R.6X0X0X0X0X0X0X0X0X6X6X6X6X6X6X6X6X6X6X4X4X4X4X4X4X4X4X4X4X4X4XT.T.T.T.T.Y.Y.Y.Y.Y.Y.Y.I.I.I.I.I.I.C.C.I.I.I.C.C.C.C.C.C.C.I.Y.I.I.C.C.C.m.N.n.b.b.k.j.f.u.i.i.T U U P H H p u < > > > > > > > < < t u u 9 9 9 9 9 9 9 9 9 9 ",
"Z.Z.Z.Z.Z.U.Z.Z.I.I.Z.Z.Z.Z.Z.Z.Z.B.B.V.V.V.V.V.B.B.I.U.I.P.I.U.U.U.U.U.U.U.U.U.U.U.U.U.U.U.U.U.U.U.U.Q.W.W.W.W.W.!.!.7X!.!.!.P.o.a u u u r r r r r r r r r t t < t r r r r r r r t 1 < < < t t < < < < < < < < < < < < 2 2 : : : : : : : : : : : : : o o o : o : 2 : : , < , 2 < , : 2 < < 2 : : 2 : 2 2 2 o o o X X       X o o o o o 2 2 o o o o o o o o X X X X X X X X X X X X X X X X X X X X X             X X X                                                                                                                                                                                                                                                                                                                     O - 3 3 x 9.9.2.2.0.0.9.9.0.9.0.D.D..XoXXXXX@X&X&X*X&XXX.X.X.X.X.X.X.X.X.XoXoXF.D..X.XD.{.XXXXXXXXXX=X&X=X=X&X&X&X*X*X&X@XoXoXoXoXoXXXXX+X+XoX|.oX|.'.'.'.'.D.0.0.q.,.S S '.XX*X<X1X<XnXmXnXnXnXMXMXMXMXMXmXmX<X<X<X-X-X-X-X<X-X-X>X=X=X*X&X&X&X&X@X@XoXXX@XoX.X.X.X.XoXoX.X.X.X|.|.'.D.D.D.0.0.0.9.<.%./ -.-.-.%.S S D S S / %./ / ^ 4 3 3 o X o X                                                                                                                                                                               X                 X                 X X X X X X         X X                   X X     X X     X X X X     X X X X X X X X X       X X         X X X X     X X         X X           X X X X X X X X X X     X O O O X X X X X O O X X X X X X           X X O X X o o o o o o o o : : 2 2 < < < < t t t t r r t < < u r y p } !.7X6X0X0X0X0X0X7X6X6X6X6X6X4X4X6X6X6X6X4X4X4X4X4X4X4XT.T.T.4X4XT.T.T.T.T.T.T.Y.Y.Y.Y.Y.Y.I.I.I.I.I.C.C.I.I.C.C.C.C.C.C.C.C.I.I.I.I.C.I.C.C.N.n.b.b.x.k.f.f.u.i.[ T U P H H p u y > > > > > > > > > y < 9 < 9 9 9 9 9 9 9 9 9 ",
"U.U.Z.Z.Z.Z.Z.Z.Z.I.Z.Z.Z.Z.Z.I.Z.B.B.V.V.V.V.V.B.Z.I.U.I.B.P.U.U.U.Q.U.U.U.U.U.U.Q.W.W.U.U.U.U.U.U.U.U.Q.Q.W.W.T.!.!.7X!.!.7XR.o.f u u a r r r u r r t t t t r < < t r r r r t r t < < < < < < < < < < < < < < < < < < 2 2 2 2 : : : : : : : : : : : : o o : : : : : : 2 < < , < < : 2 < < 2 : : 2 : 2 : 2 : o o o X     X o o o o o o o o o o o o o X X X X o o X X X X X X o X X X X X X X X X X X             X X X                                                                                                                                                                                                                                                                                                               X     O , 3 4 ) D.G.0.9.0.q.9.D.0.9.D.|.|.XX&X&X@X&X&X@X@X@XXXoXoX.X.X.X.XoXoXXXXX.XD.D.{..XD.D..X.X.XXX=X&X&X=X=X=X@XXX@X@X@X&X&X@XoX.X.XoXoX@X+X.X'.|.|.D.D.D.D.0.0.q.q.,.S @.|.&X*XnX<XnXnXnXnXnXnXMXMXMXMXMXmXnX<X<X<X-X*X=X-X-X=X-X-X*X=X&X@X&X&X&X@XoXXX$XXX.XoXXX.X.XoXXXoXoX.X|.'.oXD.D.D.'.'.D.9.9.:.:.w.<.:.:.-.S D / D D / D D l 3 e - o X X                                                                                                                                                                                 X                 X                     X X           X X X X X   X           X X   X X X X   X X           X X X X X o X X X X X             X X X                   X X X X X X X X O X X     X X X X     X O O o X     X O o O   X X X X             X X X X X X o o o o o o 2 2 2 2 > < < < < t t t t t r t < < a u u G l.wX7X6X6XqX0X0X0XqXqX6X6X6X4X4X4X4X4X6X6X4X4X4X4X4X4XT.T.T.T.4X4XT.T.T.T.T.T.T.Y.Y.Y.Y.Y.Y.I.I.I.I.I.C.C.I.C.C.C.C.C.C.C.I.I.I.C.I.I.C.I.Y.I.C.n.b.b.b.b.k.f.u.i.i.T Y L J H p p y > > > > > > > > > < < < < 9 9 9 9 9 9 9 u 9 ",
"U.U.Z.Z.Z.Z.Z.Z.Z.U.Z.Z.Z.Z.Z.B.B.B.V.V.V.V.V.B.B.B.V.B.P.I.I.I.I.I.U.U.U.U.Q.U.Q.Q.Q.Q.W.W.U.U.U.Q.W.W.W.W.W.W.W.W.T.W.!.!.W.R.| u u r u a a r u r r r r t t r r r t < t t r r < < r r < < < t < < < < < < < < < < < 2 2 2 : : : : : : : : o : : : o o X o o o o o o : : : : : 2 2 2 2 2 2 2 > : : : 2 2 2 2 : : X X X X   X o o : 2 o o o o o o o X o o o X X X X X X X X X X X X X X X X X X X     X X     X X X                                                                                                                                                                                                                                                                                                                   X   O + 4 O l 2.w.q.0.D.D.q.0.0.0.q.|.|..XXX=X&X&X=X&XoXoXXX@X@XXXXXXXXXXX.X.XXXXXoX.X{.D.D.D.D.D.F..XXX&X@X@X@X&X*X*X&XXXXX@X@X@X@X@XXXoXXX.XoXXX|..X|.oX'.F.G.0.0.0.0.3.>.b :..X&X1X1XnXmXmXmXnXnXnXMXMXnXMXMXnXmXmXmX<X<X-X-X-X-X-X-X*X@X=X=XXX=X=X+X@X&X&X&X&X&X@XXX.X.XoXXXoX.X.X.X|.|.'.'.'.D.D.D.0.0.9.9.1.:.<.<.:.:.%.D D D D A e 3 3 3 1 O                                                                                                                                                                                   X X   X             X X                           X         X               X X X         X X X     X           X X     X X                     X X X X X X X X X X X X X X X     X   X O X       X X X X X X X X O X X X X X X X X X X   X X X               X X X o X X X o o 2 2 2 , < , : : < t t t t u t < < < < r u t L K.8X6X0X0X0X0X0X0X0X0XqXqXqXqXqXqX4X6X4X4X4X6X6X4X4X4X4X4X4X4X4X4X4X4XT.T.T.Y.Y.Y.Y.Y.Y.Y.Y.I.I.I.C.C.C.C.C.C.C.C.C.C.I.I.C.C.C.I.I.I.I.I.I.C.C.m.n.b.b.z.k.f.u.i.i.[ U U P J p p y y y > > > > > > > < > > 8 8 9 8 8 9 9 9 9 9 ",
"U.U.Z.Z.Z.Z.Z.Z.Z.Z.Z.Z.Z.Z.Z.B.B.B.V.V.V.V.V.B.B.V.V.B.I.U.U.I.I.I.I.U.U.U.U.U.Q.Q.U.Q.W.W.U.U.U.U.W.W.W.W.W.W.W.W.W.!.!.!.W.R.| u u u a a a r r r r r r t t r r t 1 < t t t t < < r r < < < < t < < < < < < < < < < < 2 2 : : : : : : : o o o : o o o o o : : : : : : : : 2 : 2 : : 2 2 2 2 : : 2 2 2 2 : : : : o X X X   X o o o o o o o o o o o o o o o X X X X X X X X X X X X X X X X X X X     X X   X X X X                                                                                                                                                                                                                                                                                                                 o     + - 4 4 / 2.w.q.0.9.0.q.0.q.q.0.D.0.D.D..X.XXX&X@XoXXXXXXXXX.XXXXXXXXXXXXX.X.X.XoXXXoX'.'..X|.oXoXoXXXXX+X@X&X=X*X&X@XXXXX@X&X&X&X@X@X#X.X.XoX|..X|.|.F.D.G.0.0.q.0.2.;.b :.XX*X1X<XnXmXmXmXnXnXnXMXMXMXMXMXnXmXmX2X<X<X-X-X-X-X-X-X*X=X=XXXXX=X=XXXXX&X&X&X=X*X&XXXXXXXoXoX.X|.|.|.D.'.D.'.'.D.'.|.D.0.9.9.9.9.9.<.<.:./ D A v e e 3 3 + + o                                                                                                                                                                                             X           X X                           X       X X       X       X X X         X X       X         X X X         X                   X X X X               X X X     X X   X X X       X X X X X X X X O O X X X X X X O O X   X X X             X X X X X X X X o : 2 2 , , , 2 2 2 < t t t t u t < < < t r p p o.R.0X0X0X0X0X0X0XqX0XqXqXqXqXqXqXqX4X6X4X4X6X6X6X6X4X4X4X4X4XT.T.T.T.T.T.4XT.T.T.Y.Y.Y.Y.Y.Y.I.I.I.C.C.C.C.C.C.C.C.C.C.I.I.I.C.I.I.I.I.I.I.I.C.C.m.M.N.b.b.k.f.u.u.i.[ Y U P J H p u y y > > > > > > > < > > 8 u u y y 9 9 9 u u ",
"U.U.Z.Z.Z.Z.Z.Z.Z.Z.Z.Z.Z.I.Z.B.B.B.V.V.V.V.V.V.B.V.V.B.I.I.U.I.I.I.I.I.I.U.U.U.U.Q.U.U.W.U.U.U.U.U.U.W.Q.T.W.W.W.W.!.!.!.!.W.E.| p u u a a a r r r r r r t t t r t < < < < t t < < r t < < < < t < < < < < < < < < 2 2 2 2 2 : : : : : : o o o o o o X o o : : : : o o : : : : 2 : : : 2 < : : 2 2 2 2 : : : : : o O X       X X o o o X o o o o o o o o X X X o o o o X X X X X X X X X X X X X X   X X   X X X X                                                                                                                                                                                                                                                                                                                 o     3 e e A 2.2.w.q.0.9.9.q.q.w.2.q.9.2.D.D.D.D..XoX.X{.oXoX|.D.|.oXXXXXXXOX+XXXXXoXoX|..XD.D.'.oXXXXXXX.XXX&X&X&X&X=X&X&XXX@X&X*X&X&X&X*XXX.X.XoXoX.X|.|.{.D.G.D.0.q.q.2.&.D 2.XX*X<X<XnXmXmXnXnXnXnXMXMXMXMXMXnXmXmX2X<X-X-X-X-X-X-X-X*X=X@X.XXX&XXX.XXX&X&X&X&X*X=X&X+XOXoX.X|.|.|.|.'.D.D.D.D.D.'.|.'.D.9.9.D.9.9.<.<.:./ v v x 4 4 - 3 + O O   .   .                                                                                                                                                                                     X X         X X             X X X               X X X       X X                 X X X       X           X X       X                     X X             X       X X X X X X X X X X X       X X X X X X X X X X X X X X X X O X X                   X X X X X X X o o : 2 2 , , , : 2 < < t t t u u < : 2 < u r p G p.0XqX0XqX0X0X0XqXqX0XqXqXqXqXqXqXqX6X6X6X6X6X6X6X6X4X4X4X4XT.T.T.T.T.T.T.T.T.T.T.Y.Y.Y.Y.Y.Y.I.I.I.I.C.C.C.C.C.C.C.C.C.I.I.I.I.I.I.I.I.Y.I.I.C.C.C.M.M.N.b.k.k.u.u.i.[ T U L J H p p u y > > > > > > > < > > < y y y y 9 9 9 u u ",
"Z.Z.Z.Z.Z.Z.Z.Z.Z.Z.Z.Z.I.I.Z.B.B.B.B.V.V.V.V.V.V.V.V.B.I.I.U.I.U.I.I.I.I.I.U.U.U.U.Q.U.W.U.U.U.U.U.U.W.Q.W.W.W.W.W.!.!.!.W.W.!.} p u u a j j r u u r r r r r r t t < < < < t < < < r < < < < < < < < < < < < < < < 2 2 2 2 2 : 2 : : : : : o o o o o o o o o : : o o o o : : : : : : : : 2 : : 2 2 2 2 : : : : : o O X       X o o o o X o o o o o 2 o X X X X o o o o X X X X X X X X X X X X o X X X       X X X X                                                                                                                                                                                                                                                                                                                   - a e e / q.2.w.0.q.9.0.0.2.2.:.q.w.q.'.|.D.F.|..XF.F..X.XF.D..XoXXXXXXX+X+XXXoX.X.X'.D.D.D.D.'..XoXXXXXXX&X&X&X&X&X@X@X@X&X*X*X&X@X@X&X@X.X.XoXoX|.oX.X'.D.0.D.0.q.q.,.%.D 9.XX*X<XnXnXmXnXnXnXnXnXMXMXMXMXMXMXmXmX<X<X<X<X-X-X-X-X-X*X&XXXXXXXXXF.{.XX@X&X&X&X&X&X+X+XOX.X|.'.|.oXoX|.|.|.|..X.X|.oX|.|.D.0.D.9.<.<.<.-./ v v v x e 3 3 - + O X                                                                                                                                                                                           X X X X     X               X X X X X           X X X       X X             X X X X X                   X X     X X X X                   X             X X X X X X X X X O X X X X X X X   X X X X X X X X X X X X X X X X O X X                 X X X X X X X o o o o 2 2 , 2 2 : < < < t t r u t > : : < u u u o.K.8X0X0XqXqXqX0XqXqX0XqXqXqXqXqXqXqX6X6X6X6X6X6X4X4X4X4X4X4X4XT.T.T.T.T.T.T.T.Y.Y.Y.Y.Y.Y.Y.I.I.I.I.I.C.C.C.C.C.C.C.C.C.C.C.I.I.I.I.I.I.Y.I.I.I.C.C.m.M.N.b.b.k.f.u.i.i.[ Y L J H p p u y > > > > > > > > > > < < < < y 9 9 u u u ",
"U.Z.Z.Z.Z.Z.Z.Z.Z.Z.U.Z.I.Z.B.B.B.B.B.V.V.V.V.V.V.V.B.B.I.I.I.I.U.U.U.I.I.U.U.U.U.U.U.U.U.U.U.U.U.U.U.Q.Q.W.T.T.W.W.!.!.W.T.W.!.} p u a a r j r r u u r r r r r t 1 1 < < < < < t t < < < < < < < < < < < < < < < < < 2 < < 2 : 2 2 : : : : : o o o o o o o o o o : : : : : : : : : : : : : 2 2 2 2 2 2 2 : 2 : 2 : o X         o : 2 o o o o o o o : o o X X o X X X X X X X X X X X X X X X X X X X     X X X X X                                                                                                                                                                                                                                                                                                                 O + 3 w e v :.2.2.w.0.w.0.q.0.:.:.<.q.q.D.D.'.D.|.|.oX.X.XoX.X|..XXX+XXXXX+XXXoX'.D.D.'..X|..X'.D.D.'..XXXXXXX&X&X&X&X&X%X@X&X*X*X*X&X@X@X@X@XoXoXoXoX|.oX.X.XD.0.D.0.q.3.,.%.D 9.XX%X<XnXnXmXnXnXnXnXnXMXMXMXMXMXMXmXmX<X<X2X2X<X-X-X=X=X=X@X@X&X@XXX.XoXXXXX@X@X@X+X+XXXoX|.|.'.D.'.|.OXOXOX|.|..X|.|..X|.D.0.0.0.9.<.<.<.%./ D D ^ ^ Z 3 3 - + o                                                                                                                                                                                             X X X X X X X         X X   X X X X X         X X X X       X X X X         X X X X X X                 X X X X   X X X X X X                   X X X X X X X O O X X X X X X       X X X   X X X X X X X X X X X X X X X X X X X       X X X X X X X X X o o o o o o o : : , 2 2 2 < < < < t t t < : : 2 t u u u u.0X6X0XqX5X5X6XqXqXqX0X0XqXqXqXqXqXqX6X6X6X4X4X4X4X4X4X4X4X4X4X4XT.T.4X4XT.T.Y.Y.Y.Y.Y.Y.Y.Y.I.I.I.I.I.C.C.C.C.C.C.C.C.C.C.C.C.I.I.I.I.I.Y.Y.I.I.I.C.m.m.b.b.b.k.f.u.i.i.[ Y U J H H p u y > > > > > > > > > > > > > > > u u u u i ",
"Z.Z.Z.Z.Z.Z.Z.Z.Z.Z.Z.Z.I.Z.B.B.B.B.B.B.B.V.V.V.V.V.B.B.Z.P.P.P.U.U.U.U.U.U.U.U.U.U.U.U.U.U.U.U.U.U.U.Q.Q.W.T.T.W.W.!.!.!.T.W.!.} p u a a r j r r u r t r r r t r t < < < < < t r t t < < < < < < < < < < < < < < < < 2 < < 2 : 2 2 : : : : : : o o o o o X X X X o : : o o o o : : : : : : 2 2 : 2 : : : 2 2 2 : o o O         o o 2 : o o o X o o o o o o o o X X X X X X X X X X X X X X X X     X   X X X X X X   X X                                                                                                                                                                                                                                                                                                           + - 3 3 x / 9.2.q.q.0.q.0.w.2.&.;.w.w.q.0.0.D.D.|.XXXXoX.XD.'..XoXXX+XXXXXOXoX.X'.'.'..X.X|.'.'.'.'.'..X.X.XXX@X&X&X&X=X*X*X&X&X*X*X*X&X&X&X@XoXoXoX|.|.OX|..XD.0.0.0.q.3.>.%.b 9.XX*X<XnXnXmXnXnXnXnXnXnXMXMXMXnXnXmXmX<X<X2X2X<X-X-X*X=X=X&X&X&X&X&X=X&X.XoXXX@XXXXXXXXXoX|.|.'.D.D.'.|.|.|.D.'.|.|.'.'.D.D.D.D.0.9.2.<.-./ -.-.) ) ^ ^ e 3 - + o                                                                                                                                                                       X                     X X X X X X X         X X X X X X X X           X X X       X X             X X X X X X X                 X         X X X X X X                           X X X X X X     X X       X X X   X       X X X X X X X X X X X X X X X X X       X X X X X X o o o o o o o o : : 2 2 2 , < < < 1 t t < < : : < r u u H c.9X4X9XqX5X6XqXqX0X0X0X0X0XqXqXqXqXqX6X6X6X4X4X4X4X4X4X4X4X4X4X4X4X4X4X4X4XT.T.T.Y.Y.Y.Y.Y.Y.Y.I.I.I.I.C.C.C.C.C.C.C.C.C.C.C.C.C.I.I.I.I.Y.Y.I.I.I.I.C.m.b.b.b.z.k.u.i.i.[ T U P J H p u y y > > > > > > > > > > > > > > t u u u i ",
"Z.Z.Z.Z.Z.Z.Z.Z.Z.Z.Z.Z.I.I.B.B.B.B.B.B.B.V.V.V.V.B.B.Z.Z.P.P.P.U.U.U.U.U.U.U.U.U.U.U.U.U.U.U.U.U.Q.U.Q.Q.W.T.T.W.W.!.!.!.!.!.!.} f u a a a j a r u r t r r r t t t < < 1 < 1 1 r r t < < < < < < < < < < < < < < < < < < < 2 : 2 : : : : : : : o o o o o o X X X X X X X X X o : o o : : 2 2 2 : : : : : : : : : o o X X       X o 2 o o o o X o o o o o o o o o o o X X X X X X X X X X X X X   X X X X X X       X X X X                                                                                                                                                                                                                                                                                                         + - 3 e v <.9.w.q.q.q.0.q.<.:.;.2.q.2.q.0.D.|.|.oXoX.X.X'.0.D.|.|.oXoXOXOXOXoXoX|.|.oXoX'.D.D.'.'..X.X.X.XoXXXXXXXXXXX&X=X=X@X@X&X=X*X*X*X&XXXoXoXoX.X|.|.|..XD.0.0.0.q.q.;.S b 0.XX*X1XnXnXnX<X<XnXnXnXMXMXMXMXnXnXmXmX<X1X<X<X-X-X=X*X=X=X&X&X=X=X&X=X&X|.oXXX$XXXXXXXXX.X|.|.'.D.D.D.|.|.|.|.|.OXOXOX|.|.|.'.D.D.9.9.<.:./ :.-.' ) ^ ^ x 3 - + +                                                                                                                                                                     X X                     X X         X         X X X X X X X X         X X X X               X X X       X X X X X           X   X X             X   X X                         X X   X X X       X X       X X X           X X X X X X X O O X X X   X X X X           X X X X X X o o : : o o 2 , : 2 < < < < < 1 t < : : < < t u u p [ E.9X6X9XqX0X0X0XqX0X0X0X0X0XqXqXqXqXqX6X6X6X6X4X4X4X4X4X4X4X4X4X4X4X4XT.T.4X4XT.T.Y.Y.Y.Y.Y.Y.Y.I.Y.I.C.C.C.C.C.C.C.C.C.C.C.C.C.C.I.I.I.Y.Y.Y.Y.Y.Y.I.C.m.N.N.b.z.k.u.u.i.[ [ U P J G H p y y > > < > > < > > > < > > > < < < u u i ",
"Z.Z.Z.Z.Z.Z.Z.Z.Z.Z.Z.Z.I.I.B.B.B.B.B.B.B.B.V.V.B.B.Z.I.Z.P.P.P.I.U.U.U.U.U.U.U.U.U.U.U.U.U.U.U.U.Q.U.Q.Q.W.W.W.W.W.!.!.!.!.!.!.p.f a a a a a a r u u r r r r t r t t < 1 t r t r r t < < t < < < < < < < < < < < < < < < < 2 : : : : : : : : : X X X o o o o o X X X X X X o : o o o : 2 2 : o : : : : : : : : : o o X X         X o : 2 2 o o o o o o o o o o o o o o o X X X X X X X X X X X   X o X X X         X X X X   X                                                                                                                                                                                                                                                                                                   O + + 3 e D 2.9.2.w.2.2.0.2.;.;.2.w.q.w.0.0.'.|.|.|.'.D.'..X0.'..X|.|.oXXXXXOXoX|.'.'.|..X|.'..XoXoXoXoXoXXXXXXXXXXXXXXX@X&X&XXXXX@X&X*X*X&X@XXX.XoXoX'.|.|.|..X'.0.0.q.q.q.;.D v 0.XX*X-XnXnXmXnX<XnXnXnXMXMXMXnXnXmXmXmX<X1X<X-X-X=X*X*X=X=XXXXX=X=X+X+X+X.XXX$X&X@XOXOXoX.X|.'.D.D.D.|.oXOX|.'.|.OXOX|..X|.|.D.G.0.9.9.2.<.1.1.-.-.' ) ^ Z e 3 - +                                                                                                                                                                     X X                     X         X X         X X X X X X X X         X X X X               X X X X     X X X X X           X X X                   X X             X X X X X X X X   X X X X X X X       X X X X X         X X X X X X X X X X X X   X O o X               X X X X X o : : o : 2 , : 2 < < < < < t < < : : < t r u y f l.8X0X0XqXqX9X0X0X0X0X0X0XqX0XqXqXqXqXqX6X6X6X6X6X4X4X4X4X4X4X4X4XT.T.T.T.T.T.T.T.Y.Y.Y.Y.Y.Y.Y.Y.I.Y.I.C.C.C.C.C.C.C.C.C.C.I.C.C.C.I.I.Y.Y.Y.Y.Y.Y.Y.I.C.C.m.N.N.b.k.u.u.i.[ [ Y U P J H p y y > > > > > < > > > < > > > y < < u u p ",
"I.I.I.I.Z.Z.Z.Z.Z.Z.Z.Z.B.P.P.B.B.Z.B.B.B.B.B.B.B.B.B.B.B.I.I.I.U.I.I.U.U.Q.U.U.U.U.W.W.W.W.U.U.Q.Q.Q.Q.Q.Q.T.T.W.!.!.!.!.!.!.!.p.f a u a a a u r r r r r r r r r t < < r r t < < < < < < < < < < < < < < < < < < < < 2 2 2 < < 2 2 : : : : : : o o X X X X X X X X X X X X X X X o o o : : : : : : : : : : 2 2 2 o X X X X         X o o o o o o o o o o o o X o o o o o X X X o o X X X X X X X o o X     X X                                                                                                                                                                                                                                                                                                                   + 3 + e v -.<.q.q.2.:.q.0.2.&.,.;.0.w.2.0.D.|.|.oX|.D.D.D.D.D..X|.|.'.|.XXOX|.|.OX|.'.'.'.'.'.'.'..XOXOXOXXXXX&X$X@X@XXXXXXX&XXXXX&X=X=X&X@X&XXX.X.X.X'.|.|.|.'.D.D.q.q.q.w.:.D v 9.XX%X<X<XnX<XnXnXnXnXnXnXMXMXMXnXmXmX<X<X<X<X-X-X=X-X-X=X=X&X&X+X+XXXoX.X|.+XOXOX&X+XOX|.|.|.'.D.D.D.'.|.|. X|.'.|.|.|.|.'.'.'.|.|.D.9.9.9.9.1.1.1.' / Z Z e 3 + +                                                                                                                                                                       X                                 X X         X X           X X     X X X X   X X X X X X X X   X   X X X     X X X X     X X X         X X X X X                 X X X X X X X X X X X       X O       X X X X X X X X X X X X X X X O O O X X X X X X             X X X X X X X o : : : 2 : 2 , 2 < < < < < < 1 < : : : > t t u u L I.9X5X9X9X0X0X0X0X0X0X0X0XqX0XqXqX4X4X6X6XqX6X6X4X4X4X4X4X4X4X4X4X4X4XT.T.T.4X4X4XT.T.T.T.T.Y.Y.Y.I.I.I.I.C.C.C.C.C.C.C.C.C.C.C.C.C.I.I.I.Y.Y.Y.Y.Y.Y.I.I.C.C.N.N.b.x.f.s.u.i.{ ] U P G H p u y > > > > > > > < < < < < > > > y u u p ",
"I.I.Z.I.Z.Z.Z.Z.Z.Z.Z.I.P.P.B.B.B.B.B.B.B.B.V.V.B.B.B.B.B.I.I.I.U.I.I.U.U.Q.Q.U.U.U.Q.W.W.U.U.U.Q.Q.Q.W.Q.Q.T.T.W.W.!.!.!.!.W.W.h.f a u a a r r r r r t r r t t r r 1 1 t t < < t t t t < < < < < < < < < < < < < < < 2 2 2 2 2 2 : : : : : : : o o o X X X X X X X X X X X X X X X o o o o : : : : o o o o : : : o X X X X X       X X o o o o 2 2 : o o o o X o o o o o X X X o o X X X X X X X o X X X   X X       X X X X                                                                                                                                                                                                                                                                                                     + 3 4 e -.:.:.q.0.2.;.2.2.:.:.;.:.w.w.w.0.D.|.'..X'.D.D.'.'.'.D.'.D.D.'.|.'.'.'.|.'.D.'.'.'.|.|.|.|.OX+XOXoXXX&X$X&X@XXX.XoX@X&XXX&X&X&X&X@X@XXXoX.X.XD.'.|.|.'.D.0.q.w.2.,.:.b v 9.oX%X1X1XnX<XnXnXnXnXnXnXnXMXMXmXnX<X<X<X<X1X-X-X=X=X=X=XXX&X&X+X+XXXOXoXoXXXoXXX+X+XOX|.oX'.'.|.'.D.D.'.|.|.|.D.'.'.'.|.|.|.|..X'.D.D.D.|.G.9.8.1.' ' D Z e 4 + +                                                                                                                                                                               X X X           X X X                       X       X X     X X X         X X X X X X       X X X       X X X     X X X X     X X X   X X                 X X X X X X X X   X X X     X X X X X X X X X X   X X X X X X X X X X X O X X X X X X           X X X X X X X o X o o 2 : : : : 2 2 < < < < < < < o : : : t t u p u.W.0X0X9X5X0X0X9X7X7X0X0X0X0XqXqXqX6X6X6X6X6X6X6X6X4X4X4X4X4X4X4X4X4X4XT.T.T.4XT.T.T.T.T.T.T.Y.Y.Y.I.I.I.C.C.C.C.C.C.C.C.C.C.C.C.C.I.I.I.I.Y.Y.Y.Y.Y.Y.I.I.I.C.C.N.b.b.k.f.d.i.i.[ U P G H p u y y > > > > > < < < < < > > > y y y a p ",
"P.I.Z.Z.U.U.U.U.Z.Z.I.I.I.P.P.B.B.B.B.B.B.V.V.V.B.B.B.B.Z.I.I.I.U.U.I.U.U.U.Q.Q.U.U.U.Q.U.U.U.U.Q.Q.Q.Q.Q.Q.W.W.W.W.!.!.W.W.W.!.v.G a u u r r r u u u r r r r r r r r 1 r r < < r r r 1 < < < < < < < < < < < < < < < < < 2 2 2 2 : : : : : : : : : : o o o X X X X X X X X X X X X X X X o o o o o o X X X o : : o X X X X X X       X X o o o 2 2 : o o o o o o o o o o X X X o o X X X X X X X X X X X X X   X     X X X X X                                                                                                                                                                                                                                                                                                   + 3 3 v 9.2.2.q.q.q.2.2.<.;.;.;.&.;.:.2.q.0.|.'..X|.'..XoXoX|.|.|.'.D.'.D.D.D..X'.G.0.D.'.'.'.D.D.D.oXOXOXXX$X$X&X&X&XXXoXXX@X&X&X&X&X&X&X@X@X&XXXoX.XD.D.'.'.'.0.0.0.w.2.;.:.b l 2.H.#X1X1XnXnXmXnXnXmXnXnXnXMXMXMXnX<X<X<X-X-X-X-X=X=X=X&XXXXX&X$XXXXXXXOXOXOXOXOX+X$XXXOXOX|.|.|.|.'.'.'.'.'.'.0.D.D.'.|.|.|.|.|.|.'.'.D.D.9.G.9.<.-.-.D v e 3 - -                                                                                                                                                                             X X X X X X     X X X X X X     X X X X     X X X   X X X     X X X         X X   X           X X X         X X         X X X X X X         X X X           X X X X X X         X X X X X X X X X X X X X X     X X X X X X X X X X X X X X X X X           X X X X X X X o X X : 2 2 2 : : 2 : 2 < < < < < : X o o : t y u L B.7X4X9X9X5X0X9X9X7X7X0X0X0X0XqXqXqXqXqX6X6X4X6X6X6X4X4X4X4X4X4X4X4X4XT.T.T.T.T.T.Y.Y.T.Y.T.T.Y.Y.Y.Y.Y.I.I.C.C.C.C.C.C.C.C.C.C.C.C.I.I.I.I.Y.Y.Y.Y.Y.Y.Y.I.I.C.m.N.n.b.k.f.d.i.i.[ U L J H p p u y > > : > > > : < < < < > > y y u u p ",
"I.I.Z.Z.Z.Z.Z.Z.Z.Z.I.I.I.P.B.B.B.B.B.B.V.V.V.V.B.B.B.B.Z.I.I.I.U.U.I.I.U.U.U.Q.U.U.U.U.U.U.U.U.Q.Q.Q.Q.Q.Q.W.W.W.W.W.W.W.W.W.E.v.f u u u r r r u u u u u u r r r r t t t r r t r r r 1 < < < < < < < < < < < < < < < < < < < < : : : : : : : : : : : : : o o X o o X X X X X X X X X X X X X X o o o o o X o o o X X X X X X X         X X o o o o o o o o o o o o o o o X X X X X o X X X X X X X X X X X X           X X     X                                                                                                                                                                                                                                                                                                 + 3 4 / 9.q.w.q.q.9.w.w.2.<.;.,.,.w.w.q.q.0..X.XOXOXOX+X&X+X+X+XOX|.|..X'.D.'.OX|.D.0.0.D.D.D.'.0.0.|.XXOXoXXXXX$X&X&X@XXXXX@X&XXX@X&X&X&X@XXX&XXXoX.X'.'.'.D.D.0.0.0.2.,.;.&.b l <.J.#X<X<XnXmXmXmXmXmXnXnXmXnXMXmX<X<X<X1X-X-X-X-X=X-X=X=X@XXX&X$XXXXX+X+XXX+XOXXX+X$X$X$X+XoX|.D.'.|.|.'.D.'.'.D.D.'.'.|.|.|.|.'.|.OX'.D.9.9.G.9.<.<.-.D v x e 3 - O                                                                                                                                                                             X X X X           X X X X         X         X X   X X X       X X         X     X             X X             X       X X X X X X         X X X X         X X X X X X         X X X X X X X X X X X X X X     X X X X X X X X X X X X X X X X X           X X X X X X X o X o o : : 2 2 2 < 2 < < < < < , o X : : < t u p } 6X7X4X9X0XqX0X7X7X7X7X7X0X0X0XqXqXqXqXqXqX4X4X6X6X6X4X4X4X4X4X4X4X4X4XT.T.T.T.T.T.T.Y.Y.Y.Y.Y.T.Y.Y.Y.Y.Y.I.I.C.C.C.C.C.C.C.C.C.C.C.I.I.I.I.Y.Y.Y.Y.Y.Y.Y.Y.I.C.m.N.n.b.z.f.f.u.i.[ T U P H H p u y > > > > > : : < < < < > > < > y u p ",
"U.I.I.I.Z.Z.Z.Z.Z.Z.I.I.P.P.B.B.B.B.B.B.V.V.V.V.B.B.B.B.Z.P.I.I.I.I.I.I.I.U.U.U.Q.U.U.U.U.Q.W.W.Q.Q.Q.Q.T.T.W.W.W.W.!.W.W.W.W.E.l.G u u u r u u u r u t r r r r t 1 r r t t r r r r r t < < < < < < < < < < < < < < < < < < < 2 2 : : : : : : : : : : : : o X X o o X X X X X X X X X X X X X X X o o o o o o X X X X X X X X X           X o o : 2 2 o o o o o o o X o o o o X X X o o o o X X X X X X X X X                   X X X                                                                                                                                                                                                                                                                                           X , , e 9.9.q.q.2.2.q.q.w.2.2.<.:.2.0.0.0.'.D.'.|.XXXX+X=X&X@X+XOX|.D.D.|.'.D.D.|.|.'.D.D.'.D.D.oXD.D.|.XXXXoX.XXXXXXXXX@X@XXXoXXXXXXX@X&X&X@XXXXXoX.X.X|.|.'.0.9.0.0.q.2.,.:.%.z k <.J.%X<XnXnXnXmXmXnXmXnXnXnXnXnX<X<X1X<X-X*X-X-X-X=X=X=X=X&X+X$X+XoXOXOXOX|.$XXXoXXXXXXXOXOXoX|.D.'.|.|.'.D.|.|.'.`.|.`.OXOXOX'.'.'.|.'.'.D.D.D.9.9.9.<.D Z b x e 3 - + +                                                                                                                                                   X                                               X             X           X X       X X X X X X             X X     X         X     X       X X X X             X X X           X X X X X X       X X X     X X     X X X X X X   X X X X X X X X X X X X X X X X X X           X X X X X X X o o o o : : : , < < < < < < < , 2 : o : < t y p J z.7X6X0X9XqX9X0X7X7X7X7X6XqX0X0XqXqXqXqXqXqX4X4X4X4X4X4X4X4X4X4X4X4X4XT.T.4X4X4XT.T.Y.Y.Y.Y.Y.Y.Y.Y.Y.Y.Y.I.I.C.C.C.C.C.C.C.C.C.C.C.I.I.I.I.Y.Y.Y.Y.Y.Y.Y.Y.Y.Y.C.Z.C.N.n.b.k.f.u.i.[ T U L J H p u y > > > > > : : < < < < > > y y y u a ",
"U.U.I.I.Z.Z.Z.Z.Z.Z.P.P.P.B.B.B.B.B.B.B.B.V.V.V.B.B.B.B.Z.P.I.I.I.I.U.U.U.U.U.U.U.U.W.Q.Q.W.W.W.Q.Q.Q.Q.T.T.W.W.W.W.!.!.W.W.W.!.l.G u u u r r r u u u u r r r r r r r r t < 1 1 t t 1 < 1 < < < < < < < < < < < < < < < < < 2 2 2 2 : : : : : : : : : : : : X X X X X X X X X X X X X X X X X X   X o o o o o o X X X X X X X X           X X o 2 2 , 2 o o o o X X X X o o o o X X o o o X X X X   X X X X X   X       X X         X X                                                                                                                                                                                                                                                                                         X 1 3 ^ D.q.2.q.2.2.9.9.<.<.2.w.;.w.w.q.0..X|.'.|.oX+X&X=X&XXX+X.X'.D.0.D.0.q.0.q.0.D.D.'.'.D.D.OX'.D.D.oXXXoX.X$XXXXXXX$X&XXX.XoXXXXXXX@X@X@X@XXX.X.X|.|.|.'.q.q.0.0.q.2.,.;.@.l k :.D.#X1X<XnX<X<X<X<X<X<XmXnXnXmX<X1X<X1X-X*X1X-X=X*X*X*X=X&X+X$X+XXXOXXXOX.X$XXXoXoXXXXXOXXX.X.X|.|.'.D.'.|.`.|.'.|.|.'.|.|.'.|.|.|.'.'.|.|..XD.0.G.9.2.%./ ) v x e 3 3 -                                                                                                                                                   X X                                             X X         X X           X X         X X X X X                                   X         X X X X     X X     X X X               X X X X     X X X       X X     X X X X X X   X X X X X X X X X X           X X X           X X X X X X X X : o o : : 2 , < < < < < < , o o : : : > y y p Y !.6X6X9X9XqX9XqX7X7X7X7X7XqX0X0X6XqXqXqXqX6X4X4X4X4X4X4X4X4X4X4X4X4XT.T.T.4X4X4XT.T.Y.Y.Y.Y.Y.Y.Y.Y.I.I.I.I.C.C.C.C.C.C.C.C.C.C.C.I.I.I.I.I.Y.Y.Y.Y.Y.T.T.Y.Y.Y.Z.Z.C.N.n.b.k.f.u.i.[ T U U P H p p y > > > > > : : > < > > > > y y y u p ",
"I.I.I.I.U.Z.Z.Z.Z.Z.Z.B.B.B.B.B.B.B.B.B.B.B.V.V.B.B.B.B.B.P.I.I.I.I.U.U.U.U.U.U.U.U.U.W.U.W.W.W.Q.Q.Q.Q.T.Q.T.T.W.W.!.!.!.!.W.!.c.G a u a r r u u u u u u u r r r r r r t < < t t t t t < < < < < < < < < < < < < < < < < < < 2 < 2 2 2 2 2 : : : : : : : o o X X X X X X X X X X X X X X X       X X X o o : : X X X X X X X X               X o 2 , 2 2 o o o X X X X o o o o X X o o X X X X   X X X X   X X X X   X X X           X                                                                                                                                                                                                                                                                                       X o 1 d 1.G.q.2.q.w.w.2.2.:.2.q.q.q.0.q.q.D.|..XoX'..XXX&X=X&XXXXX|.|.D.0.0.0.q.q.9.q.q.0.D.D.D.D.|.D.D.D.|.OXXXoX$X$X@X@X$X&X@XoX.XXX&XXXXXXX@XXXXXoXoX|.D.'.D.0.0.0.0.q.2.,.:.@.l 4 :.D.oX;X;X1X;X;X1X1X<X<XmXnXmX<X<X<X<X-X-X-X-X-X=X*X*X*X=X&X+X$X$XXXoXoXOXXX$XXXoXoXXX+X+XXX.X.X|.|.D.D.D.|.'.'.'.'.'.D.'.'.D.'.|.|.|.'.'.|..XD.D.D.9.9.:.-./ D v x e 3 - O                                                                                                                                                                                             X X                   X       X X   X X X X       X X X     X X X X   X X         X X X     X X X X         X X X X X X     X X X X       X X X X X     X X X   X X X X X X X X X X X X X X X X X X X X         X X X X X           X X X o X X X X o o : : : : , , < < < < , 2 o o 2 : : > y y J k.8X9X9XqX0X0X6X0X7X7X7X7X7X0X0XqXqXqXqXqX6X6X6X4X4X4X4X6X4X4X4X4X4X4XT.T.T.T.4X4XT.T.Y.Y.Y.Y.Y.Y.Y.I.I.I.I.C.C.C.C.C.C.C.C.C.C.C.I.I.I.I.I.I.Y.Y.Y.Y.T.T.T.T.Y.Y.Z.Z.C.N.b.b.k.f.u.i.i.[ T U P H H p y y > > : > : : : > > > < > > > y u a ",
"I.I.I.I.U.U.U.U.Z.Z.Z.B.B.B.B.B.B.Z.B.B.B.B.B.B.B.B.B.B.Z.P.I.I.I.U.Q.W.Q.U.U.U.U.U.U.U.U.U.U.Q.U.U.Q.Q.T.T.T.T.W.W.!.!.!.!.!.!.l.G u u a u a a r r u t r r t t t r r r t t r r r r r t < < < < < < < < < < < < < < < < < < < < < < 2 < 2 2 : : o : : : : : o o X X X X X X X X X X X X X X           X X o : 2 X X X X X X X X                   X 2 2 2 o o o X X X X o o o o X X o o X X X     X X X     X X X       X                                                                                                                                                                                                                                                                                                   X X o , Q 9.9.w.q.q.0.q.w.2.<.w.q.2.0.'.D.D.D.0.0.D.D.'..XXX=X&XXXoXD.|.'.0.0.0.0.D.0.0.q.q.0.D.D.'.|.|.'.D.D..XoXoXXXXXXXXXXX$X@XXX.XXX&X&XXXXXXXXXXXoXoX|.D.D.D.0.0.0.0.q.2.;.%.S l 4 :.D.H.;X;X;X;X;X1X1X<X<XmXnXMX<X<X<X<X-X-X-X*X=X=X=X*X=X=X=X+X$X&X+XoX.XOX+XXXXXoXoXXX+X+XXXoXoX.X|.'.D.D.'.'.`.'.'.'.0.'.D.'.0.0.'.|.OX|.|.'.'..XD.4.9.<.-.' ) v x d e 3 - X X                                                                                                                                                                 X X X X X X X X       X X X     X X X X     X X X   X X X   X X X X           X     X X X       X X       X X X     X X X           X X X X X X X   X X X X         X X X X     X o X X     X X X X X X X X X X X X X X X X             X X X X X           X X o o X X X X o o : 2 : : : : < < < , 2 o o o < : < u p p U !.8X9X9X4X0X9X4X9X6X6X6X6X6X6XqXqXqXqXqXqX6X6X6X4X4X4X6X6X6X6X4X4X4X4X4XT.T.T.4X4XT.T.Y.Y.Y.Y.Y.Y.Y.Y.I.I.I.I.C.C.C.C.C.C.C.C.C.C.I.I.I.I.I.I.Y.Y.Y.T.T.T.T.T.Y.Y.U.C.C.N.n.b.x.f.f.u.i.[ T U L G H p u y > : : : : : : : > > > > > > y u u ",
"U.U.U.U.I.Z.Z.Z.Z.U.U.Z.Z.I.Z.B.B.B.B.B.B.B.B.B.B.B.Z.Z.B.B.P.I.I.Z.U.U.U.U.U.U.U.U.U.U.U.U.U.U.U.U.Q.W.W.T.W.W.W.W.W.W.!.!.!.!.l.K u f a a r r r t t t t t t t t t r r r r r r r r t t t t t t < < < < < < < < < < < < < < < 2 2 2 2 2 2 2 : : : : : : : : : : : o o o o X X X X X X X                 X X X o X X X o o   X X                   X o o o 2 2 o o o o o X X X X X X X X X o X X X X X X X X X   X X X         X                                                                                                                                                                                                                                                                                               X O w -.9.9.9.D.D.D.D.0.0.0.9.w.0.D.D.D.D.D.D.D.0.0.|.OX|.'.|.|.|.'.'.0.q.0.0.D.'.'.'.0.0.0.D.D.'.'.|.'.D.D.'.|.OXoXXXXXXXXXXXXX@XoXF..XXXXXXXoX.XoXoX|.'.D.0.0.0.0.9.0.q.,.;.%.S k 4 1.F.#XH.;X1X;X;X<X<XnXmXmX<X<X<X<X<X1X-X<X*X*X*X=X=X*X*X=X=XXX&X&X&XOXoX$XOXOX+XoX+X$XXX$XXXXXoX|.'..X'.D.D.0.0.D.D.D.0.0.q.0.0.0.0.0.0.'.'.D.0.'.D.G.9.9.-.-./ D v e e e + O X           X                                                                                                                                                 X X X X X X X X                         X X X   X X X X X                         X X     X X X X             X           X X X   X X               X     X X X X X X X   X X X X X X X X X X X X X X X X X     X O O X X X X X o X X X o o X X X     X       X   X X X X X o o : : : : : 2 2 < < < < 2 o X o & , : < u u p h.7X0X0XqX0XqXqXqXqX0X7X7X7X6X6X6X6X6X6X6X6X6X6X6X5X4X5X4X4X4X6X6X4X4X4X4X4X4XT.T.T.T.T.T.Y.Y.Y.Y.Y.Y.Y.I.I.I.I.C.C.C.C.I.I.C.C.C.C.C.C.C.C.C.I.I.I.Y.Y.Y.T.T.T.Y.Y.Y.C.C.C.M.n.b.f.f.d.i.[ T Y L J G p u y y > > : > > : : : : > > > > y u p ",
"U.U.U.U.I.I.Z.Z.Z.I.U.Z.Z.Z.Z.B.B.B.B.B.C.B.B.B.B.Z.Z.Z.B.B.P.I.I.I.U.U.U.U.U.U.U.U.U.U.Q.Q.U.U.U.U.Q.W.W.T.W.W.W.W.W.!.!.!.!.!.K.K u p a a a u r t t t r r r r t t r r r r r r t t t t t t < < < < < < < < < < < < < < < < < 2 2 2 2 2 2 2 : : : : : : : : o o : o o o o X X X X X X X X X               X X X X X X o X     X                   X o o o o 2 o o o o o o o X X X X X X X o X X X X X X X X X   X X X         X                                                                                                                                                                                                                                                                                             X o + x -.4.9.0.D.D.J.D.D.D.0.q.0.|.0.0.D..X.X.XoXoX|.OX X'.0.0.0.0.D.D.0.0.0.0.D.'.'.'.D.0.D.D.D.D.'.|.'.D.D.D.'.OXoXOXXXXXXXXX@X@XoX{..XXXXXXX.X.XoXoX|.'.D.G.0.0.0.9.0.q.,.,.%.S k 4 1.F.#X#X;X1X;X<X<X<XmXmXmXmX<X<X<X<X1X-X<X*X=X*X=X=X*X*X=X=XXX&XXX$XoX|.+XOXXXOXoX+X$XXX$XXXOXXX.X|.|.|.'.'.D.D.D.D.0.0.0.0.'.'.'.0.0.q.0.0.D.0.D.9.9.9.9.:.-.%.D A x e e + O X           X                                                                                                                                               X X X X X X     X                       X X X X   X X X X X                         X X     X X X X             X           X X X   X X         X           X X X X X X X     X X X X X X X X X X X X X X X X X X X O O X X X X X o X X X X X X X X     X       X   X X X X X o o o : : : : 2 2 < < < < : : : o o 2 > t y u H z.0X0X0XqX0XqXqXqXqX0X0X0XqX6X6X6X6X6X6X6X6X6X6X6X6X4X5X4X4X4X6X4X4X4X4X4X4X4XT.T.T.T.T.T.Y.Y.Y.Y.Y.Y.Y.I.I.I.I.C.C.C.C.I.I.C.C.C.C.C.C.C.C.C.I.I.I.Y.Y.Y.T.T.T.Y.Y.Y.C.C.C.N.m.b.k.f.d.i.[ T U U J G p p y y > > : > > > : : : > > > > > u p ",
"U.U.U.U.I.I.Z.Z.Z.I.U.Z.Z.Z.Z.B.B.B.B.B.C.B.B.C.B.Z.Z.Z.B.B.P.I.U.U.I.U.U.U.U.U.U.U.U.U.Q.Q.U.U.U.U.W.W.W.T.W.W.W.W.!.!.!.!.!.!.K.K u u r a a u u r t t r r r r t t r r r r t t t t t t t t < < t < < < < < < < < < < < < < < 2 2 < 2 2 2 2 2 2 : : : : o o o o : o o o o X X X X X X X X X X X               X X X o X X X X                     X X o o 2 2 2 o o o o o o o o X X X X X o X X X X X X X X X   X X X         X                                                                                                                                                                                                                                                                                           X o - - c 1.<.9.D.|.J.D.9.0.0.q.q.0.0.D.D..XXXoXXX+XOXoX.X'.0.0.0.0.q.0.0.0.0.0.'.D.'.'.D.D.D.D.D.D.D.D.|.|.D.D.D.D.|.|.OXoXoXXX+X@XXXXX.X.XXXoX.X.X.X.X.X|.'.D.D.G.G.9.q.q.2.,.,.%.S 4 4 ' F.#X%X;X1X;X<X<X<XmXmXmXnX<X<X<X<X<X-X<X*X*X*X&X&X=X*X=X&XXXXXXXXX|.|.$XXXXXOXoX+X$XXX$X$X+XXXoX|.|.|.'.'.'.'.'.D.D.'.'.'.|.|.'.'.0.0.0.0.0.0.0.9.9.9.<.<.-.-./ / v l e 3 O O                                                                                                                                                       X X X X     X X                           X X X X           X X                         X X     X X X X             X     X       X X   X X         X         X X X X   X X X   X X X X X X X X X X X X X X X X X X X X X X X X X X X o X X X X X X X X     X       X   X X X X X o o o o : : : 2 2 2 < < : : : & o o 2 < t y u P N.0X0X0X0X0XqXqXqXqX0X0XqXqX6X6X6X6X6X6X6X6X6X6X6X6X4X5X4X4X4X6X4X4X4X4X4X4X4XT.T.T.T.T.T.Y.Y.Y.Y.Y.Y.Y.I.I.I.I.C.C.C.C.I.I.C.C.C.C.C.C.C.C.C.I.I.I.Y.Y.Y.T.T.T.Y.Y.Y.C.C.C.m.N.n.k.g.d.i.i.T Y L P J H p u y > > : > > : : : : > > > > > u p ",
"U.U.U.U.I.I.Z.Z.Z.Z.Z.Z.Z.Z.Z.C.B.B.B.B.C.B.B.C.B.Z.Z.Z.B.B.P.I.I.I.U.U.U.U.U.U.U.U.U.U.Q.Q.U.U.U.U.Q.W.W.T.W.W.W.W.!.!.W.W.!.!.P.P u u u a a u u r t t r r r r r r r r r r t t t t t t t t < < r < < < < < < < < < < < < < < < < 2 2 2 2 2 2 2 : : : : o o o o : o o o o X X X X X X X X X X X                 X X o X X X X X                     X o o 2 2 2 o o o o o o o o X o o X X X X X X X X X X X X X X X X         X                                                                                                                                                                                                                                                                                         X o , 1 - W -.<.9.D.|.J.D.G.D.D.4.0.'.0.|..XOX+XoX.XoXoX.XD.0.0.'.0.0.q.0.0.0.0.'.D.D.D.D.D.D.'.'.'.D.0.D.|.|.D.D.D.D.|.|.|..X.XXXXX@XXXXX.X.XXX.X.X.X.X.X.X|.'.D.D.D.D.9.9.q.2.,.,.%.D 4 4 ' F.%X;X;X1X-X;X1X<XnXnXmXmX<X<X<X<X<X1X<X-X&X%X@X&X=X=X&X&XXXXXXXXX.X.X+XXXXXXXoXXX$XXX&X$XOXXX|..X|.|.'.'.`.OX|.'.'.'. X X'.|.|.'.'.'.'.0.0.0.0.9.G.9.<.9.:.-.%.-.D x e 3 O o X                                                                                                                                                   X X X X X     X                             X X                 X                         X X     X X   X             X X X X X     X X   X X       X X X X X X X X X X   X X X   X X X X X X X X X X X X X X X X X X X X X X X X X X X o X X X X X X X X     X X     X X X X X X X o o o o : : : 2 2 < < 2 : : : : & o 2 < t y p L m.0X9X0X0XqXqXqX0X0X0X0XqX6X6X6X6X6X6X6X6X6X6X6X6X4X4X5X4X4X4X6X4X4X4X4X4X4X4XT.T.T.Y.T.T.Y.Y.Y.Y.Y.Y.Y.I.I.I.I.C.C.C.I.I.C.C.C.C.C.C.C.C.C.C.I.I.I.Y.Y.Y.T.T.T.T.Y.Y.C.C.C.m.N.n.k.g.g.i.i.[ Y U P J G p u y > > : > > : : : : > > > > y u p "
};
